P3
128 128
255
  115 131  73  115 131  73  115 131  73  115 131  73  111 200 105  111 200 105  111 200 105  111 200 105  108  13 137  108  13 137  108  13 137  108  13 137  104  82 169  104  82 169  104  82 169  104  82 169  100 151 201  100 151 201  100 151 201  100 151 201   96 220 233   96 220 233   96 220 233   96 220 233   93  34   9   93  34   9   93  34   9   93  34   9   89 103  41   89 103  41   89 103  41   89 103  41   85 172  73   85 172  73   85 172  73   85 172  73   81 241 105   81 241 105   81 241 105   81 241 105   78  54 137   78  54 137   78  54 137   78  54 137   74 123 169   74 123 169   74 123 169   74 123 169   70 192 201   70 192 201   70 192 201   70 192 201   67   5 233   67   5 233   67   5 233   67   5 233   63  75   9   63  75   9   63  75   9   63  75   9   59 144  41   59 144  41   59 144  41   59 144  41   55 213  73   55 213  73   55 213  73   55 213  73   52  26 105   52  26 105   52  26 105   52  26 105   48  95 137   48  95 137   48  95 137   48  95 137   44 164 169   44 164 169   44 164 169   44 164 169   40 233 201   40 233 201   40 233 201   40 233 201   37  46 233   37  46 233   37  46 233   37  46 233   33 116   9   33 116   9   33 116   9   33 116   9   29 185  41   29 185  41   29 185  41   29 185  41   25 254  73   25 254  73   25 254  73   25 254  73   22  67 105   22  67 105   22  67 105   22  67 105   18 136 137   18 136 137   18 136 137   18 136 137   14 205 169   14 205 169   14 205 169   14 205 169   11  18 201   11  18 201   11  18 201   11  18 201    7  87 233    7  87 233    7  87 233    7  87 233    3 157   9    3 157   9    3 157   9    3 157   9  255 255 255  255 255 255  255 255 255  255 255 255
  115 131  73  115 131  73  115 131  73  115 131  73  111 200 105  111 200 105  111 200 105  111 200 105  108  13 137  108  13 137  108  13 137  108  13 137  104  82 169  104  82 169  104  82 169  104  82 169  100 151 201  100 151 201  100 151 201  100 151 201   96 220 233   96 220 233   96 220 233   96 220 233   93  34   9   93  34   9   93  34   9   93  34   9   89 103  41   89 103  41   89 103  41   89 103  41   85 172  73   85 172  73   85 172  73   85 172  73   81 241 105   81 241 105   81 241 105   81 241 105   78  54 137   78  54 137   78  54 137   78  54 137   74 123 169   74 123 169   74 123 169   74 123 169   70 192 201   70 192 201   70 192 201   70 192 201   67   5 233   67   5 233   67   5 233   67   5 233   63  75   9   63  75   9   63  75   9   63  75   9   59 144  41   59 144  41   59 144  41   59 144  41   55 213  73   55 213  73   55 213  73   55 213  73   52  26 105   52  26 105   52  26 105   52  26 105   48  95 137   48  95 137   48  95 137   48  95 137   44 164 169   44 164 169   44 164 169   44 164 169   40 233 201   40 233 201   40 233 201   40 233 201   37  46 233   37  46 233   37  46 233   37  46 233   33 116   9   33 116   9   33 116   9   33 116   9   29 185  41   29 185  41   29 185  41   29 185  41   25 254  73   25 254  73   25 254  73   25 254  73   22  67 105   22  67 105   22  67 105   22  67 105   18 136 137   18 136 137   18 136 137   18 136 137   14 205 169   14 205 169   14 205 169   14 205 169   11  18 201   11  18 201   11  18 201   11  18 201    7  87 233    7  87 233    7  87 233    7  87 233    3 157   9    3 157   9    3 157   9    3 157   9  255 255 255  255 255 255  255 255 255  255 255 255
  115 131  73  115 131  73  115 131  73  115 131  73  111 200 105  111 200 105  111 200 105  111 200 105  108  13 137  108  13 137  108  13 137  108  13 137  104  82 169  104  82 169  104  82 169  104  82 169  100 151 201  100 151 201  100 151 201  100 151 201   96 220 233   96 220 233   96 220 233   96 220 233   93  34   9   93  34   9   93  34   9   93  34   9   89 103  41   89 103  41   89 103  41   89 103  41   85 172  73   85 172  73   85 172  73   85 172  73   81 241 105   81 241 105   81 241 105   81 241 105   78  54 137   78  54 137   78  54 137   78  54 137   74 123 169   74 123 169   74 123 169   74 123 169   70 192 201   70 192 201   70 192 201   70 192 201   67   5 233   67   5 233   67   5 233   67   5 233   63  75   9   63  75   9   63  75   9   63  75   9   59 144  41   59 144  41   59 144  41   59 144  41   55 213  73   55 213  73   55 213  73   55 213  73   52  26 105   52  26 105   52  26 105   52  26 105   48  95 137   48  95 137   48  95 137   48  95 137   44 164 169   44 164 169   44 164 169   44 164 169   40 233 201   40 233 201   40 233 201   40 233 201   37  46 233   37  46 233   37  46 233   37  46 233   33 116   9   33 116   9   33 116   9   33 116   9   29 185  41   29 185  41   29 185  41   29 185  41   25 254  73   25 254  73   25 254  73   25 254  73   22  67 105   22  67 105   22  67 105   22  67 105   18 136 137   18 136 137   18 136 137   18 136 137   14 205 169   14 205 169   14 205 169   14 205 169   11  18 201   11  18 201   11  18 201   11  18 201    7  87 233    7  87 233    7  87 233    7  87 233    3 157   9    3 157   9    3 157   9    3 157   9  255 255 255  255 255 255  255 255 255  255 255 255
  115 131  73  115 131  73  115 131  73  115 131  73  111 200 105  111 200 105  111 200 105  111 200 105  108  13 137  108  13 137  108  13 137  108  13 137  104  82 169  104  82 169  104  82 169  104  82 169  100 151 201  100 151 201  100 151 201  100 151 201   96 220 233   96 220 233   96 220 233   96 220 233   93  34   9   93  34   9   93  34   9   93  34   9   89 103  41   89 103  41   89 103  41   89 103  41   85 172  73   85 172  73   85 172  73   85 172  73   81 241 105   81 241 105   81 241 105   81 241 105   78  54 137   78  54 137   78  54 137   78  54 137   74 123 169   74 123 169   74 123 169   74 123 169   70 192 201   70 192 201   70 192 201   70 192 201   67   5 233   67   5 233   67   5 233   67   5 233   63  75   9   63  75   9   63  75   9   63  75   9   59 144  41   59 144  41   59 144  41   59 144  41   55 213  73   55 213  73   55 213  73   55 213  73   52  26 105   52  26 105   52  26 105   52  26 105   48  95 137   48  95 137   48  95 137   48  95 137   44 164 169   44 164 169   44 164 169   44 164 169   40 233 201   40 233 201   40 233 201   40 233 201   37  46 233   37  46 233   37  46 233   37  46 233   33 116   9   33 116   9   33 116   9   33 116   9   29 185  41   29 185  41   29 185  41   29 185  41   25 254  73   25 254  73   25 254  73   25 254  73   22  67 105   22  67 105   22  67 105   22  67 105   18 136 137   18 136 137   18 136 137   18 136 137   14 205 169   14 205 169   14 205 169   14 205 169   11  18 201   11  18 201   11  18 201   11  18 201    7  87 233    7  87 233    7  87 233    7  87 233    3 157   9    3 157   9    3 157   9    3 157   9  255 255 255  255 255 255  255 255 255  255 255 255
  115 161  32  115 161  32  115 161  32  115 161  32  111 230  64  111 230  64  111 230  64  111 230  64  108  43  96  108  43  96  108  43  96  108  43  96  104 112 128  104 112 128  104 112 128  104 112 128  100 181 160  100 181 160  100 181 160  100 181 160   96 250 192   96 250 192   96 250 192   96 250 192   93  63 224   93  63 224   93  63 224   93  63 224   89 133   0   89 133   0   89 133   0   89 133   0   85 202  32   85 202  32   85 202  32   85 202  32   82  15  64   82  15  64   82  15  64   82  15  64   78  84  96   78  84  96   78  84  96   78  84  96   74 153 128   74 153 128   74 153 128   74 153 128   70 222 160   70 222 160   70 222 160   70 222 160   67  35 192   67  35 192   67  35 192   67  35 192   63 104 224   63 104 224   63 104 224   63 104 224   59 174   0   59 174   0   59 174   0   59 174   0   55 243  32   55 243  32   55 243  32   55 243  32   52  56  64   52  56  64   52  56  64   52  56  64   48 125  96   48 125  96   48 125  96   48 125  96   44 194 128   44 194 128   44 194 128   44 194 128   41   7 160   41   7 160   41   7 160   41   7 160   37  76 192   37  76 192   37  76 192   37  76 192   33 145 224   33 145 224   33 145 224   33 145 224   29 215   0   29 215   0   29 215   0   29 215   0   26  28  32   26  28  32   26  28  32   26  28  32   22  97  64   22  97  64   22  97  64   22  97  64   18 166  96   18 166  96   18 166  96   18 166  96   14 235 128   14 235 128   14 235 128   14 235 128   11  48 160   11  48 160   11  48 160   11  48 160    7 117 192    7 117 192    7 117 192    7 117 192    3 186 224    3 186 224    3 186 224    3 186 224    0   0   0    0   0   0    0   0   0    0   0   0
  115 161  32  115 161  32  115 161  32  115 161  32  111 230  64  111 230  64  111 230  64  111 230  64  108  43  96  108  43  96  108  43  96  108  43  96  104 112 128  104 112 128  104 112 128  104 112 128  100 181 160  100 181 160  100 181 160  100 181 160   96 250 192   96 250 192   96 250 192   96 250 192   93  63 224   93  63 224   93  63 224   93  63 224   89 133   0   89 133   0   89 133   0   89 133   0   85 202  32   85 202  32   85 202  32   85 202  32   82  15  64   82  15  64   82  15  64   82  15  64   78  84  96   78  84  96   78  84  96   78  84  96   74 153 128   74 153 128   74 153 128   74 153 128   70 222 160   70 222 160   70 222 160   70 222 160   67  35 192   67  35 192   67  35 192   67  35 192   63 104 224   63 104 224   63 104 224   63 104 224   59 174   0   59 174   0   59 174   0   59 174   0   55 243  32   55 243  32   55 243  32   55 243  32   52  56  64   52  56  64   52  56  64   52  56  64   48 125  96   48 125  96   48 125  96   48 125  96   44 194 128   44 194 128   44 194 128   44 194 128   41   7 160   41   7 160   41   7 160   41   7 160   37  76 192   37  76 192   37  76 192   37  76 192   33 145 224   33 145 224   33 145 224   33 145 224   29 215   0   29 215   0   29 215   0   29 215   0   26  28  32   26  28  32   26  28  32   26  28  32   22  97  64   22  97  64   22  97  64   22  97  64   18 166  96   18 166  96   18 166  96   18 166  96   14 235 128   14 235 128   14 235 128   14 235 128   11  48 160   11  48 160   11  48 160   11  48 160    7 117 192    7 117 192    7 117 192    7 117 192    3 186 224    3 186 224    3 186 224    3 186 224    0   0   0    0   0   0    0   0   0    0   0   0
  115 161  32  115 161  32  115 161  32  115 161  32  111 230  64  111 230  64  111 230  64  111 230  64  108  43  96  108  43  96  108  43  96  108  43  96  104 112 128  104 112 128  104 112 128  104 112 128  100 181 160  100 181 160  100 181 160  100 181 160   96 250 192   96 250 192   96 250 192   96 250 192   93  63 224   93  63 224   93  63 224   93  63 224   89 133   0   89 133   0   89 133   0   89 133   0   85 202  32   85 202  32   85 202  32   85 202  32   82  15  64   82  15  64   82  15  64   82  15  64   78  84  96   78  84  96   78  84  96   78  84  96   74 153 128   74 153 128   74 153 128   74 153 128   70 222 160   70 222 160   70 222 160   70 222 160   67  35 192   67  35 192   67  35 192   67  35 192   63 104 224   63 104 224   63 104 224   63 104 224   59 174   0   59 174   0   59 174   0   59 174   0   55 243  32   55 243  32   55 243  32   55 243  32   52  56  64   52  56  64   52  56  64   52  56  64   48 125  96   48 125  96   48 125  96   48 125  96   44 194 128   44 194 128   44 194 128   44 194 128   41   7 160   41   7 160   41   7 160   41   7 160   37  76 192   37  76 192   37  76 192   37  76 192   33 145 224   33 145 224   33 145 224   33 145 224   29 215   0   29 215   0   29 215   0   29 215   0   26  28  32   26  28  32   26  28  32   26  28  32   22  97  64   22  97  64   22  97  64   22  97  64   18 166  96   18 166  96   18 166  96   18 166  96   14 235 128   14 235 128   14 235 128   14 235 128   11  48 160   11  48 160   11  48 160   11  48 160    7 117 192    7 117 192    7 117 192    7 117 192    3 186 224    3 186 224    3 186 224    3 186 224    0   0   0    0   0   0    0   0   0    0   0   0
  115 161  32  115 161  32  115 161  32  115 161  32  111 230  64  111 230  64  111 230  64  111 230  64  108  43  96  108  43  96  108  43  96  108  43  96  104 112 128  104 112 128  104 112 128  104 112 128  100 181 160  100 181 160  100 181 160  100 181 160   96 250 192   96 250 192   96 250 192   96 250 192   93  63 224   93  63 224   93  63 224   93  63 224   89 133   0   89 133   0   89 133   0   89 133   0   85 202  32   85 202  32   85 202  32   85 202  32   82  15  64   82  15  64   82  15  64   82  15  64   78  84  96   78  84  96   78  84  96   78  84  96   74 153 128   74 153 128   74 153 128   74 153 128   70 222 160   70 222 160   70 222 160   70 222 160   67  35 192   67  35 192   67  35 192   67  35 192   63 104 224   63 104 224   63 104 224   63 104 224   59 174   0   59 174   0   59 174   0   59 174   0   55 243  32   55 243  32   55 243  32   55 243  32   52  56  64   52  56  64   52  56  64   52  56  64   48 125  96   48 125  96   48 125  96   48 125  96   44 194 128   44 194 128   44 194 128   44 194 128   41   7 160   41   7 160   41   7 160   41   7 160   37  76 192   37  76 192   37  76 192   37  76 192   33 145 224   33 145 224   33 145 224   33 145 224   29 215   0   29 215   0   29 215   0   29 215   0   26  28  32   26  28  32   26  28  32   26  28  32   22  97  64   22  97  64   22  97  64   22  97  64   18 166  96   18 166  96   18 166  96   18 166  96   14 235 128   14 235 128   14 235 128   14 235 128   11  48 160   11  48 160   11  48 160   11  48 160    7 117 192    7 117 192    7 117 192    7 117 192    3 186 224    3 186 224    3 186 224    3 186 224    0   0   0    0   0   0    0   0   0    0   0   0
  115 190 247  115 190 247  115 190 247  115 190 247  112   4  23  112   4  23  112   4  23  112   4  23  108  73  55  108  73  55  108  73  55  108  73  55  104 142  87  104 142  87  104 142  87  104 142  87  100 211 119  100 211 119  100 211 119  100 211 119   97  24 151   97  24 151   97  24 151   97  24 151   93  93 183   93  93 183   93  93 183   93  93 183   89 162 215   89 162 215   89 162 215   89 162 215   85 231 247   85 231 247   85 231 247   85 231 247   82  45  23   82  45  23   82  45  23   82  45  23   78 114  55   78 114  55   78 114  55   78 114  55   74 183  87   74 183  87   74 183  87   74 183  87   70 252 119   70 252 119   70 252 119   70 252 119   67  65 151   67  65 151   67  65 151   67  65 151   63 134 183   63 134 183   63 134 183   63 134 183   59 203 215   59 203 215   59 203 215   59 203 215   56  16 247   56  16 247   56  16 247   56  16 247   52  86  23   52  86  23   52  86  23   52  86  23   48 155  55   48 155  55   48 155  55   48 155  55   44 224  87   44 224  87   44 224  87   44 224  87   41  37 119   41  37 119   41  37 119   41  37 119   37 106 151   37 106 151   37 106 151   37 106 151   33 175 183   33 175 183   33 175 183   33 175 183   29 244 215   29 244 215   29 244 215   29 244 215   26  57 247   26  57 247   26  57 247   26  57 247   22 127  23   22 127  23   22 127  23   22 127  23   18 196  55   18 196  55   18 196  55   18 196  55   15   9  87   15   9  87   15   9  87   15   9  87   11  78 119   11  78 119   11  78 119   11  78 119    7 147 151    7 147 151    7 147 151    7 147 151    3 216 183    3 216 183    3 216 183    3 216 183    0  29 215    0  29 215    0  29 215    0  29 215
  115 190 247  115 190 247  115 190 247  115 190 247  112   4  23  112   4  23  112   4  23  112   4  23  108  73  55  108  73  55  108  73  55  108  73  55  104 142  87  104 142  87  104 142  87  104 142  87  100 211 119  100 211 119  100 211 119  100 211 119   97  24 151   97  24 151   97  24 151   97  24 151   93  93 183   93  93 183   93  93 183   93  93 183   89 162 215   89 162 215   89 162 215   89 162 215   85 231 247   85 231 247   85 231 247   85 231 247   82  45  23   82  45  23   82  45  23   82  45  23   78 114  55   78 114  55   78 114  55   78 114  55   74 183  87   74 183  87   74 183  87   74 183  87   70 252 119   70 252 119   70 252 119   70 252 119   67  65 151   67  65 151   67  65 151   67  65 151   63 134 183   63 134 183   63 134 183   63 134 183   59 203 215   59 203 215   59 203 215   59 203 215   56  16 247   56  16 247   56  16 247   56  16 247   52  86  23   52  86  23   52  86  23   52  86  23   48 155  55   48 155  55   48 155  55   48 155  55   44 224  87   44 224  87   44 224  87   44 224  87   41  37 119   41  37 119   41  37 119   41  37 119   37 106 151   37 106 151   37 106 151   37 106 151   33 175 183   33 175 183   33 175 183   33 175 183   29 244 215   29 244 215   29 244 215   29 244 215   26  57 247   26  57 247   26  57 247   26  57 247   22 127  23   22 127  23   22 127  23   22 127  23   18 196  55   18 196  55   18 196  55   18 196  55   15   9  87   15   9  87   15   9  87   15   9  87   11  78 119   11  78 119   11  78 119   11  78 119    7 147 151    7 147 151    7 147 151    7 147 151    3 216 183    3 216 183    3 216 183    3 216 183    0  29 215    0  29 215    0  29 215    0  29 215
  115 190 247  115 190 247  115 190 247  115 190 247  112   4  23  112   4  23  112   4  23  112   4  23  108  73  55  108  73  55  108  73  55  108  73  55  104 142  87  104 142  87  104 142  87  104 142  87  100 211 119  100 211 119  100 211 119  100 211 119   97  24 151   97  24 151   97  24 151   97  24 151   93  93 183   93  93 183   93  93 183   93  93 183   89 162 215   89 162 215   89 162 215   89 162 215   85 231 247   85 231 247   85 231 247   85 231 247   82  45  23   82  45  23   82  45  23   82  45  23   78 114  55   78 114  55   78 114  55   78 114  55   74 183  87   74 183  87   74 183  87   74 183  87   70 252 119   70 252 119   70 252 119   70 252 119   67  65 151   67  65 151   67  65 151   67  65 151   63 134 183   63 134 183   63 134 183   63 134 183   59 203 215   59 203 215   59 203 215   59 203 215   56  16 247   56  16 247   56  16 247   56  16 247   52  86  23   52  86  23   52  86  23   52  86  23   48 155  55   48 155  55   48 155  55   48 155  55   44 224  87   44 224  87   44 224  87   44 224  87   41  37 119   41  37 119   41  37 119   41  37 119   37 106 151   37 106 151   37 106 151   37 106 151   33 175 183   33 175 183   33 175 183   33 175 183   29 244 215   29 244 215   29 244 215   29 244 215   26  57 247   26  57 247   26  57 247   26  57 247   22 127  23   22 127  23   22 127  23   22 127  23   18 196  55   18 196  55   18 196  55   18 196  55   15   9  87   15   9  87   15   9  87   15   9  87   11  78 119   11  78 119   11  78 119   11  78 119    7 147 151    7 147 151    7 147 151    7 147 151    3 216 183    3 216 183    3 216 183    3 216 183    0  29 215    0  29 215    0  29 215    0  29 215
  115 190 247  115 190 247  115 190 247  115 190 247  112   4  23  112   4  23  112   4  23  112   4  23  108  73  55  108  73  55  108  73  55  108  73  55  104 142  87  104 142  87  104 142  87  104 142  87  100 211 119  100 211 119  100 211 119  100 211 119   97  24 151   97  24 151   97  24 151   97  24 151   93  93 183   93  93 183   93  93 183   93  93 183   89 162 215   89 162 215   89 162 215   89 162 215   85 231 247   85 231 247   85 231 247   85 231 247   82  45  23   82  45  23   82  45  23   82  45  23   78 114  55   78 114  55   78 114  55   78 114  55   74 183  87   74 183  87   74 183  87   74 183  87   70 252 119   70 252 119   70 252 119   70 252 119   67  65 151   67  65 151   67  65 151   67  65 151   63 134 183   63 134 183   63 134 183   63 134 183   59 203 215   59 203 215   59 203 215   59 203 215   56  16 247   56  16 247   56  16 247   56  16 247   52  86  23   52  86  23   52  86  23   52  86  23   48 155  55   48 155  55   48 155  55   48 155  55   44 224  87   44 224  87   44 224  87   44 224  87   41  37 119   41  37 119   41  37 119   41  37 119   37 106 151   37 106 151   37 106 151   37 106 151   33 175 183   33 175 183   33 175 183   33 175 183   29 244 215   29 244 215   29 244 215   29 244 215   26  57 247   26  57 247   26  57 247   26  57 247   22 127  23   22 127  23   22 127  23   22 127  23   18 196  55   18 196  55   18 196  55   18 196  55   15   9  87   15   9  87   15   9  87   15   9  87   11  78 119   11  78 119   11  78 119   11  78 119    7 147 151    7 147 151    7 147 151    7 147 151    3 216 183    3 216 183    3 216 183    3 216 183    0  29 215    0  29 215    0  29 215    0  29 215
  115 220 206  115 220 206  115 220 206  115 220 206  112  33 238  112  33 238  112  33 238  112  33 238  108 103  14  108 103  14  108 103  14  108 103  14  104 172  46  104 172  46  104 172  46  104 172  46  100 241  78  100 241  78  100 241  78  100 241  78   97  54 110   97  54 110   97  54 110   97  54 110   93 123 142   93 123 142   93 123 142   93 123 142   89 192 174   89 192 174   89 192 174   89 192 174   86   5 206   86   5 206   86   5 206   86   5 206   82  74 238   82  74 238   82  74 238   82  74 238   78 144  14   78 144  14   78 144  14   78 144  14   74 213  46   74 213  46   74 213  46   74 213  46   71  26  78   71  26  78   71  26  78   71  26  78   67  95 110   67  95 110   67  95 110   67  95 110   63 164 142   63 164 142   63 164 142   63 164 142   59 233 174   59 233 174   59 233 174   59 233 174   56  46 206   56  46 206   56  46 206   56  46 206   52 115 238   52 115 238   52 115 238   52 115 238   48 185  14   48 185  14   48 185  14   48 185  14   44 254  46   44 254  46   44 254  46   44 254  46   41  67  78   41  67  78   41  67  78   41  67  78   37 136 110   37 136 110   37 136 110   37 136 110   33 205 142   33 205 142   33 205 142   33 205 142   30  18 174   30  18 174   30  18 174   30  18 174   26  87 206   26  87 206   26  87 206   26  87 206   22 156 238   22 156 238   22 156 238   22 156 238   18 226  14   18 226  14   18 226  14   18 226  14   15  39  46   15  39  46   15  39  46   15  39  46   11 108  78   11 108  78   11 108  78   11 108  78    7 177 110    7 177 110    7 177 110    7 177 110    3 246 142    3 246 142    3 246 142    3 246 142    0  59 174    0  59 174    0  59 174    0  59 174
  115 220 206  115 220 206  115 220 206  115 220 206  112  33 238  112  33 238  112  33 238  112  33 238  108 103  14  108 103  14  108 103  14  108 103  14  104 172  46  104 172  46  104 172  46  104 172  46  100 241  78  100 241  78  100 241  78  100 241  78   97  54 110   97  54 110   97  54 110   97  54 110   93 123 142   93 123 142   93 123 142   93 123 142   89 192 174   89 192 174   89 192 174   89 192 174   86   5 206   86   5 206   86   5 206   86   5 206   82  74 238   82  74 238   82  74 238   82  74 238   78 144  14   78 144  14   78 144  14   78 144  14   74 213  46   74 213  46   74 213  46   74 213  46   71  26  78   71  26  78   71  26  78   71  26  78   67  95 110   67  95 110   67  95 110   67  95 110   63 164 142   63 164 142   63 164 142   63 164 142   59 233 174   59 233 174   59 233 174   59 233 174   56  46 206   56  46 206   56  46 206   56  46 206   52 115 238   52 115 238   52 115 238   52 115 238   48 185  14   48 185  14   48 185  14   48 185  14   44 254  46   44 254  46   44 254  46   44 254  46   41  67  78   41  67  78   41  67  78   41  67  78   37 136 110   37 136 110   37 136 110   37 136 110   33 205 142   33 205 142   33 205 142   33 205 142   30  18 174   30  18 174   30  18 174   30  18 174   26  87 206   26  87 206   26  87 206   26  87 206   22 156 238   22 156 238   22 156 238   22 156 238   18 226  14   18 226  14   18 226  14   18 226  14   15  39  46   15  39  46   15  39  46   15  39  46   11 108  78   11 108  78   11 108  78   11 108  78    7 177 110    7 177 110    7 177 110    7 177 110    3 246 142    3 246 142    3 246 142    3 246 142    0  59 174    0  59 174    0  59 174    0  59 174
  115 220 206  115 220 206  115 220 206  115 220 206  112  33 238  112  33 238  112  33 238  112  33 238  108 103  14  108 103  14  108 103  14  108 103  14  104 172  46  104 172  46  104 172  46  104 172  46  100 241  78  100 241  78  100 241  78  100 241  78   97  54 110   97  54 110   97  54 110   97  54 110   93 123 142   93 123 142   93 123 142   93 123 142   89 192 174   89 192 174   89 192 174   89 192 174   86   5 206   86   5 206   86   5 206   86   5 206   82  74 238   82  74 238   82  74 238   82  74 238   78 144  14   78 144  14   78 144  14   78 144  14   74 213  46   74 213  46   74 213  46   74 213  46   71  26  78   71  26  78   71  26  78   71  26  78   67  95 110   67  95 110   67  95 110   67  95 110   63 164 142   63 164 142   63 164 142   63 164 142   59 233 174   59 233 174   59 233 174   59 233 174   56  46 206   56  46 206   56  46 206   56  46 206   52 115 238   52 115 238   52 115 238   52 115 238   48 185  14   48 185  14   48 185  14   48 185  14   44 254  46   44 254  46   44 254  46   44 254  46   41  67  78   41  67  78   41  67  78   41  67  78   37 136 110   37 136 110   37 136 110   37 136 110   33 205 142   33 205 142   33 205 142   33 205 142   30  18 174   30  18 174   30  18 174   30  18 174   26  87 206   26  87 206   26  87 206   26  87 206   22 156 238   22 156 238   22 156 238   22 156 238   18 226  14   18 226  14   18 226  14   18 226  14   15  39  46   15  39  46   15  39  46   15  39  46   11 108  78   11 108  78   11 108  78   11 108  78    7 177 110    7 177 110    7 177 110    7 177 110    3 246 142    3 246 142    3 246 142    3 246 142    0  59 174    0  59 174    0  59 174    0  59 174
  115 220 206  115 220 206  115 220 206  115 220 206  112  33 238  112  33 238  112  33 238  112  33 238  108 103  14  108 103  14  108 103  14  108 103  14  104 172  46  104 172  46  104 172  46  104 172  46  100 241  78  100 241  78  100 241  78  100 241  78   97  54 110   97  54 110   97  54 110   97  54 110   93 123 142   93 123 142   93 123 142   93 123 142   89 192 174   89 192 174   89 192 174   89 192 174   86   5 206   86   5 206   86   5 206   86   5 206   82  74 238   82  74 238   82  74 238   82  74 238   78 144  14   78 144  14   78 144  14   78 144  14   74 213  46   74 213  46   74 213  46   74 213  46   71  26  78   71  26  78   71  26  78   71  26  78   67  95 110   67  95 110   67  95 110   67  95 110   63 164 142   63 164 142   63 164 142   63 164 142   59 233 174   59 233 174   59 233 174   59 233 174   56  46 206   56  46 206   56  46 206   56  46 206   52 115 238   52 115 238   52 115 238   52 115 238   48 185  14   48 185  14   48 185  14   48 185  14   44 254  46   44 254  46   44 254  46   44 254  46   41  67  78   41  67  78   41  67  78   41  67  78   37 136 110   37 136 110   37 136 110   37 136 110   33 205 142   33 205 142   33 205 142   33 205 142   30  18 174   30  18 174   30  18 174   30  18 174   26  87 206   26  87 206   26  87 206   26  87 206   22 156 238   22 156 238   22 156 238   22 156 238   18 226  14   18 226  14   18 226  14   18 226  14   15  39  46   15  39  46   15  39  46   15  39  46   11 108  78   11 108  78   11 108  78   11 108  78    7 177 110    7 177 110    7 177 110    7 177 110    3 246 142    3 246 142    3 246 142    3 246 142    0  59 174    0  59 174    0  59 174    0  59 174
  115 250 165  115 250 165  115 250 165  115 250 165  112  63 197  112  63 197  112  63 197  112  63 197  108 132 229  108 132 229  108 132 229  108 132 229  104 202   5  104 202   5  104 202   5  104 202   5  101  15  37  101  15  37  101  15  37  101  15  37   97  84  69   97  84  69   97  84  69   97  84  69   93 153 101   93 153 101   93 153 101   93 153 101   89 222 133   89 222 133   89 222 133   89 222 133   86  35 165   86  35 165   86  35 165   86  35 165   82 104 197   82 104 197   82 104 197   82 104 197   78 173 229   78 173 229   78 173 229   78 173 229   74 243   5   74 243   5   74 243   5   74 243   5   71  56  37   71  56  37   71  56  37   71  56  37   67 125  69   67 125  69   67 125  69   67 125  69   63 194 101   63 194 101   63 194 101   63 194 101   60   7 133   60   7 133   60   7 133   60   7 133   56  76 165   56  76 165   56  76 165   56  76 165   52 145 197   52 145 197   52 145 197   52 145 197   48 214 229   48 214 229   48 214 229   48 214 229   45  28   5   45  28   5   45  28   5   45  28   5   41  97  37   41  97  37   41  97  37   41  97  37   37 166  69   37 166  69   37 166  69   37 166  69   33 235 101   33 235 101   33 235 101   33 235 101   30  48 133   30  48 133   30  48 133   30  48 133   26 117 165   26 117 165   26 117 165   26 117 165   22 186 197   22 186 197   22 186 197   22 186 197   18 255 229   18 255 229   18 255 229   18 255 229   15  69   5   15  69   5   15  69   5   15  69   5   11 138  37   11 138  37   11 138  37   11 138  37    7 207  69    7 207  69    7 207  69    7 207  69    4  20 101    4  20 101    4  20 101    4  20 101    0  89 133    0  89 133    0  89 133    0  89 133
  115 250 165  115 250 165  115 250 165  115 250 165  112  63 197  112  63 197  112  63 197  112  63 197  108 132 229  108 132 229  108 132 229  108 132 229  104 202   5  104 202   5  104 202   5  104 202   5  101  15  37  101  15  37  101  15  37  101  15  37   97  84  69   97  84  69   97  84  69   97  84  69   93 153 101   93 153 101   93 153 101   93 153 101   89 222 133   89 222 133   89 222 133   89 222 133   86  35 165   86  35 165   86  35 165   86  35 165   82 104 197   82 104 197   82 104 197   82 104 197   78 173 229   78 173 229   78 173 229   78 173 229   74 243   5   74 243   5   74 243   5   74 243   5   71  56  37   71  56  37   71  56  37   71  56  37   67 125  69   67 125  69   67 125  69   67 125  69   63 194 101   63 194 101   63 194 101   63 194 101   60   7 133   60   7 133   60   7 133   60   7 133   56  76 165   56  76 165   56  76 165   56  76 165   52 145 197   52 145 197   52 145 197   52 145 197   48 214 229   48 214 229   48 214 229   48 214 229   45  28   5   45  28   5   45  28   5   45  28   5   41  97  37   41  97  37   41  97  37   41  97  37   37 166  69   37 166  69   37 166  69   37 166  69   33 235 101   33 235 101   33 235 101   33 235 101   30  48 133   30  48 133   30  48 133   30  48 133   26 117 165   26 117 165   26 117 165   26 117 165   22 186 197   22 186 197   22 186 197   22 186 197   18 255 229   18 255 229   18 255 229   18 255 229   15  69   5   15  69   5   15  69   5   15  69   5   11 138  37   11 138  37   11 138  37   11 138  37    7 207  69    7 207  69    7 207  69    7 207  69    4  20 101    4  20 101    4  20 101    4  20 101    0  89 133    0  89 133    0  89 133    0  89 133
  115 250 165  115 250 165  115 250 165  115 250 165  112  63 197  112  63 197  112  63 197  112  63 197  108 132 229  108 132 229  108 132 229  108 132 229  104 202   5  104 202   5  104 202   5  104 202   5  101  15  37  101  15  37  101  15  37  101  15  37   97  84  69   97  84  69   97  84  69   97  84  69   93 153 101   93 153 101   93 153 101   93 153 101   89 222 133   89 222 133   89 222 133   89 222 133   86  35 165   86  35 165   86  35 165   86  35 165   82 104 197   82 104 197   82 104 197   82 104 197   78 173 229   78 173 229   78 173 229   78 173 229   74 243   5   74 243   5   74 243   5   74 243   5   71  56  37   71  56  37   71  56  37   71  56  37   67 125  69   67 125  69   67 125  69   67 125  69   63 194 101   63 194 101   63 194 101   63 194 101   60   7 133   60   7 133   60   7 133   60   7 133   56  76 165   56  76 165   56  76 165   56  76 165   52 145 197   52 145 197   52 145 197   52 145 197   48 214 229   48 214 229   48 214 229   48 214 229   45  28   5   45  28   5   45  28   5   45  28   5   41  97  37   41  97  37   41  97  37   41  97  37   37 166  69   37 166  69   37 166  69   37 166  69   33 235 101   33 235 101   33 235 101   33 235 101   30  48 133   30  48 133   30  48 133   30  48 133   26 117 165   26 117 165   26 117 165   26 117 165   22 186 197   22 186 197   22 186 197   22 186 197   18 255 229   18 255 229   18 255 229   18 255 229   15  69   5   15  69   5   15  69   5   15  69   5   11 138  37   11 138  37   11 138  37   11 138  37    7 207  69    7 207  69    7 207  69    7 207  69    4  20 101    4  20 101    4  20 101    4  20 101    0  89 133    0  89 133    0  89 133    0  89 133
  115 250 165  115 250 165  115 250 165  115 250 165  112  63 197  112  63 197  112  63 197  112  63 197  108 132 229  108 132 229  108 132 229  108 132 229  104 202   5  104 202   5  104 202   5  104 202   5  101  15  37  101  15  37  101  15  37  101  15  37   97  84  69   97  84  69   97  84  69   97  84  69   93 153 101   93 153 101   93 153 101   93 153 101   89 222 133   89 222 133   89 222 133   89 222 133   86  35 165   86  35 165   86  35 165   86  35 165   82 104 197   82 104 197   82 104 197   82 104 197   78 173 229   78 173 229   78 173 229   78 173 229   74 243   5   74 243   5   74 243   5   74 243   5   71  56  37   71  56  37   71  56  37   71  56  37   67 125  69   67 125  69   67 125  69   67 125  69   63 194 101   63 194 101   63 194 101   63 194 101   60   7 133   60   7 133   60   7 133   60   7 133   56  76 165   56  76 165   56  76 165   56  76 165   52 145 197   52 145 197   52 145 197   52 145 197   48 214 229   48 214 229   48 214 229   48 214 229   45  28   5   45  28   5   45  28   5   45  28   5   41  97  37   41  97  37   41  97  37   41  97  37   37 166  69   37 166  69   37 166  69   37 166  69   33 235 101   33 235 101   33 235 101   33 235 101   30  48 133   30  48 133   30  48 133   30  48 133   26 117 165   26 117 165   26 117 165   26 117 165   22 186 197   22 186 197   22 186 197   22 186 197   18 255 229   18 255 229   18 255 229   18 255 229   15  69   5   15  69   5   15  69   5   15  69   5   11 138  37   11 138  37   11 138  37   11 138  37    7 207  69    7 207  69    7 207  69    7 207  69    4  20 101    4  20 101    4  20 101    4  20 101    0  89 133    0  89 133    0  89 133    0  89 133
  116  24 124  116  24 124  116  24 124  116  24 124  112  93 156  112  93 156  112  93 156  112  93 156  108 162 188  108 162 188  108 162 188  108 162 188  104 231 220  104 231 220  104 231 220  104 231 220  101  44 252  101  44 252  101  44 252  101  44 252   97 114  28   97 114  28   97 114  28   97 114  28   93 183  60   93 183  60   93 183  60   93 183  60   89 252  92   89 252  92   89 252  92   89 252  92   86  65 124   86  65 124   86  65 124   86  65 124   82 134 156   82 134 156   82 134 156   82 134 156   78 203 188   78 203 188   78 203 188   78 203 188   75  16 220   75  16 220   75  16 220   75  16 220   71  85 252   71  85 252   71  85 252   71  85 252   67 155  28   67 155  28   67 155  28   67 155  28   63 224  60   63 224  60   63 224  60   63 224  60   60  37  92   60  37  92   60  37  92   60  37  92   56 106 124   56 106 124   56 106 124   56 106 124   52 175 156   52 175 156   52 175 156   52 175 156   48 244 188   48 244 188   48 244 188   48 244 188   45  57 220   45  57 220   45  57 220   45  57 220   41 126 252   41 126 252   41 126 252   41 126 252   37 196  28   37 196  28   37 196  28   37 196  28   34   9  60   34   9  60   34   9  60   34   9  60   30  78  92   30  78  92   30  78  92   30  78  92   26 147 124   26 147 124   26 147 124   26 147 124   22 216 156   22 216 156   22 216 156   22 216 156   19  29 188   19  29 188   19  29 188   19  29 188   15  98 220   15  98 220   15  98 220   15  98 220   11 167 252   11 167 252   11 167 252   11 167 252    7 237  28    7 237  28    7 237  28    7 237  28    4  50  60    4  50  60    4  50  60    4  50  60    0 119  92    0 119  92    0 119  92    0 119  92
  116  24 124  116  24 124  116  24 124  116  24 124  112  93 156  112  93 156  112  93 156  112  93 156  108 162 188  108 162 188  108 162 188  108 162 188  104 231 220  104 231 220  104 231 220  104 231 220  101  44 252  101  44 252  101  44 252  101  44 252   97 114  28   97 114  28   97 114  28   97 114  28   93 183  60   93 183  60   93 183  60   93 183  60   89 252  92   89 252  92   89 252  92   89 252  92   86  65 124   86  65 124   86  65 124   86  65 124   82 134 156   82 134 156   82 134 156   82 134 156   78 203 188   78 203 188   78 203 188   78 203 188   75  16 220   75  16 220   75  16 220   75  16 220   71  85 252   71  85 252   71  85 252   71  85 252   67 155  28   67 155  28   67 155  28   67 155  28   63 224  60   63 224  60   63 224  60   63 224  60   60  37  92   60  37  92   60  37  92   60  37  92   56 106 124   56 106 124   56 106 124   56 106 124   52 175 156   52 175 156   52 175 156   52 175 156   48 244 188   48 244 188   48 244 188   48 244 188   45  57 220   45  57 220   45  57 220   45  57 220   41 126 252   41 126 252   41 126 252   41 126 252   37 196  28   37 196  28   37 196  28   37 196  28   34   9  60   34   9  60   34   9  60   34   9  60   30  78  92   30  78  92   30  78  92   30  78  92   26 147 124   26 147 124   26 147 124   26 147 124   22 216 156   22 216 156   22 216 156   22 216 156   19  29 188   19  29 188   19  29 188   19  29 188   15  98 220   15  98 220   15  98 220   15  98 220   11 167 252   11 167 252   11 167 252   11 167 252    7 237  28    7 237  28    7 237  28    7 237  28    4  50  60    4  50  60    4  50  60    4  50  60    0 119  92    0 119  92    0 119  92    0 119  92
  116  24 124  116  24 124  116  24 124  116  24 124  112  93 156  112  93 156  112  93 156  112  93 156  108 162 188  108 162 188  108 162 188  108 162 188  104 231 220  104 231 220  104 231 220  104 231 220  101  44 252  101  44 252  101  44 252  101  44 252   97 114  28   97 114  28   97 114  28   97 114  28   93 183  60   93 183  60   93 183  60   93 183  60   89 252  92   89 252  92   89 252  92   89 252  92   86  65 124   86  65 124   86  65 124   86  65 124   82 134 156   82 134 156   82 134 156   82 134 156   78 203 188   78 203 188   78 203 188   78 203 188   75  16 220   75  16 220   75  16 220   75  16 220   71  85 252   71  85 252   71  85 252   71  85 252   67 155  28   67 155  28   67 155  28   67 155  28   63 224  60   63 224  60   63 224  60   63 224  60   60  37  92   60  37  92   60  37  92   60  37  92   56 106 124   56 106 124   56 106 124   56 106 124   52 175 156   52 175 156   52 175 156   52 175 156   48 244 188   48 244 188   48 244 188   48 244 188   45  57 220   45  57 220   45  57 220   45  57 220   41 126 252   41 126 252   41 126 252   41 126 252   37 196  28   37 196  28   37 196  28   37 196  28   34   9  60   34   9  60   34   9  60   34   9  60   30  78  92   30  78  92   30  78  92   30  78  92   26 147 124   26 147 124   26 147 124   26 147 124   22 216 156   22 216 156   22 216 156   22 216 156   19  29 188   19  29 188   19  29 188   19  29 188   15  98 220   15  98 220   15  98 220   15  98 220   11 167 252   11 167 252   11 167 252   11 167 252    7 237  28    7 237  28    7 237  28    7 237  28    4  50  60    4  50  60    4  50  60    4  50  60    0 119  92    0 119  92    0 119  92    0 119  92
  116  24 124  116  24 124  116  24 124  116  24 124  112  93 156  112  93 156  112  93 156  112  93 156  108 162 188  108 162 188  108 162 188  108 162 188  104 231 220  104 231 220  104 231 220  104 231 220  101  44 252  101  44 252  101  44 252  101  44 252   97 114  28   97 114  28   97 114  28   97 114  28   93 183  60   93 183  60   93 183  60   93 183  60   89 252  92   89 252  92   89 252  92   89 252  92   86  65 124   86  65 124   86  65 124   86  65 124   82 134 156   82 134 156   82 134 156   82 134 156   78 203 188   78 203 188   78 203 188   78 203 188   75  16 220   75  16 220   75  16 220   75  16 220   71  85 252   71  85 252   71  85 252   71  85 252   67 155  28   67 155  28   67 155  28   67 155  28   63 224  60   63 224  60   63 224  60   63 224  60   60  37  92   60  37  92   60  37  92   60  37  92   56 106 124   56 106 124   56 106 124   56 106 124   52 175 156   52 175 156   52 175 156   52 175 156   48 244 188   48 244 188   48 244 188   48 244 188   45  57 220   45  57 220   45  57 220   45  57 220   41 126 252   41 126 252   41 126 252   41 126 252   37 196  28   37 196  28   37 196  28   37 196  28   34   9  60   34   9  60   34   9  60   34   9  60   30  78  92   30  78  92   30  78  92   30  78  92   26 147 124   26 147 124   26 147 124   26 147 124   22 216 156   22 216 156   22 216 156   22 216 156   19  29 188   19  29 188   19  29 188   19  29 188   15  98 220   15  98 220   15  98 220   15  98 220   11 167 252   11 167 252   11 167 252   11 167 252    7 237  28    7 237  28    7 237  28    7 237  28    4  50  60    4  50  60    4  50  60    4  50  60    0 119  92    0 119  92    0 119  92    0 119  92
  116  54  83  116  54  83  116  54  83  116  54  83  112 123 115  112 123 115  112 123 115  112 123 115  108 192 147  108 192 147  108 192 147  108 192 147  105   5 179  105   5 179  105   5 179  105   5 179  101  74 211  101  74 211  101  74 211  101  74 211   97 143 243   97 143 243   97 143 243   97 143 243   93 213  19   93 213  19   93 213  19   93 213  19   90  26  51   90  26  51   90  26  51   90  26  51   86  95  83   86  95  83   86  95  83   86  95  83   82 164 115   82 164 115   82 164 115   82 164 115   78 233 147   78 233 147   78 233 147   78 233 147   75  46 179   75  46 179   75  46 179   75  46 179   71 115 211   71 115 211   71 115 211   71 115 211   67 184 243   67 184 243   67 184 243   67 184 243   63 254  19   63 254  19   63 254  19   63 254  19   60  67  51   60  67  51   60  67  51   60  67  51   56 136  83   56 136  83   56 136  83   56 136  83   52 205 115   52 205 115   52 205 115   52 205 115   49  18 147   49  18 147   49  18 147   49  18 147   45  87 179   45  87 179   45  87 179   45  87 179   41 156 211   41 156 211   41 156 211   41 156 211   37 225 243   37 225 243   37 225 243   37 225 243   34  39  19   34  39  19   34  39  19   34  39  19   30 108  51   30 108  51   30 108  51   30 108  51   26 177  83   26 177  83   26 177  83   26 177  83   22 246 115   22 246 115   22 246 115   22 246 115   19  59 147   19  59 147   19  59 147   19  59 147   15 128 179   15 128 179   15 128 179   15 128 179   11 197 211   11 197 211   11 197 211   11 197 211    8  10 243    8  10 243    8  10 243    8  10 243    4  80  19    4  80  19    4  80  19    4  80  19    0 149  51    0 149  51    0 149  51    0 149  51
  116  54  83  116  54  83  116  54  83  116  54  83  112 123 115  112 123 115  112 123 115  112 123 115  108 192 147  108 192 147  108 192 147  108 192 147  105   5 179  105   5 179  105   5 179  105   5 179  101  74 211  101  74 211  101  74 211  101  74 211   97 143 243   97 143 243   97 143 243   97 143 243   93 213  19   93 213  19   93 213  19   93 213  19   90  26  51   90  26  51   90  26  51   90  26  51   86  95  83   86  95  83   86  95  83   86  95  83   82 164 115   82 164 115   82 164 115   82 164 115   78 233 147   78 233 147   78 233 147   78 233 147   75  46 179   75  46 179   75  46 179   75  46 179   71 115 211   71 115 211   71 115 211   71 115 211   67 184 243   67 184 243   67 184 243   67 184 243   63 254  19   63 254  19   63 254  19   63 254  19   60  67  51   60  67  51   60  67  51   60  67  51   56 136  83   56 136  83   56 136  83   56 136  83   52 205 115   52 205 115   52 205 115   52 205 115   49  18 147   49  18 147   49  18 147   49  18 147   45  87 179   45  87 179   45  87 179   45  87 179   41 156 211   41 156 211   41 156 211   41 156 211   37 225 243   37 225 243   37 225 243   37 225 243   34  39  19   34  39  19   34  39  19   34  39  19   30 108  51   30 108  51   30 108  51   30 108  51   26 177  83   26 177  83   26 177  83   26 177  83   22 246 115   22 246 115   22 246 115   22 246 115   19  59 147   19  59 147   19  59 147   19  59 147   15 128 179   15 128 179   15 128 179   15 128 179   11 197 211   11 197 211   11 197 211   11 197 211    8  10 243    8  10 243    8  10 243    8  10 243    4  80  19    4  80  19    4  80  19    4  80  19    0 149  51    0 149  51    0 149  51    0 149  51
  116  54  83  116  54  83  116  54  83  116  54  83  112 123 115  112 123 115  112 123 115  112 123 115  108 192 147  108 192 147  108 192 147  108 192 147  105   5 179  105   5 179  105   5 179  105   5 179  101  74 211  101  74 211  101  74 211  101  74 211   97 143 243   97 143 243   97 143 243   97 143 243   93 213  19   93 213  19   93 213  19   93 213  19   90  26  51   90  26  51   90  26  51   90  26  51   86  95  83   86  95  83   86  95  83   86  95  83   82 164 115   82 164 115   82 164 115   82 164 115   78 233 147   78 233 147   78 233 147   78 233 147   75  46 179   75  46 179   75  46 179   75  46 179   71 115 211   71 115 211   71 115 211   71 115 211   67 184 243   67 184 243   67 184 243   67 184 243   63 254  19   63 254  19   63 254  19   63 254  19   60  67  51   60  67  51   60  67  51   60  67  51   56 136  83   56 136  83   56 136  83   56 136  83   52 205 115   52 205 115   52 205 115   52 205 115   49  18 147   49  18 147   49  18 147   49  18 147   45  87 179   45  87 179   45  87 179   45  87 179   41 156 211   41 156 211   41 156 211   41 156 211   37 225 243   37 225 243   37 225 243   37 225 243   34  39  19   34  39  19   34  39  19   34  39  19   30 108  51   30 108  51   30 108  51   30 108  51   26 177  83   26 177  83   26 177  83   26 177  83   22 246 115   22 246 115   22 246 115   22 246 115   19  59 147   19  59 147   19  59 147   19  59 147   15 128 179   15 128 179   15 128 179   15 128 179   11 197 211   11 197 211   11 197 211   11 197 211    8  10 243    8  10 243    8  10 243    8  10 243    4  80  19    4  80  19    4  80  19    4  80  19    0 149  51    0 149  51    0 149  51    0 149  51
  116  54  83  116  54  83  116  54  83  116  54  83  112 123 115  112 123 115  112 123 115  112 123 115  108 192 147  108 192 147  108 192 147  108 192 147  105   5 179  105   5 179  105   5 179  105   5 179  101  74 211  101  74 211  101  74 211  101  74 211   97 143 243   97 143 243   97 143 243   97 143 243   93 213  19   93 213  19   93 213  19   93 213  19   90  26  51   90  26  51   90  26  51   90  26  51   86  95  83   86  95  83   86  95  83   86  95  83   82 164 115   82 164 115   82 164 115   82 164 115   78 233 147   78 233 147   78 233 147   78 233 147   75  46 179   75  46 179   75  46 179   75  46 179   71 115 211   71 115 211   71 115 211   71 115 211   67 184 243   67 184 243   67 184 243   67 184 243   63 254  19   63 254  19   63 254  19   63 254  19   60  67  51   60  67  51   60  67  51   60  67  51   56 136  83   56 136  83   56 136  83   56 136  83   52 205 115   52 205 115   52 205 115   52 205 115   49  18 147   49  18 147   49  18 147   49  18 147   45  87 179   45  87 179   45  87 179   45  87 179   41 156 211   41 156 211   41 156 211   41 156 211   37 225 243   37 225 243   37 225 243   37 225 243   34  39  19   34  39  19   34  39  19   34  39  19   30 108  51   30 108  51   30 108  51   30 108  51   26 177  83   26 177  83   26 177  83   26 177  83   22 246 115   22 246 115   22 246 115   22 246 115   19  59 147   19  59 147   19  59 147   19  59 147   15 128 179   15 128 179   15 128 179   15 128 179   11 197 211   11 197 211   11 197 211   11 197 211    8  10 243    8  10 243    8  10 243    8  10 243    4  80  19    4  80  19    4  80  19    4  80  19    0 149  51    0 149  51    0 149  51    0 149  51
  116  84  42  116  84  42  116  84  42  116  84  42  112 153  74  112 153  74  112 153  74  112 153  74  108 222 106  108 222 106  108 222 106  108 222 106  105  35 138  105  35 138  105  35 138  105  35 138  101 104 170  101 104 170  101 104 170  101 104 170   97 173 202   97 173 202   97 173 202   97 173 202   93 242 234   93 242 234   93 242 234   93 242 234   90  56  10   90  56  10   90  56  10   90  56  10   86 125  42   86 125  42   86 125  42   86 125  42   82 194  74   82 194  74   82 194  74   82 194  74   79   7 106   79   7 106   79   7 106   79   7 106   75  76 138   75  76 138   75  76 138   75  76 138   71 145 170   71 145 170   71 145 170   71 145 170   67 214 202   67 214 202   67 214 202   67 214 202   64  27 234   64  27 234   64  27 234   64  27 234   60  97  10   60  97  10   60  97  10   60  97  10   56 166  42   56 166  42   56 166  42   56 166  42   52 235  74   52 235  74   52 235  74   52 235  74   49  48 106   49  48 106   49  48 106   49  48 106   45 117 138   45 117 138   45 117 138   45 117 138   41 186 170   41 186 170   41 186 170   41 186 170   37 255 202   37 255 202   37 255 202   37 255 202   34  68 234   34  68 234   34  68 234   34  68 234   30 138  10   30 138  10   30 138  10   30 138  10   26 207  42   26 207  42   26 207  42   26 207  42   23  20  74   23  20  74   23  20  74   23  20  74   19  89 106   19  89 106   19  89 106   19  89 106   15 158 138   15 158 138   15 158 138   15 158 138   11 227 170   11 227 170   11 227 170   11 227 170    8  40 202    8  40 202    8  40 202    8  40 202    4 109 234    4 109 234    4 109 234    4 109 234    0 179  10    0 179  10    0 179  10    0 179  10
  116  84  42  116  84  42  116  84  42  116  84  42  112 153  74  112 153  74  112 153  74  112 153  74  108 222 106  108 222 106  108 222 106  108 222 106  105  35 138  105  35 138  105  35 138  105  35 138  101 104 170  101 104 170  101 104 170  101 104 170   97 173 202   97 173 202   97 173 202   97 173 202   93 242 234   93 242 234   93 242 234   93 242 234   90  56  10   90  56  10   90  56  10   90  56  10   86 125  42   86 125  42   86 125  42   86 125  42   82 194  74   82 194  74   82 194  74   82 194  74   79   7 106   79   7 106   79   7 106   79   7 106   75  76 138   75  76 138   75  76 138   75  76 138   71 145 170   71 145 170   71 145 170   71 145 170   67 214 202   67 214 202   67 214 202   67 214 202   64  27 234   64  27 234   64  27 234   64  27 234   60  97  10   60  97  10   60  97  10   60  97  10   56 166  42   56 166  42   56 166  42   56 166  42   52 235  74   52 235  74   52 235  74   52 235  74   49  48 106   49  48 106   49  48 106   49  48 106   45 117 138   45 117 138   45 117 138   45 117 138   41 186 170   41 186 170   41 186 170   41 186 170   37 255 202   37 255 202   37 255 202   37 255 202   34  68 234   34  68 234   34  68 234   34  68 234   30 138  10   30 138  10   30 138  10   30 138  10   26 207  42   26 207  42   26 207  42   26 207  42   23  20  74   23  20  74   23  20  74   23  20  74   19  89 106   19  89 106   19  89 106   19  89 106   15 158 138   15 158 138   15 158 138   15 158 138   11 227 170   11 227 170   11 227 170   11 227 170    8  40 202    8  40 202    8  40 202    8  40 202    4 109 234    4 109 234    4 109 234    4 109 234    0 179  10    0 179  10    0 179  10    0 179  10
  116  84  42  116  84  42  116  84  42  116  84  42  112 153  74  112 153  74  112 153  74  112 153  74  108 222 106  108 222 106  108 222 106  108 222 106  105  35 138  105  35 138  105  35 138  105  35 138  101 104 170  101 104 170  101 104 170  101 104 170   97 173 202   97 173 202   97 173 202   97 173 202   93 242 234   93 242 234   93 242 234   93 242 234   90  56  10   90  56  10   90  56  10   90  56  10   86 125  42   86 125  42   86 125  42   86 125  42   82 194  74   82 194  74   82 194  74   82 194  74   79   7 106   79   7 106   79   7 106   79   7 106   75  76 138   75  76 138   75  76 138   75  76 138   71 145 170   71 145 170   71 145 170   71 145 170   67 214 202   67 214 202   67 214 202   67 214 202   64  27 234   64  27 234   64  27 234   64  27 234   60  97  10   60  97  10   60  97  10   60  97  10   56 166  42   56 166  42   56 166  42   56 166  42   52 235  74   52 235  74   52 235  74   52 235  74   49  48 106   49  48 106   49  48 106   49  48 106   45 117 138   45 117 138   45 117 138   45 117 138   41 186 170   41 186 170   41 186 170   41 186 170   37 255 202   37 255 202   37 255 202   37 255 202   34  68 234   34  68 234   34  68 234   34  68 234   30 138  10   30 138  10   30 138  10   30 138  10   26 207  42   26 207  42   26 207  42   26 207  42   23  20  74   23  20  74   23  20  74   23  20  74   19  89 106   19  89 106   19  89 106   19  89 106   15 158 138   15 158 138   15 158 138   15 158 138   11 227 170   11 227 170   11 227 170   11 227 170    8  40 202    8  40 202    8  40 202    8  40 202    4 109 234    4 109 234    4 109 234    4 109 234    0 179  10    0 179  10    0 179  10    0 179  10
  116  84  42  116  84  42  116  84  42  116  84  42  112 153  74  112 153  74  112 153  74  112 153  74  108 222 106  108 222 106  108 222 106  108 222 106  105  35 138  105  35 138  105  35 138  105  35 138  101 104 170  101 104 170  101 104 170  101 104 170   97 173 202   97 173 202   97 173 202   97 173 202   93 242 234   93 242 234   93 242 234   93 242 234   90  56  10   90  56  10   90  56  10   90  56  10   86 125  42   86 125  42   86 125  42   86 125  42   82 194  74   82 194  74   82 194  74   82 194  74   79   7 106   79   7 106   79   7 106   79   7 106   75  76 138   75  76 138   75  76 138   75  76 138   71 145 170   71 145 170   71 145 170   71 145 170   67 214 202   67 214 202   67 214 202   67 214 202   64  27 234   64  27 234   64  27 234   64  27 234   60  97  10   60  97  10   60  97  10   60  97  10   56 166  42   56 166  42   56 166  42   56 166  42   52 235  74   52 235  74   52 235  74   52 235  74   49  48 106   49  48 106   49  48 106   49  48 106   45 117 138   45 117 138   45 117 138   45 117 138   41 186 170   41 186 170   41 186 170   41 186 170   37 255 202   37 255 202   37 255 202   37 255 202   34  68 234   34  68 234   34  68 234   34  68 234   30 138  10   30 138  10   30 138  10   30 138  10   26 207  42   26 207  42   26 207  42   26 207  42   23  20  74   23  20  74   23  20  74   23  20  74   19  89 106   19  89 106   19  89 106   19  89 106   15 158 138   15 158 138   15 158 138   15 158 138   11 227 170   11 227 170   11 227 170   11 227 170    8  40 202    8  40 202    8  40 202    8  40 202    4 109 234    4 109 234    4 109 234    4 109 234    0 179  10    0 179  10    0 179  10    0 179  10
  255 255 255  255 255 255  255 255 255  255 255 255  112 183  33  112 183  33  112 183  33  112 183  33  108 252  65  108 252  65  108 252  65  108 252  65  105  65  97  105  65  97  105  65  97  105  65  97  101 134 129  101 134 129  101 134 129  101 134 129   97 203 161   97 203 161   97 203 161   97 203 161   94  16 193   94  16 193   94  16 193   94  16 193   90  85 225   90  85 225   90  85 225   90  85 225   86 155   1   86 155   1   86 155   1   86 155   1   82 224  33   82 224  33   82 224  33   82 224  33   79  37  65   79  37  65   79  37  65   79  37  65   75 106  97   75 106  97   75 106  97   75 106  97   71 175 129   71 175 129   71 175 129   71 175 129   67 244 161   67 244 161   67 244 161   67 244 161   64  57 193   64  57 193   64  57 193   64  57 193   60 126 225   60 126 225   60 126 225   60 126 225   56 196   1   56 196   1   56 196   1   56 196   1   53   9  33   53   9  33   53   9  33   53   9  33   49  78  65   49  78  65   49  78  65   49  78  65   45 147  97   45 147  97   45 147  97   45 147  97   41 216 129   41 216 129   41 216 129   41 216 129   38  29 161   38  29 161   38  29 161   38  29 161   34  98 193   34  98 193   34  98 193   34  98 193   30 167 225   30 167 225   30 167 225   30 167 225   26 237   1   26 237   1   26 237   1   26 237   1   23  50  33   23  50  33   23  50  33   23  50  33   19 119  65   19 119  65   19 119  65   19 119  65   15 188  97   15 188  97   15 188  97   15 188  97   12   1 129   12   1 129   12   1 129   12   1 129    8  70 161    8  70 161    8  70 161    8  70 161    4 139 193    4 139 193    4 139 193    4 139 193    0 208 225    0 208 225    0 208 225    0 208 225
  255 255 255  255 255 255  255 255 255  255 255 255  112 183  33  112 183  33  112 183  33  112 183  33  108 252  65  108 252  65  108 252  65  108 252  65  105  65  97  105  65  97  105  65  97  105  65  97  101 134 129  101 134 129  101 134 129  101 134 129   97 203 161   97 203 161   97 203 161   97 203 161   94  16 193   94  16 193   94  16 193   94  16 193   90  85 225   90  85 225   90  85 225   90  85 225   86 155   1   86 155   1   86 155   1   86 155   1   82 224  33   82 224  33   82 224  33   82 224  33   79  37  65   79  37  65   79  37  65   79  37  65   75 106  97   75 106  97   75 106  97   75 106  97   71 175 129   71 175 129   71 175 129   71 175 129   67 244 161   67 244 161   67 244 161   67 244 161   64  57 193   64  57 193   64  57 193   64  57 193   60 126 225   60 126 225   60 126 225   60 126 225   56 196   1   56 196   1   56 196   1   56 196   1   53   9  33   53   9  33   53   9  33   53   9  33   49  78  65   49  78  65   49  78  65   49  78  65   45 147  97   45 147  97   45 147  97   45 147  97   41 216 129   41 216 129   41 216 129   41 216 129   38  29 161   38  29 161   38  29 161   38  29 161   34  98 193   34  98 193   34  98 193   34  98 193   30 167 225   30 167 225   30 167 225   30 167 225   26 237   1   26 237   1   26 237   1   26 237   1   23  50  33   23  50  33   23  50  33   23  50  33   19 119  65   19 119  65   19 119  65   19 119  65   15 188  97   15 188  97   15 188  97   15 188  97   12   1 129   12   1 129   12   1 129   12   1 129    8  70 161    8  70 161    8  70 161    8  70 161    4 139 193    4 139 193    4 139 193    4 139 193    0 208 225    0 208 225    0 208 225    0 208 225
  255 255 255  255 255 255  255 255 255  255 255 255  112 183  33  112 183  33  112 183  33  112 183  33  108 252  65  108 252  65  108 252  65  108 252  65  105  65  97  105  65  97  105  65  97  105  65  97  101 134 129  101 134 129  101 134 129  101 134 129   97 203 161   97 203 161   97 203 161   97 203 161   94  16 193   94  16 193   94  16 193   94  16 193   90  85 225   90  85 225   90  85 225   90  85 225   86 155   1   86 155   1   86 155   1   86 155   1   82 224  33   82 224  33   82 224  33   82 224  33   79  37  65   79  37  65   79  37  65   79  37  65   75 106  97   75 106  97   75 106  97   75 106  97   71 175 129   71 175 129   71 175 129   71 175 129   67 244 161   67 244 161   67 244 161   67 244 161   64  57 193   64  57 193   64  57 193   64  57 193   60 126 225   60 126 225   60 126 225   60 126 225   56 196   1   56 196   1   56 196   1   56 196   1   53   9  33   53   9  33   53   9  33   53   9  33   49  78  65   49  78  65   49  78  65   49  78  65   45 147  97   45 147  97   45 147  97   45 147  97   41 216 129   41 216 129   41 216 129   41 216 129   38  29 161   38  29 161   38  29 161   38  29 161   34  98 193   34  98 193   34  98 193   34  98 193   30 167 225   30 167 225   30 167 225   30 167 225   26 237   1   26 237   1   26 237   1   26 237   1   23  50  33   23  50  33   23  50  33   23  50  33   19 119  65   19 119  65   19 119  65   19 119  65   15 188  97   15 188  97   15 188  97   15 188  97   12   1 129   12   1 129   12   1 129   12   1 129    8  70 161    8  70 161    8  70 161    8  70 161    4 139 193    4 139 193    4 139 193    4 139 193    0 208 225    0 208 225    0 208 225    0 208 225
  255 255 255  255 255 255  255 255 255  255 255 255  112 183  33  112 183  33  112 183  33  112 183  33  108 252  65  108 252  65  108 252  65  108 252  65  105  65  97  105  65  97  105  65  97  105  65  97  101 134 129  101 134 129  101 134 129  101 134 129   97 203 161   97 203 161   97 203 161   97 203 161   94  16 193   94  16 193   94  16 193   94  16 193   90  85 225   90  85 225   90  85 225   90  85 225   86 155   1   86 155   1   86 155   1   86 155   1   82 224  33   82 224  33   82 224  33   82 224  33   79  37  65   79  37  65   79  37  65   79  37  65   75 106  97   75 106  97   75 106  97   75 106  97   71 175 129   71 175 129   71 175 129   71 175 129   67 244 161   67 244 161   67 244 161   67 244 161   64  57 193   64  57 193   64  57 193   64  57 193   60 126 225   60 126 225   60 126 225   60 126 225   56 196   1   56 196   1   56 196   1   56 196   1   53   9  33   53   9  33   53   9  33   53   9  33   49  78  65   49  78  65   49  78  65   49  78  65   45 147  97   45 147  97   45 147  97   45 147  97   41 216 129   41 216 129   41 216 129   41 216 129   38  29 161   38  29 161   38  29 161   38  29 161   34  98 193   34  98 193   34  98 193   34  98 193   30 167 225   30 167 225   30 167 225   30 167 225   26 237   1   26 237   1   26 237   1   26 237   1   23  50  33   23  50  33   23  50  33   23  50  33   19 119  65   19 119  65   19 119  65   19 119  65   15 188  97   15 188  97   15 188  97   15 188  97   12   1 129   12   1 129   12   1 129   12   1 129    8  70 161    8  70 161    8  70 161    8  70 161    4 139 193    4 139 193    4 139 193    4 139 193    0 208 225    0 208 225    0 208 225    0 208 225
    0   0   0    0   0   0    0   0   0    0   0   0  112 212 248  112 212 248  112 212 248  112 212 248  109  26  24  109  26  24  109  26  24  109  26  24  105  95  56  105  95  56  105  95  56  105  95  56  101 164  88  101 164  88  101 164  88  101 164  88   97 233 120   97 233 120   97 233 120   97 233 120   94  46 152   94  46 152   94  46 152   94  46 152   90 115 184   90 115 184   90 115 184   90 115 184   86 184 216   86 184 216   86 184 216   86 184 216   82 253 248   82 253 248   82 253 248   82 253 248   79  67  24   79  67  24   79  67  24   79  67  24   75 136  56   75 136  56   75 136  56   75 136  56   71 205  88   71 205  88   71 205  88   71 205  88   68  18 120   68  18 120   68  18 120   68  18 120   64  87 152   64  87 152   64  87 152   64  87 152   60 156 184   60 156 184   60 156 184   60 156 184   56 225 216   56 225 216   56 225 216   56 225 216   53  38 248   53  38 248   53  38 248   53  38 248   49 108  24   49 108  24   49 108  24   49 108  24   45 177  56   45 177  56   45 177  56   45 177  56   41 246  88   41 246  88   41 246  88   41 246  88   38  59 120   38  59 120   38  59 120   38  59 120   34 128 152   34 128 152   34 128 152   34 128 152   30 197 184   30 197 184   30 197 184   30 197 184   27  10 216   27  10 216   27  10 216   27  10 216   23  79 248   23  79 248   23  79 248   23  79 248   19 149  24   19 149  24   19 149  24   19 149  24   15 218  56   15 218  56   15 218  56   15 218  56   12  31  88   12  31  88   12  31  88   12  31  88    8 100 120    8 100 120    8 100 120    8 100 120    4 169 152    4 169 152    4 169 152    4 169 152    0 238 184    0 238 184    0 238 184    0 238 184
    0   0   0    0   0   0    0   0   0    0   0   0  112 212 248  112 212 248  112 212 248  112 212 248  109  26  24  109  26  24  109  26  24  109  26  24  105  95  56  105  95  56  105  95  56  105  95  56  101 164  88  101 164  88  101 164  88  101 164  88   97 233 120   97 233 120   97 233 120   97 233 120   94  46 152   94  46 152   94  46 152   94  46 152   90 115 184   90 115 184   90 115 184   90 115 184   86 184 216   86 184 216   86 184 216   86 184 216   82 253 248   82 253 248   82 253 248   82 253 248   79  67  24   79  67  24   79  67  24   79  67  24   75 136  56   75 136  56   75 136  56   75 136  56   71 205  88   71 205  88   71 205  88   71 205  88   68  18 120   68  18 120   68  18 120   68  18 120   64  87 152   64  87 152   64  87 152   64  87 152   60 156 184   60 156 184   60 156 184   60 156 184   56 225 216   56 225 216   56 225 216   56 225 216   53  38 248   53  38 248   53  38 248   53  38 248   49 108  24   49 108  24   49 108  24   49 108  24   45 177  56   45 177  56   45 177  56   45 177  56   41 246  88   41 246  88   41 246  88   41 246  88   38  59 120   38  59 120   38  59 120   38  59 120   34 128 152   34 128 152   34 128 152   34 128 152   30 197 184   30 197 184   30 197 184   30 197 184   27  10 216   27  10 216   27  10 216   27  10 216   23  79 248   23  79 248   23  79 248   23  79 248   19 149  24   19 149  24   19 149  24   19 149  24   15 218  56   15 218  56   15 218  56   15 218  56   12  31  88   12  31  88   12  31  88   12  31  88    8 100 120    8 100 120    8 100 120    8 100 120    4 169 152    4 169 152    4 169 152    4 169 152    0 238 184    0 238 184    0 238 184    0 238 184
    0   0   0    0   0   0    0   0   0    0   0   0  112 212 248  112 212 248  112 212 248  112 212 248  109  26  24  109  26  24  109  26  24  109  26  24  105  95  56  105  95  56  105  95  56  105  95  56  101 164  88  101 164  88  101 164  88  101 164  88   97 233 120   97 233 120   97 233 120   97 233 120   94  46 152   94  46 152   94  46 152   94  46 152   90 115 184   90 115 184   90 115 184   90 115 184   86 184 216   86 184 216   86 184 216   86 184 216   82 253 248   82 253 248   82 253 248   82 253 248   79  67  24   79  67  24   79  67  24   79  67  24   75 136  56   75 136  56   75 136  56   75 136  56   71 205  88   71 205  88   71 205  88   71 205  88   68  18 120   68  18 120   68  18 120   68  18 120   64  87 152   64  87 152   64  87 152   64  87 152   60 156 184   60 156 184   60 156 184   60 156 184   56 225 216   56 225 216   56 225 216   56 225 216   53  38 248   53  38 248   53  38 248   53  38 248   49 108  24   49 108  24   49 108  24   49 108  24   45 177  56   45 177  56   45 177  56   45 177  56   41 246  88   41 246  88   41 246  88   41 246  88   38  59 120   38  59 120   38  59 120   38  59 120   34 128 152   34 128 152   34 128 152   34 128 152   30 197 184   30 197 184   30 197 184   30 197 184   27  10 216   27  10 216   27  10 216   27  10 216   23  79 248   23  79 248   23  79 248   23  79 248   19 149  24   19 149  24   19 149  24   19 149  24   15 218  56   15 218  56   15 218  56   15 218  56   12  31  88   12  31  88   12  31  88   12  31  88    8 100 120    8 100 120    8 100 120    8 100 120    4 169 152    4 169 152    4 169 152    4 169 152    0 238 184    0 238 184    0 238 184    0 238 184
    0   0   0    0   0   0    0   0   0    0   0   0  112 212 248  112 212 248  112 212 248  112 212 248  109  26  24  109  26  24  109  26  24  109  26  24  105  95  56  105  95  56  105  95  56  105  95  56  101 164  88  101 164  88  101 164  88  101 164  88   97 233 120   97 233 120   97 233 120   97 233 120   94  46 152   94  46 152   94  46 152   94  46 152   90 115 184   90 115 184   90 115 184   90 115 184   86 184 216   86 184 216   86 184 216   86 184 216   82 253 248   82 253 248   82 253 248   82 253 248   79  67  24   79  67  24   79  67  24   79  67  24   75 136  56   75 136  56   75 136  56   75 136  56   71 205  88   71 205  88   71 205  88   71 205  88   68  18 120   68  18 120   68  18 120   68  18 120   64  87 152   64  87 152   64  87 152   64  87 152   60 156 184   60 156 184   60 156 184   60 156 184   56 225 216   56 225 216   56 225 216   56 225 216   53  38 248   53  38 248   53  38 248   53  38 248   49 108  24   49 108  24   49 108  24   49 108  24   45 177  56   45 177  56   45 177  56   45 177  56   41 246  88   41 246  88   41 246  88   41 246  88   38  59 120   38  59 120   38  59 120   38  59 120   34 128 152   34 128 152   34 128 152   34 128 152   30 197 184   30 197 184   30 197 184   30 197 184   27  10 216   27  10 216   27  10 216   27  10 216   23  79 248   23  79 248   23  79 248   23  79 248   19 149  24   19 149  24   19 149  24   19 149  24   15 218  56   15 218  56   15 218  56   15 218  56   12  31  88   12  31  88   12  31  88   12  31  88    8 100 120    8 100 120    8 100 120    8 100 120    4 169 152    4 169 152    4 169 152    4 169 152    0 238 184    0 238 184    0 238 184    0 238 184
    0  29 215    0  29 215    0  29 215    0  29 215  112 242 207  112 242 207  112 242 207  112 242 207  109  55 239  109  55 239  109  55 239  109  55 239  105 125  15  105 125  15  105 125  15  105 125  15  101 194  47  101 194  47  101 194  47  101 194  47   98   7  79   98   7  79   98   7  79   98   7  79   94  76 111   94  76 111   94  76 111   94  76 111   90 145 143   90 145 143   90 145 143   90 145 143   86 214 175   86 214 175   86 214 175   86 214 175   83  27 207   83  27 207   83  27 207   83  27 207   79  96 239   79  96 239   79  96 239   79  96 239   75 166  15   75 166  15   75 166  15   75 166  15   71 235  47   71 235  47   71 235  47   71 235  47   68  48  79   68  48  79   68  48  79   68  48  79   64 117 111   64 117 111   64 117 111   64 117 111   60 186 143   60 186 143   60 186 143   60 186 143   56 255 175   56 255 175   56 255 175   56 255 175   53  68 207   53  68 207   53  68 207   53  68 207   49 137 239   49 137 239   49 137 239   49 137 239   45 207  15   45 207  15   45 207  15   45 207  15   42  20  47   42  20  47   42  20  47   42  20  47   38  89  79   38  89  79   38  89  79   38  89  79   34 158 111   34 158 111   34 158 111   34 158 111   30 227 143   30 227 143   30 227 143   30 227 143   27  40 175   27  40 175   27  40 175   27  40 175   23 109 207   23 109 207   23 109 207   23 109 207   19 178 239   19 178 239   19 178 239   19 178 239   15 248  15   15 248  15   15 248  15   15 248  15   12  61  47   12  61  47   12  61  47   12  61  47    8 130  79    8 130  79    8 130  79    8 130  79    4 199 111    4 199 111    4 199 111    4 199 111    1  12 143    1  12 143    1  12 143    1  12 143
    0  29 215    0  29 215    0  29 215    0  29 215  112 242 207  112 242 207  112 242 207  112 242 207  109  55 239  109  55 239  109  55 239  109  55 239  105 125  15  105 125  15  105 125  15  105 125  15  101 194  47  101 194  47  101 194  47  101 194  47   98   7  79   98   7  79   98   7  79   98   7  79   94  76 111   94  76 111   94  76 111   94  76 111   90 145 143   90 145 143   90 145 143   90 145 143   86 214 175   86 214 175   86 214 175   86 214 175   83  27 207   83  27 207   83  27 207   83  27 207   79  96 239   79  96 239   79  96 239   79  96 239   75 166  15   75 166  15   75 166  15   75 166  15   71 235  47   71 235  47   71 235  47   71 235  47   68  48  79   68  48  79   68  48  79   68  48  79   64 117 111   64 117 111   64 117 111   64 117 111   60 186 143   60 186 143   60 186 143   60 186 143   56 255 175   56 255 175   56 255 175   56 255 175   53  68 207   53  68 207   53  68 207   53  68 207   49 137 239   49 137 239   49 137 239   49 137 239   45 207  15   45 207  15   45 207  15   45 207  15   42  20  47   42  20  47   42  20  47   42  20  47   38  89  79   38  89  79   38  89  79   38  89  79   34 158 111   34 158 111   34 158 111   34 158 111   30 227 143   30 227 143   30 227 143   30 227 143   27  40 175   27  40 175   27  40 175   27  40 175   23 109 207   23 109 207   23 109 207   23 109 207   19 178 239   19 178 239   19 178 239   19 178 239   15 248  15   15 248  15   15 248  15   15 248  15   12  61  47   12  61  47   12  61  47   12  61  47    8 130  79    8 130  79    8 130  79    8 130  79    4 199 111    4 199 111    4 199 111    4 199 111    1  12 143    1  12 143    1  12 143    1  12 143
    0  29 215    0  29 215    0  29 215    0  29 215  112 242 207  112 242 207  112 242 207  112 242 207  109  55 239  109  55 239  109  55 239  109  55 239  105 125  15  105 125  15  105 125  15  105 125  15  101 194  47  101 194  47  101 194  47  101 194  47   98   7  79   98   7  79   98   7  79   98   7  79   94  76 111   94  76 111   94  76 111   94  76 111   90 145 143   90 145 143   90 145 143   90 145 143   86 214 175   86 214 175   86 214 175   86 214 175   83  27 207   83  27 207   83  27 207   83  27 207   79  96 239   79  96 239   79  96 239   79  96 239   75 166  15   75 166  15   75 166  15   75 166  15   71 235  47   71 235  47   71 235  47   71 235  47   68  48  79   68  48  79   68  48  79   68  48  79   64 117 111   64 117 111   64 117 111   64 117 111   60 186 143   60 186 143   60 186 143   60 186 143   56 255 175   56 255 175   56 255 175   56 255 175   53  68 207   53  68 207   53  68 207   53  68 207   49 137 239   49 137 239   49 137 239   49 137 239   45 207  15   45 207  15   45 207  15   45 207  15   42  20  47   42  20  47   42  20  47   42  20  47   38  89  79   38  89  79   38  89  79   38  89  79   34 158 111   34 158 111   34 158 111   34 158 111   30 227 143   30 227 143   30 227 143   30 227 143   27  40 175   27  40 175   27  40 175   27  40 175   23 109 207   23 109 207   23 109 207   23 109 207   19 178 239   19 178 239   19 178 239   19 178 239   15 248  15   15 248  15   15 248  15   15 248  15   12  61  47   12  61  47   12  61  47   12  61  47    8 130  79    8 130  79    8 130  79    8 130  79    4 199 111    4 199 111    4 199 111    4 199 111    1  12 143    1  12 143    1  12 143    1  12 143
    0  29 215    0  29 215    0  29 215    0  29 215  112 242 207  112 242 207  112 242 207  112 242 207  109  55 239  109  55 239  109  55 239  109  55 239  105 125  15  105 125  15  105 125  15  105 125  15  101 194  47  101 194  47  101 194  47  101 194  47   98   7  79   98   7  79   98   7  79   98   7  79   94  76 111   94  76 111   94  76 111   94  76 111   90 145 143   90 145 143   90 145 143   90 145 143   86 214 175   86 214 175   86 214 175   86 214 175   83  27 207   83  27 207   83  27 207   83  27 207   79  96 239   79  96 239   79  96 239   79  96 239   75 166  15   75 166  15   75 166  15   75 166  15   71 235  47   71 235  47   71 235  47   71 235  47   68  48  79   68  48  79   68  48  79   68  48  79   64 117 111   64 117 111   64 117 111   64 117 111   60 186 143   60 186 143   60 186 143   60 186 143   56 255 175   56 255 175   56 255 175   56 255 175   53  68 207   53  68 207   53  68 207   53  68 207   49 137 239   49 137 239   49 137 239   49 137 239   45 207  15   45 207  15   45 207  15   45 207  15   42  20  47   42  20  47   42  20  47   42  20  47   38  89  79   38  89  79   38  89  79   38  89  79   34 158 111   34 158 111   34 158 111   34 158 111   30 227 143   30 227 143   30 227 143   30 227 143   27  40 175   27  40 175   27  40 175   27  40 175   23 109 207   23 109 207   23 109 207   23 109 207   19 178 239   19 178 239   19 178 239   19 178 239   15 248  15   15 248  15   15 248  15   15 248  15   12  61  47   12  61  47   12  61  47   12  61  47    8 130  79    8 130  79    8 130  79    8 130  79    4 199 111    4 199 111    4 199 111    4 199 111    1  12 143    1  12 143    1  12 143    1  12 143
    0  59 174    0  59 174    0  59 174    0  59 174  113  16 166  113  16 166  113  16 166  113  16 166  109  85 198  109  85 198  109  85 198  109  85 198  105 154 230  105 154 230  105 154 230  105 154 230  101 224   6  101 224   6  101 224   6  101 224   6   98  37  38   98  37  38   98  37  38   98  37  38   94 106  70   94 106  70   94 106  70   94 106  70   90 175 102   90 175 102   90 175 102   90 175 102   86 244 134   86 244 134   86 244 134   86 244 134   83  57 166   83  57 166   83  57 166   83  57 166   79 126 198   79 126 198   79 126 198   79 126 198   75 195 230   75 195 230   75 195 230   75 195 230   72   9   6   72   9   6   72   9   6   72   9   6   68  78  38   68  78  38   68  78  38   68  78  38   64 147  70   64 147  70   64 147  70   64 147  70   60 216 102   60 216 102   60 216 102   60 216 102   57  29 134   57  29 134   57  29 134   57  29 134   53  98 166   53  98 166   53  98 166   53  98 166   49 167 198   49 167 198   49 167 198   49 167 198   45 236 230   45 236 230   45 236 230   45 236 230   42  50   6   42  50   6   42  50   6   42  50   6   38 119  38   38 119  38   38 119  38   38 119  38   34 188  70   34 188  70   34 188  70   34 188  70   31   1 102   31   1 102   31   1 102   31   1 102   27  70 134   27  70 134   27  70 134   27  70 134   23 139 166   23 139 166   23 139 166   23 139 166   19 208 198   19 208 198   19 208 198   19 208 198   16  21 230   16  21 230   16  21 230   16  21 230   12  91   6   12  91   6   12  91   6   12  91   6    8 160  38    8 160  38    8 160  38    8 160  38    4 229  70    4 229  70    4 229  70    4 229  70    1  42 102    1  42 102    1  42 102    1  42 102
    0  59 174    0  59 174    0  59 174    0  59 174  113  16 166  113  16 166  113  16 166  113  16 166  109  85 198  109  85 198  109  85 198  109  85 198  105 154 230  105 154 230  105 154 230  105 154 230  101 224   6  101 224   6  101 224   6  101 224   6   98  37  38   98  37  38   98  37  38   98  37  38   94 106  70   94 106  70   94 106  70   94 106  70   90 175 102   90 175 102   90 175 102   90 175 102   86 244 134   86 244 134   86 244 134   86 244 134   83  57 166   83  57 166   83  57 166   83  57 166   79 126 198   79 126 198   79 126 198   79 126 198   75 195 230   75 195 230   75 195 230   75 195 230   72   9   6   72   9   6   72   9   6   72   9   6   68  78  38   68  78  38   68  78  38   68  78  38   64 147  70   64 147  70   64 147  70   64 147  70   60 216 102   60 216 102   60 216 102   60 216 102   57  29 134   57  29 134   57  29 134   57  29 134   53  98 166   53  98 166   53  98 166   53  98 166   49 167 198   49 167 198   49 167 198   49 167 198   45 236 230   45 236 230   45 236 230   45 236 230   42  50   6   42  50   6   42  50   6   42  50   6   38 119  38   38 119  38   38 119  38   38 119  38   34 188  70   34 188  70   34 188  70   34 188  70   31   1 102   31   1 102   31   1 102   31   1 102   27  70 134   27  70 134   27  70 134   27  70 134   23 139 166   23 139 166   23 139 166   23 139 166   19 208 198   19 208 198   19 208 198   19 208 198   16  21 230   16  21 230   16  21 230   16  21 230   12  91   6   12  91   6   12  91   6   12  91   6    8 160  38    8 160  38    8 160  38    8 160  38    4 229  70    4 229  70    4 229  70    4 229  70    1  42 102    1  42 102    1  42 102    1  42 102
    0  59 174    0  59 174    0  59 174    0  59 174  113  16 166  113  16 166  113  16 166  113  16 166  109  85 198  109  85 198  109  85 198  109  85 198  105 154 230  105 154 230  105 154 230  105 154 230  101 224   6  101 224   6  101 224   6  101 224   6   98  37  38   98  37  38   98  37  38   98  37  38   94 106  70   94 106  70   94 106  70   94 106  70   90 175 102   90 175 102   90 175 102   90 175 102   86 244 134   86 244 134   86 244 134   86 244 134   83  57 166   83  57 166   83  57 166   83  57 166   79 126 198   79 126 198   79 126 198   79 126 198   75 195 230   75 195 230   75 195 230   75 195 230   72   9   6   72   9   6   72   9   6   72   9   6   68  78  38   68  78  38   68  78  38   68  78  38   64 147  70   64 147  70   64 147  70   64 147  70   60 216 102   60 216 102   60 216 102   60 216 102   57  29 134   57  29 134   57  29 134   57  29 134   53  98 166   53  98 166   53  98 166   53  98 166   49 167 198   49 167 198   49 167 198   49 167 198   45 236 230   45 236 230   45 236 230   45 236 230   42  50   6   42  50   6   42  50   6   42  50   6   38 119  38   38 119  38   38 119  38   38 119  38   34 188  70   34 188  70   34 188  70   34 188  70   31   1 102   31   1 102   31   1 102   31   1 102   27  70 134   27  70 134   27  70 134   27  70 134   23 139 166   23 139 166   23 139 166   23 139 166   19 208 198   19 208 198   19 208 198   19 208 198   16  21 230   16  21 230   16  21 230   16  21 230   12  91   6   12  91   6   12  91   6   12  91   6    8 160  38    8 160  38    8 160  38    8 160  38    4 229  70    4 229  70    4 229  70    4 229  70    1  42 102    1  42 102    1  42 102    1  42 102
    0  59 174    0  59 174    0  59 174    0  59 174  113  16 166  113  16 166  113  16 166  113  16 166  109  85 198  109  85 198  109  85 198  109  85 198  105 154 230  105 154 230  105 154 230  105 154 230  101 224   6  101 224   6  101 224   6  101 224   6   98  37  38   98  37  38   98  37  38   98  37  38   94 106  70   94 106  70   94 106  70   94 106  70   90 175 102   90 175 102   90 175 102   90 175 102   86 244 134   86 244 134   86 244 134   86 244 134   83  57 166   83  57 166   83  57 166   83  57 166   79 126 198   79 126 198   79 126 198   79 126 198   75 195 230   75 195 230   75 195 230   75 195 230   72   9   6   72   9   6   72   9   6   72   9   6   68  78  38   68  78  38   68  78  38   68  78  38   64 147  70   64 147  70   64 147  70   64 147  70   60 216 102   60 216 102   60 216 102   60 216 102   57  29 134   57  29 134   57  29 134   57  29 134   53  98 166   53  98 166   53  98 166   53  98 166   49 167 198   49 167 198   49 167 198   49 167 198   45 236 230   45 236 230   45 236 230   45 236 230   42  50   6   42  50   6   42  50   6   42  50   6   38 119  38   38 119  38   38 119  38   38 119  38   34 188  70   34 188  70   34 188  70   34 188  70   31   1 102   31   1 102   31   1 102   31   1 102   27  70 134   27  70 134   27  70 134   27  70 134   23 139 166   23 139 166   23 139 166   23 139 166   19 208 198   19 208 198   19 208 198   19 208 198   16  21 230   16  21 230   16  21 230   16  21 230   12  91   6   12  91   6   12  91   6   12  91   6    8 160  38    8 160  38    8 160  38    8 160  38    4 229  70    4 229  70    4 229  70    4 229  70    1  42 102    1  42 102    1  42 102    1  42 102
    0  89 133    0  89 133    0  89 133    0  89 133  113  46 125  113  46 125  113  46 125  113  46 125  109 115 157  109 115 157  109 115 157  109 115 157  105 184 189  105 184 189  105 184 189  105 184 189  101 253 221  101 253 221  101 253 221  101 253 221   98  66 253   98  66 253   98  66 253   98  66 253   94 136  29   94 136  29   94 136  29   94 136  29   90 205  61   90 205  61   90 205  61   90 205  61   87  18  93   87  18  93   87  18  93   87  18  93   83  87 125   83  87 125   83  87 125   83  87 125   79 156 157   79 156 157   79 156 157   79 156 157   75 225 189   75 225 189   75 225 189   75 225 189   72  38 221   72  38 221   72  38 221   72  38 221   68 107 253   68 107 253   68 107 253   68 107 253   64 177  29   64 177  29   64 177  29   64 177  29   60 246  61   60 246  61   60 246  61   60 246  61   57  59  93   57  59  93   57  59  93   57  59  93   53 128 125   53 128 125   53 128 125   53 128 125   49 197 157   49 197 157   49 197 157   49 197 157   46  10 189   46  10 189   46  10 189   46  10 189   42  79 221   42  79 221   42  79 221   42  79 221   38 148 253   38 148 253   38 148 253   38 148 253   34 218  29   34 218  29   34 218  29   34 218  29   31  31  61   31  31  61   31  31  61   31  31  61   27 100  93   27 100  93   27 100  93   27 100  93   23 169 125   23 169 125   23 169 125   23 169 125   19 238 157   19 238 157   19 238 157   19 238 157   16  51 189   16  51 189   16  51 189   16  51 189   12 120 221   12 120 221   12 120 221   12 120 221    8 189 253    8 189 253    8 189 253    8 189 253    5   3  29    5   3  29    5   3  29    5   3  29    1  72  61    1  72  61    1  72  61    1  72  61
    0  89 133    0  89 133    0  89 133    0  89 133  113  46 125  113  46 125  113  46 125  113  46 125  109 115 157  109 115 157  109 115 157  109 115 157  105 184 189  105 184 189  105 184 189  105 184 189  101 253 221  101 253 221  101 253 221  101 253 221   98  66 253   98  66 253   98  66 253   98  66 253   94 136  29   94 136  29   94 136  29   94 136  29   90 205  61   90 205  61   90 205  61   90 205  61   87  18  93   87  18  93   87  18  93   87  18  93   83  87 125   83  87 125   83  87 125   83  87 125   79 156 157   79 156 157   79 156 157   79 156 157   75 225 189   75 225 189   75 225 189   75 225 189   72  38 221   72  38 221   72  38 221   72  38 221   68 107 253   68 107 253   68 107 253   68 107 253   64 177  29   64 177  29   64 177  29   64 177  29   60 246  61   60 246  61   60 246  61   60 246  61   57  59  93   57  59  93   57  59  93   57  59  93   53 128 125   53 128 125   53 128 125   53 128 125   49 197 157   49 197 157   49 197 157   49 197 157   46  10 189   46  10 189   46  10 189   46  10 189   42  79 221   42  79 221   42  79 221   42  79 221   38 148 253   38 148 253   38 148 253   38 148 253   34 218  29   34 218  29   34 218  29   34 218  29   31  31  61   31  31  61   31  31  61   31  31  61   27 100  93   27 100  93   27 100  93   27 100  93   23 169 125   23 169 125   23 169 125   23 169 125   19 238 157   19 238 157   19 238 157   19 238 157   16  51 189   16  51 189   16  51 189   16  51 189   12 120 221   12 120 221   12 120 221   12 120 221    8 189 253    8 189 253    8 189 253    8 189 253    5   3  29    5   3  29    5   3  29    5   3  29    1  72  61    1  72  61    1  72  61    1  72  61
    0  89 133    0  89 133    0  89 133    0  89 133  113  46 125  113  46 125  113  46 125  113  46 125  109 115 157  109 115 157  109 115 157  109 115 157  105 184 189  105 184 189  105 184 189  105 184 189  101 253 221  101 253 221  101 253 221  101 253 221   98  66 253   98  66 253   98  66 253   98  66 253   94 136  29   94 136  29   94 136  29   94 136  29   90 205  61   90 205  61   90 205  61   90 205  61   87  18  93   87  18  93   87  18  93   87  18  93   83  87 125   83  87 125   83  87 125   83  87 125   79 156 157   79 156 157   79 156 157   79 156 157   75 225 189   75 225 189   75 225 189   75 225 189   72  38 221   72  38 221   72  38 221   72  38 221   68 107 253   68 107 253   68 107 253   68 107 253   64 177  29   64 177  29   64 177  29   64 177  29   60 246  61   60 246  61   60 246  61   60 246  61   57  59  93   57  59  93   57  59  93   57  59  93   53 128 125   53 128 125   53 128 125   53 128 125   49 197 157   49 197 157   49 197 157   49 197 157   46  10 189   46  10 189   46  10 189   46  10 189   42  79 221   42  79 221   42  79 221   42  79 221   38 148 253   38 148 253   38 148 253   38 148 253   34 218  29   34 218  29   34 218  29   34 218  29   31  31  61   31  31  61   31  31  61   31  31  61   27 100  93   27 100  93   27 100  93   27 100  93   23 169 125   23 169 125   23 169 125   23 169 125   19 238 157   19 238 157   19 238 157   19 238 157   16  51 189   16  51 189   16  51 189   16  51 189   12 120 221   12 120 221   12 120 221   12 120 221    8 189 253    8 189 253    8 189 253    8 189 253    5   3  29    5   3  29    5   3  29    5   3  29    1  72  61    1  72  61    1  72  61    1  72  61
    0  89 133    0  89 133    0  89 133    0  89 133  113  46 125  113  46 125  113  46 125  113  46 125  109 115 157  109 115 157  109 115 157  109 115 157  105 184 189  105 184 189  105 184 189  105 184 189  101 253 221  101 253 221  101 253 221  101 253 221   98  66 253   98  66 253   98  66 253   98  66 253   94 136  29   94 136  29   94 136  29   94 136  29   90 205  61   90 205  61   90 205  61   90 205  61   87  18  93   87  18  93   87  18  93   87  18  93   83  87 125   83  87 125   83  87 125   83  87 125   79 156 157   79 156 157   79 156 157   79 156 157   75 225 189   75 225 189   75 225 189   75 225 189   72  38 221   72  38 221   72  38 221   72  38 221   68 107 253   68 107 253   68 107 253   68 107 253   64 177  29   64 177  29   64 177  29   64 177  29   60 246  61   60 246  61   60 246  61   60 246  61   57  59  93   57  59  93   57  59  93   57  59  93   53 128 125   53 128 125   53 128 125   53 128 125   49 197 157   49 197 157   49 197 157   49 197 157   46  10 189   46  10 189   46  10 189   46  10 189   42  79 221   42  79 221   42  79 221   42  79 221   38 148 253   38 148 253   38 148 253   38 148 253   34 218  29   34 218  29   34 218  29   34 218  29   31  31  61   31  31  61   31  31  61   31  31  61   27 100  93   27 100  93   27 100  93   27 100  93   23 169 125   23 169 125   23 169 125   23 169 125   19 238 157   19 238 157   19 238 157   19 238 157   16  51 189   16  51 189   16  51 189   16  51 189   12 120 221   12 120 221   12 120 221   12 120 221    8 189 253    8 189 253    8 189 253    8 189 253    5   3  29    5   3  29    5   3  29    5   3  29    1  72  61    1  72  61    1  72  61    1  72  61
    0 119  92    0 119  92    0 119  92    0 119  92  113  76  84  113  76  84  113  76  84  113  76  84  109 145 116  109 145 116  109 145 116  109 145 116  105 214 148  105 214 148  105 214 148  105 214 148  102  27 180  102  27 180  102  27 180  102  27 180   98  96 212   98  96 212   98  96 212   98  96 212   94 165 244   94 165 244   94 165 244   94 165 244   90 235  20   90 235  20   90 235  20   90 235  20   87  48  52   87  48  52   87  48  52   87  48  52   83 117  84   83 117  84   83 117  84   83 117  84   79 186 116   79 186 116   79 186 116   79 186 116   75 255 148   75 255 148   75 255 148   75 255 148   72  68 180   72  68 180   72  68 180   72  68 180   68 137 212   68 137 212   68 137 212   68 137 212   64 206 244   64 206 244   64 206 244   64 206 244   61  20  20   61  20  20   61  20  20   61  20  20   57  89  52   57  89  52   57  89  52   57  89  52   53 158  84   53 158  84   53 158  84   53 158  84   49 227 116   49 227 116   49 227 116   49 227 116   46  40 148   46  40 148   46  40 148   46  40 148   42 109 180   42 109 180   42 109 180   42 109 180   38 178 212   38 178 212   38 178 212   38 178 212   34 247 244   34 247 244   34 247 244   34 247 244   31  61  20   31  61  20   31  61  20   31  61  20   27 130  52   27 130  52   27 130  52   27 130  52   23 199  84   23 199  84   23 199  84   23 199  84   20  12 116   20  12 116   20  12 116   20  12 116   16  81 148   16  81 148   16  81 148   16  81 148   12 150 180   12 150 180   12 150 180   12 150 180    8 219 212    8 219 212    8 219 212    8 219 212    5  32 244    5  32 244    5  32 244    5  32 244    1 102  20    1 102  20    1 102  20    1 102  20
    0 119  92    0 119  92    0 119  92    0 119  92  113  76  84  113  76  84  113  76  84  113  76  84  109 145 116  109 145 116  109 145 116  109 145 116  105 214 148  105 214 148  105 214 148  105 214 148  102  27 180  102  27 180  102  27 180  102  27 180   98  96 212   98  96 212   98  96 212   98  96 212   94 165 244   94 165 244   94 165 244   94 165 244   90 235  20   90 235  20   90 235  20   90 235  20   87  48  52   87  48  52   87  48  52   87  48  52   83 117  84   83 117  84   83 117  84   83 117  84   79 186 116   79 186 116   79 186 116   79 186 116   75 255 148   75 255 148   75 255 148   75 255 148   72  68 180   72  68 180   72  68 180   72  68 180   68 137 212   68 137 212   68 137 212   68 137 212   64 206 244   64 206 244   64 206 244   64 206 244   61  20  20   61  20  20   61  20  20   61  20  20   57  89  52   57  89  52   57  89  52   57  89  52   53 158  84   53 158  84   53 158  84   53 158  84   49 227 116   49 227 116   49 227 116   49 227 116   46  40 148   46  40 148   46  40 148   46  40 148   42 109 180   42 109 180   42 109 180   42 109 180   38 178 212   38 178 212   38 178 212   38 178 212   34 247 244   34 247 244   34 247 244   34 247 244   31  61  20   31  61  20   31  61  20   31  61  20   27 130  52   27 130  52   27 130  52   27 130  52   23 199  84   23 199  84   23 199  84   23 199  84   20  12 116   20  12 116   20  12 116   20  12 116   16  81 148   16  81 148   16  81 148   16  81 148   12 150 180   12 150 180   12 150 180   12 150 180    8 219 212    8 219 212    8 219 212    8 219 212    5  32 244    5  32 244    5  32 244    5  32 244    1 102  20    1 102  20    1 102  20    1 102  20
    0 119  92    0 119  92    0 119  92    0 119  92  113  76  84  113  76  84  113  76  84  113  76  84  109 145 116  109 145 116  109 145 116  109 145 116  105 214 148  105 214 148  105 214 148  105 214 148  102  27 180  102  27 180  102  27 180  102  27 180   98  96 212   98  96 212   98  96 212   98  96 212   94 165 244   94 165 244   94 165 244   94 165 244   90 235  20   90 235  20   90 235  20   90 235  20   87  48  52   87  48  52   87  48  52   87  48  52   83 117  84   83 117  84   83 117  84   83 117  84   79 186 116   79 186 116   79 186 116   79 186 116   75 255 148   75 255 148   75 255 148   75 255 148   72  68 180   72  68 180   72  68 180   72  68 180   68 137 212   68 137 212   68 137 212   68 137 212   64 206 244   64 206 244   64 206 244   64 206 244   61  20  20   61  20  20   61  20  20   61  20  20   57  89  52   57  89  52   57  89  52   57  89  52   53 158  84   53 158  84   53 158  84   53 158  84   49 227 116   49 227 116   49 227 116   49 227 116   46  40 148   46  40 148   46  40 148   46  40 148   42 109 180   42 109 180   42 109 180   42 109 180   38 178 212   38 178 212   38 178 212   38 178 212   34 247 244   34 247 244   34 247 244   34 247 244   31  61  20   31  61  20   31  61  20   31  61  20   27 130  52   27 130  52   27 130  52   27 130  52   23 199  84   23 199  84   23 199  84   23 199  84   20  12 116   20  12 116   20  12 116   20  12 116   16  81 148   16  81 148   16  81 148   16  81 148   12 150 180   12 150 180   12 150 180   12 150 180    8 219 212    8 219 212    8 219 212    8 219 212    5  32 244    5  32 244    5  32 244    5  32 244    1 102  20    1 102  20    1 102  20    1 102  20
    0 119  92    0 119  92    0 119  92    0 119  92  113  76  84  113  76  84  113  76  84  113  76  84  109 145 116  109 145 116  109 145 116  109 145 116  105 214 148  105 214 148  105 214 148  105 214 148  102  27 180  102  27 180  102  27 180  102  27 180   98  96 212   98  96 212   98  96 212   98  96 212   94 165 244   94 165 244   94 165 244   94 165 244   90 235  20   90 235  20   90 235  20   90 235  20   87  48  52   87  48  52   87  48  52   87  48  52   83 117  84   83 117  84   83 117  84   83 117  84   79 186 116   79 186 116   79 186 116   79 186 116   75 255 148   75 255 148   75 255 148   75 255 148   72  68 180   72  68 180   72  68 180   72  68 180   68 137 212   68 137 212   68 137 212   68 137 212   64 206 244   64 206 244   64 206 244   64 206 244   61  20  20   61  20  20   61  20  20   61  20  20   57  89  52   57  89  52   57  89  52   57  89  52   53 158  84   53 158  84   53 158  84   53 158  84   49 227 116   49 227 116   49 227 116   49 227 116   46  40 148   46  40 148   46  40 148   46  40 148   42 109 180   42 109 180   42 109 180   42 109 180   38 178 212   38 178 212   38 178 212   38 178 212   34 247 244   34 247 244   34 247 244   34 247 244   31  61  20   31  61  20   31  61  20   31  61  20   27 130  52   27 130  52   27 130  52   27 130  52   23 199  84   23 199  84   23 199  84   23 199  84   20  12 116   20  12 116   20  12 116   20  12 116   16  81 148   16  81 148   16  81 148   16  81 148   12 150 180   12 150 180   12 150 180   12 150 180    8 219 212    8 219 212    8 219 212    8 219 212    5  32 244    5  32 244    5  32 244    5  32 244    1 102  20    1 102  20    1 102  20    1 102  20
    0 149  51    0 149  51    0 149  51    0 149  51  113 106  43  113 106  43  113 106  43  113 106  43  109 175  75  109 175  75  109 175  75  109 175  75  105 244 107  105 244 107  105 244 107  105 244 107  102  57 139  102  57 139  102  57 139  102  57 139   98 126 171   98 126 171   98 126 171   98 126 171   94 195 203   94 195 203   94 195 203   94 195 203   91   8 235   91   8 235   91   8 235   91   8 235   87  78  11   87  78  11   87  78  11   87  78  11   83 147  43   83 147  43   83 147  43   83 147  43   79 216  75   79 216  75   79 216  75   79 216  75   76  29 107   76  29 107   76  29 107   76  29 107   72  98 139   72  98 139   72  98 139   72  98 139   68 167 171   68 167 171   68 167 171   68 167 171   64 236 203   64 236 203   64 236 203   64 236 203   61  49 235   61  49 235   61  49 235   61  49 235   57 119  11   57 119  11   57 119  11   57 119  11   53 188  43   53 188  43   53 188  43   53 188  43   50   1  75   50   1  75   50   1  75   50   1  75   46  70 107   46  70 107   46  70 107   46  70 107   42 139 139   42 139 139   42 139 139   42 139 139   38 208 171   38 208 171   38 208 171   38 208 171   35  21 203   35  21 203   35  21 203   35  21 203   31  90 235   31  90 235   31  90 235   31  90 235   27 160  11   27 160  11   27 160  11   27 160  11   23 229  43   23 229  43   23 229  43   23 229  43   20  42  75   20  42  75   20  42  75   20  42  75   16 111 107   16 111 107   16 111 107   16 111 107   12 180 139   12 180 139   12 180 139   12 180 139    8 249 171    8 249 171    8 249 171    8 249 171    5  62 203    5  62 203    5  62 203    5  62 203    1 131 235    1 131 235    1 131 235    1 131 235
    0 149  51    0 149  51    0 149  51    0 149  51  113 106  43  113 106  43  113 106  43  113 106  43  109 175  75  109 175  75  109 175  75  109 175  75  105 244 107  105 244 107  105 244 107  105 244 107  102  57 139  102  57 139  102  57 139  102  57 139   98 126 171   98 126 171   98 126 171   98 126 171   94 195 203   94 195 203   94 195 203   94 195 203   91   8 235   91   8 235   91   8 235   91   8 235   87  78  11   87  78  11   87  78  11   87  78  11   83 147  43   83 147  43   83 147  43   83 147  43   79 216  75   79 216  75   79 216  75   79 216  75   76  29 107   76  29 107   76  29 107   76  29 107   72  98 139   72  98 139   72  98 139   72  98 139   68 167 171   68 167 171   68 167 171   68 167 171   64 236 203   64 236 203   64 236 203   64 236 203   61  49 235   61  49 235   61  49 235   61  49 235   57 119  11   57 119  11   57 119  11   57 119  11   53 188  43   53 188  43   53 188  43   53 188  43   50   1  75   50   1  75   50   1  75   50   1  75   46  70 107   46  70 107   46  70 107   46  70 107   42 139 139   42 139 139   42 139 139   42 139 139   38 208 171   38 208 171   38 208 171   38 208 171   35  21 203   35  21 203   35  21 203   35  21 203   31  90 235   31  90 235   31  90 235   31  90 235   27 160  11   27 160  11   27 160  11   27 160  11   23 229  43   23 229  43   23 229  43   23 229  43   20  42  75   20  42  75   20  42  75   20  42  75   16 111 107   16 111 107   16 111 107   16 111 107   12 180 139   12 180 139   12 180 139   12 180 139    8 249 171    8 249 171    8 249 171    8 249 171    5  62 203    5  62 203    5  62 203    5  62 203    1 131 235    1 131 235    1 131 235    1 131 235
    0 149  51    0 149  51    0 149  51    0 149  51  113 106  43  113 106  43  113 106  43  113 106  43  109 175  75  109 175  75  109 175  75  109 175  75  105 244 107  105 244 107  105 244 107  105 244 107  102  57 139  102  57 139  102  57 139  102  57 139   98 126 171   98 126 171   98 126 171   98 126 171   94 195 203   94 195 203   94 195 203   94 195 203   91   8 235   91   8 235   91   8 235   91   8 235   87  78  11   87  78  11   87  78  11   87  78  11   83 147  43   83 147  43   83 147  43   83 147  43   79 216  75   79 216  75   79 216  75   79 216  75   76  29 107   76  29 107   76  29 107   76  29 107   72  98 139   72  98 139   72  98 139   72  98 139   68 167 171   68 167 171   68 167 171   68 167 171   64 236 203   64 236 203   64 236 203   64 236 203   61  49 235   61  49 235   61  49 235   61  49 235   57 119  11   57 119  11   57 119  11   57 119  11   53 188  43   53 188  43   53 188  43   53 188  43   50   1  75   50   1  75   50   1  75   50   1  75   46  70 107   46  70 107   46  70 107   46  70 107   42 139 139   42 139 139   42 139 139   42 139 139   38 208 171   38 208 171   38 208 171   38 208 171   35  21 203   35  21 203   35  21 203   35  21 203   31  90 235   31  90 235   31  90 235   31  90 235   27 160  11   27 160  11   27 160  11   27 160  11   23 229  43   23 229  43   23 229  43   23 229  43   20  42  75   20  42  75   20  42  75   20  42  75   16 111 107   16 111 107   16 111 107   16 111 107   12 180 139   12 180 139   12 180 139   12 180 139    8 249 171    8 249 171    8 249 171    8 249 171    5  62 203    5  62 203    5  62 203    5  62 203    1 131 235    1 131 235    1 131 235    1 131 235
    0 149  51    0 149  51    0 149  51    0 149  51  113 106  43  113 106  43  113 106  43  113 106  43  109 175  75  109 175  75  109 175  75  109 175  75  105 244 107  105 244 107  105 244 107  105 244 107  102  57 139  102  57 139  102  57 139  102  57 139   98 126 171   98 126 171   98 126 171   98 126 171   94 195 203   94 195 203   94 195 203   94 195 203   91   8 235   91   8 235   91   8 235   91   8 235   87  78  11   87  78  11   87  78  11   87  78  11   83 147  43   83 147  43   83 147  43   83 147  43   79 216  75   79 216  75   79 216  75   79 216  75   76  29 107   76  29 107   76  29 107   76  29 107   72  98 139   72  98 139   72  98 139   72  98 139   68 167 171   68 167 171   68 167 171   68 167 171   64 236 203   64 236 203   64 236 203   64 236 203   61  49 235   61  49 235   61  49 235   61  49 235   57 119  11   57 119  11   57 119  11   57 119  11   53 188  43   53 188  43   53 188  43   53 188  43   50   1  75   50   1  75   50   1  75   50   1  75   46  70 107   46  70 107   46  70 107   46  70 107   42 139 139   42 139 139   42 139 139   42 139 139   38 208 171   38 208 171   38 208 171   38 208 171   35  21 203   35  21 203   35  21 203   35  21 203   31  90 235   31  90 235   31  90 235   31  90 235   27 160  11   27 160  11   27 160  11   27 160  11   23 229  43   23 229  43   23 229  43   23 229  43   20  42  75   20  42  75   20  42  75   20  42  75   16 111 107   16 111 107   16 111 107   16 111 107   12 180 139   12 180 139   12 180 139   12 180 139    8 249 171    8 249 171    8 249 171    8 249 171    5  62 203    5  62 203    5  62 203    5  62 203    1 131 235    1 131 235    1 131 235    1 131 235
    0 179  10    0 179  10    0 179  10    0 179  10  113 136   2  113 136   2  113 136   2  113 136   2  109 205  34  109 205  34  109 205  34  109 205  34  106  18  66  106  18  66  106  18  66  106  18  66  102  87  98  102  87  98  102  87  98  102  87  98   98 156 130   98 156 130   98 156 130   98 156 130   94 225 162   94 225 162   94 225 162   94 225 162   91  38 194   91  38 194   91  38 194   91  38 194   87 107 226   87 107 226   87 107 226   87 107 226   83 177   2   83 177   2   83 177   2   83 177   2   79 246  34   79 246  34   79 246  34   79 246  34   76  59  66   76  59  66   76  59  66   76  59  66   72 128  98   72 128  98   72 128  98   72 128  98   68 197 130   68 197 130   68 197 130   68 197 130   65  10 162   65  10 162   65  10 162   65  10 162   61  79 194   61  79 194   61  79 194   61  79 194   57 148 226   57 148 226   57 148 226   57 148 226   53 218   2   53 218   2   53 218   2   53 218   2   50  31  34   50  31  34   50  31  34   50  31  34   46 100  66   46 100  66   46 100  66   46 100  66   42 169  98   42 169  98   42 169  98   42 169  98   38 238 130   38 238 130   38 238 130   38 238 130   35  51 162   35  51 162   35  51 162   35  51 162   31 120 194   31 120 194   31 120 194   31 120 194   27 189 226   27 189 226   27 189 226   27 189 226   24   3   2   24   3   2   24   3   2   24   3   2   20  72  34   20  72  34   20  72  34   20  72  34   16 141  66   16 141  66   16 141  66   16 141  66   12 210  98   12 210  98   12 210  98   12 210  98    9  23 130    9  23 130    9  23 130    9  23 130    5  92 162    5  92 162    5  92 162    5  92 162    1 161 194    1 161 194    1 161 194    1 161 194
    0 179  10    0 179  10    0 179  10    0 179  10  113 136   2  113 136   2  113 136   2  113 136   2  109 205  34  109 205  34  109 205  34  109 205  34  106  18  66  106  18  66  106  18  66  106  18  66  102  87  98  102  87  98  102  87  98  102  87  98   98 156 130   98 156 130   98 156 130   98 156 130   94 225 162   94 225 162   94 225 162   94 225 162   91  38 194   91  38 194   91  38 194   91  38 194   87 107 226   87 107 226   87 107 226   87 107 226   83 177   2   83 177   2   83 177   2   83 177   2   79 246  34   79 246  34   79 246  34   79 246  34   76  59  66   76  59  66   76  59  66   76  59  66   72 128  98   72 128  98   72 128  98   72 128  98   68 197 130   68 197 130   68 197 130   68 197 130   65  10 162   65  10 162   65  10 162   65  10 162   61  79 194   61  79 194   61  79 194   61  79 194   57 148 226   57 148 226   57 148 226   57 148 226   53 218   2   53 218   2   53 218   2   53 218   2   50  31  34   50  31  34   50  31  34   50  31  34   46 100  66   46 100  66   46 100  66   46 100  66   42 169  98   42 169  98   42 169  98   42 169  98   38 238 130   38 238 130   38 238 130   38 238 130   35  51 162   35  51 162   35  51 162   35  51 162   31 120 194   31 120 194   31 120 194   31 120 194   27 189 226   27 189 226   27 189 226   27 189 226   24   3   2   24   3   2   24   3   2   24   3   2   20  72  34   20  72  34   20  72  34   20  72  34   16 141  66   16 141  66   16 141  66   16 141  66   12 210  98   12 210  98   12 210  98   12 210  98    9  23 130    9  23 130    9  23 130    9  23 130    5  92 162    5  92 162    5  92 162    5  92 162    1 161 194    1 161 194    1 161 194    1 161 194
    0 179  10    0 179  10    0 179  10    0 179  10  113 136   2  113 136   2  113 136   2  113 136   2  109 205  34  109 205  34  109 205  34  109 205  34  106  18  66  106  18  66  106  18  66  106  18  66  102  87  98  102  87  98  102  87  98  102  87  98   98 156 130   98 156 130   98 156 130   98 156 130   94 225 162   94 225 162   94 225 162   94 225 162   91  38 194   91  38 194   91  38 194   91  38 194   87 107 226   87 107 226   87 107 226   87 107 226   83 177   2   83 177   2   83 177   2   83 177   2   79 246  34   79 246  34   79 246  34   79 246  34   76  59  66   76  59  66   76  59  66   76  59  66   72 128  98   72 128  98   72 128  98   72 128  98   68 197 130   68 197 130   68 197 130   68 197 130   65  10 162   65  10 162   65  10 162   65  10 162   61  79 194   61  79 194   61  79 194   61  79 194   57 148 226   57 148 226   57 148 226   57 148 226   53 218   2   53 218   2   53 218   2   53 218   2   50  31  34   50  31  34   50  31  34   50  31  34   46 100  66   46 100  66   46 100  66   46 100  66   42 169  98   42 169  98   42 169  98   42 169  98   38 238 130   38 238 130   38 238 130   38 238 130   35  51 162   35  51 162   35  51 162   35  51 162   31 120 194   31 120 194   31 120 194   31 120 194   27 189 226   27 189 226   27 189 226   27 189 226   24   3   2   24   3   2   24   3   2   24   3   2   20  72  34   20  72  34   20  72  34   20  72  34   16 141  66   16 141  66   16 141  66   16 141  66   12 210  98   12 210  98   12 210  98   12 210  98    9  23 130    9  23 130    9  23 130    9  23 130    5  92 162    5  92 162    5  92 162    5  92 162    1 161 194    1 161 194    1 161 194    1 161 194
    0 179  10    0 179  10    0 179  10    0 179  10  113 136   2  113 136   2  113 136   2  113 136   2  109 205  34  109 205  34  109 205  34  109 205  34  106  18  66  106  18  66  106  18  66  106  18  66  102  87  98  102  87  98  102  87  98  102  87  98   98 156 130   98 156 130   98 156 130   98 156 130   94 225 162   94 225 162   94 225 162   94 225 162   91  38 194   91  38 194   91  38 194   91  38 194   87 107 226   87 107 226   87 107 226   87 107 226   83 177   2   83 177   2   83 177   2   83 177   2   79 246  34   79 246  34   79 246  34   79 246  34   76  59  66   76  59  66   76  59  66   76  59  66   72 128  98   72 128  98   72 128  98   72 128  98   68 197 130   68 197 130   68 197 130   68 197 130   65  10 162   65  10 162   65  10 162   65  10 162   61  79 194   61  79 194   61  79 194   61  79 194   57 148 226   57 148 226   57 148 226   57 148 226   53 218   2   53 218   2   53 218   2   53 218   2   50  31  34   50  31  34   50  31  34   50  31  34   46 100  66   46 100  66   46 100  66   46 100  66   42 169  98   42 169  98   42 169  98   42 169  98   38 238 130   38 238 130   38 238 130   38 238 130   35  51 162   35  51 162   35  51 162   35  51 162   31 120 194   31 120 194   31 120 194   31 120 194   27 189 226   27 189 226   27 189 226   27 189 226   24   3   2   24   3   2   24   3   2   24   3   2   20  72  34   20  72  34   20  72  34   20  72  34   16 141  66   16 141  66   16 141  66   16 141  66   12 210  98   12 210  98   12 210  98   12 210  98    9  23 130    9  23 130    9  23 130    9  23 130    5  92 162    5  92 162    5  92 162    5  92 162    1 161 194    1 161 194    1 161 194    1 161 194
    0 208 225    0 208 225    0 208 225    0 208 225  113 165 217  113 165 217  113 165 217  113 165 217  109 234 249  109 234 249  109 234 249  109 234 249  106  48  25  106  48  25  106  48  25  106  48  25  102 117  57  102 117  57  102 117  57  102 117  57   98 186  89   98 186  89   98 186  89   98 186  89   94 255 121   94 255 121   94 255 121   94 255 121   91  68 153   91  68 153   91  68 153   91  68 153   87 137 185   87 137 185   87 137 185   87 137 185   83 206 217   83 206 217   83 206 217   83 206 217   80  19 249   80  19 249   80  19 249   80  19 249   76  89  25   76  89  25   76  89  25   76  89  25   72 158  57   72 158  57   72 158  57   72 158  57   68 227  89   68 227  89   68 227  89   68 227  89   65  40 121   65  40 121   65  40 121   65  40 121   61 109 153   61 109 153   61 109 153   61 109 153   57 178 185   57 178 185   57 178 185   57 178 185   53 247 217   53 247 217   53 247 217   53 247 217   50  60 249   50  60 249   50  60 249   50  60 249   46 130  25   46 130  25   46 130  25   46 130  25   42 199  57   42 199  57   42 199  57   42 199  57   39  12  89   39  12  89   39  12  89   39  12  89   35  81 121   35  81 121   35  81 121   35  81 121   31 150 153   31 150 153   31 150 153   31 150 153   27 219 185   27 219 185   27 219 185   27 219 185   24  32 217   24  32 217   24  32 217   24  32 217   20 101 249   20 101 249   20 101 249   20 101 249   16 171  25   16 171  25   16 171  25   16 171  25   12 240  57   12 240  57   12 240  57   12 240  57    9  53  89    9  53  89    9  53  89    9  53  89    5 122 121    5 122 121    5 122 121    5 122 121    1 191 153    1 191 153    1 191 153    1 191 153
    0 208 225    0 208 225    0 208 225    0 208 225  113 165 217  113 165 217  113 165 217  113 165 217  109 234 249  109 234 249  109 234 249  109 234 249  106  48  25  106  48  25  106  48  25  106  48  25  102 117  57  102 117  57  102 117  57  102 117  57   98 186  89   98 186  89   98 186  89   98 186  89   94 255 121   94 255 121   94 255 121   94 255 121   91  68 153   91  68 153   91  68 153   91  68 153   87 137 185   87 137 185   87 137 185   87 137 185   83 206 217   83 206 217   83 206 217   83 206 217   80  19 249   80  19 249   80  19 249   80  19 249   76  89  25   76  89  25   76  89  25   76  89  25   72 158  57   72 158  57   72 158  57   72 158  57   68 227  89   68 227  89   68 227  89   68 227  89   65  40 121   65  40 121   65  40 121   65  40 121   61 109 153   61 109 153   61 109 153   61 109 153   57 178 185   57 178 185   57 178 185   57 178 185   53 247 217   53 247 217   53 247 217   53 247 217   50  60 249   50  60 249   50  60 249   50  60 249   46 130  25   46 130  25   46 130  25   46 130  25   42 199  57   42 199  57   42 199  57   42 199  57   39  12  89   39  12  89   39  12  89   39  12  89   35  81 121   35  81 121   35  81 121   35  81 121   31 150 153   31 150 153   31 150 153   31 150 153   27 219 185   27 219 185   27 219 185   27 219 185   24  32 217   24  32 217   24  32 217   24  32 217   20 101 249   20 101 249   20 101 249   20 101 249   16 171  25   16 171  25   16 171  25   16 171  25   12 240  57   12 240  57   12 240  57   12 240  57    9  53  89    9  53  89    9  53  89    9  53  89    5 122 121    5 122 121    5 122 121    5 122 121    1 191 153    1 191 153    1 191 153    1 191 153
    0 208 225    0 208 225    0 208 225    0 208 225  113 165 217  113 165 217  113 165 217  113 165 217  109 234 249  109 234 249  109 234 249  109 234 249  106  48  25  106  48  25  106  48  25  106  48  25  102 117  57  102 117  57  102 117  57  102 117  57   98 186  89   98 186  89   98 186  89   98 186  89   94 255 121   94 255 121   94 255 121   94 255 121   91  68 153   91  68 153   91  68 153   91  68 153   87 137 185   87 137 185   87 137 185   87 137 185   83 206 217   83 206 217   83 206 217   83 206 217   80  19 249   80  19 249   80  19 249   80  19 249   76  89  25   76  89  25   76  89  25   76  89  25   72 158  57   72 158  57   72 158  57   72 158  57   68 227  89   68 227  89   68 227  89   68 227  89   65  40 121   65  40 121   65  40 121   65  40 121   61 109 153   61 109 153   61 109 153   61 109 153   57 178 185   57 178 185   57 178 185   57 178 185   53 247 217   53 247 217   53 247 217   53 247 217   50  60 249   50  60 249   50  60 249   50  60 249   46 130  25   46 130  25   46 130  25   46 130  25   42 199  57   42 199  57   42 199  57   42 199  57   39  12  89   39  12  89   39  12  89   39  12  89   35  81 121   35  81 121   35  81 121   35  81 121   31 150 153   31 150 153   31 150 153   31 150 153   27 219 185   27 219 185   27 219 185   27 219 185   24  32 217   24  32 217   24  32 217   24  32 217   20 101 249   20 101 249   20 101 249   20 101 249   16 171  25   16 171  25   16 171  25   16 171  25   12 240  57   12 240  57   12 240  57   12 240  57    9  53  89    9  53  89    9  53  89    9  53  89    5 122 121    5 122 121    5 122 121    5 122 121    1 191 153    1 191 153    1 191 153    1 191 153
    0 208 225    0 208 225    0 208 225    0 208 225  113 165 217  113 165 217  113 165 217  113 165 217  109 234 249  109 234 249  109 234 249  109 234 249  106  48  25  106  48  25  106  48  25  106  48  25  102 117  57  102 117  57  102 117  57  102 117  57   98 186  89   98 186  89   98 186  89   98 186  89   94 255 121   94 255 121   94 255 121   94 255 121   91  68 153   91  68 153   91  68 153   91  68 153   87 137 185   87 137 185   87 137 185   87 137 185   83 206 217   83 206 217   83 206 217   83 206 217   80  19 249   80  19 249   80  19 249   80  19 249   76  89  25   76  89  25   76  89  25   76  89  25   72 158  57   72 158  57   72 158  57   72 158  57   68 227  89   68 227  89   68 227  89   68 227  89   65  40 121   65  40 121   65  40 121   65  40 121   61 109 153   61 109 153   61 109 153   61 109 153   57 178 185   57 178 185   57 178 185   57 178 185   53 247 217   53 247 217   53 247 217   53 247 217   50  60 249   50  60 249   50  60 249   50  60 249   46 130  25   46 130  25   46 130  25   46 130  25   42 199  57   42 199  57   42 199  57   42 199  57   39  12  89   39  12  89   39  12  89   39  12  89   35  81 121   35  81 121   35  81 121   35  81 121   31 150 153   31 150 153   31 150 153   31 150 153   27 219 185   27 219 185   27 219 185   27 219 185   24  32 217   24  32 217   24  32 217   24  32 217   20 101 249   20 101 249   20 101 249   20 101 249   16 171  25   16 171  25   16 171  25   16 171  25   12 240  57   12 240  57   12 240  57   12 240  57    9  53  89    9  53  89    9  53  89    9  53  89    5 122 121    5 122 121    5 122 121    5 122 121    1 191 153    1 191 153    1 191 153    1 191 153
    0 238 184    0 238 184    0 238 184    0 238 184  113 195 176  113 195 176  113 195 176  113 195 176  110   8 208  110   8 208  110   8 208  110   8 208  106  77 240  106  77 240  106  77 240  106  77 240  102 147  16  102 147  16  102 147  16  102 147  16   98 216  48   98 216  48   98 216  48   98 216  48   95  29  80   95  29  80   95  29  80   95  29  80   91  98 112   91  98 112   91  98 112   91  98 112   87 167 144   87 167 144   87 167 144   87 167 144   83 236 176   83 236 176   83 236 176   83 236 176   80  49 208   80  49 208   80  49 208   80  49 208   76 118 240   76 118 240   76 118 240   76 118 240   72 188  16   72 188  16   72 188  16   72 188  16   69   1  48   69   1  48   69   1  48   69   1  48   65  70  80   65  70  80   65  70  80   65  70  80   61 139 112   61 139 112   61 139 112   61 139 112   57 208 144   57 208 144   57 208 144   57 208 144   54  21 176   54  21 176   54  21 176   54  21 176   50  90 208   50  90 208   50  90 208   50  90 208   46 159 240   46 159 240   46 159 240   46 159 240   42 229  16   42 229  16   42 229  16   42 229  16   39  42  48   39  42  48   39  42  48   39  42  48   35 111  80   35 111  80   35 111  80   35 111  80   31 180 112   31 180 112   31 180 112   31 180 112   27 249 144   27 249 144   27 249 144   27 249 144   24  62 176   24  62 176   24  62 176   24  62 176   20 131 208   20 131 208   20 131 208   20 131 208   16 200 240   16 200 240   16 200 240   16 200 240   13  14  16   13  14  16   13  14  16   13  14  16    9  83  48    9  83  48    9  83  48    9  83  48    5 152  80    5 152  80    5 152  80    5 152  80    1 221 112    1 221 112    1 221 112    1 221 112
    0 238 184    0 238 184    0 238 184    0 238 184  113 195 176  113 195 176  113 195 176  113 195 176  110   8 208  110   8 208  110   8 208  110   8 208  106  77 240  106  77 240  106  77 240  106  77 240  102 147  16  102 147  16  102 147  16  102 147  16   98 216  48   98 216  48   98 216  48   98 216  48   95  29  80   95  29  80   95  29  80   95  29  80   91  98 112   91  98 112   91  98 112   91  98 112   87 167 144   87 167 144   87 167 144   87 167 144   83 236 176   83 236 176   83 236 176   83 236 176   80  49 208   80  49 208   80  49 208   80  49 208   76 118 240   76 118 240   76 118 240   76 118 240   72 188  16   72 188  16   72 188  16   72 188  16   69   1  48   69   1  48   69   1  48   69   1  48   65  70  80   65  70  80   65  70  80   65  70  80   61 139 112   61 139 112   61 139 112   61 139 112   57 208 144   57 208 144   57 208 144   57 208 144   54  21 176   54  21 176   54  21 176   54  21 176   50  90 208   50  90 208   50  90 208   50  90 208   46 159 240   46 159 240   46 159 240   46 159 240   42 229  16   42 229  16   42 229  16   42 229  16   39  42  48   39  42  48   39  42  48   39  42  48   35 111  80   35 111  80   35 111  80   35 111  80   31 180 112   31 180 112   31 180 112   31 180 112   27 249 144   27 249 144   27 249 144   27 249 144   24  62 176   24  62 176   24  62 176   24  62 176   20 131 208   20 131 208   20 131 208   20 131 208   16 200 240   16 200 240   16 200 240   16 200 240   13  14  16   13  14  16   13  14  16   13  14  16    9  83  48    9  83  48    9  83  48    9  83  48    5 152  80    5 152  80    5 152  80    5 152  80    1 221 112    1 221 112    1 221 112    1 221 112
    0 238 184    0 238 184    0 238 184    0 238 184  113 195 176  113 195 176  113 195 176  113 195 176  110   8 208  110   8 208  110   8 208  110   8 208  106  77 240  106  77 240  106  77 240  106  77 240  102 147  16  102 147  16  102 147  16  102 147  16   98 216  48   98 216  48   98 216  48   98 216  48   95  29  80   95  29  80   95  29  80   95  29  80   91  98 112   91  98 112   91  98 112   91  98 112   87 167 144   87 167 144   87 167 144   87 167 144   83 236 176   83 236 176   83 236 176   83 236 176   80  49 208   80  49 208   80  49 208   80  49 208   76 118 240   76 118 240   76 118 240   76 118 240   72 188  16   72 188  16   72 188  16   72 188  16   69   1  48   69   1  48   69   1  48   69   1  48   65  70  80   65  70  80   65  70  80   65  70  80   61 139 112   61 139 112   61 139 112   61 139 112   57 208 144   57 208 144   57 208 144   57 208 144   54  21 176   54  21 176   54  21 176   54  21 176   50  90 208   50  90 208   50  90 208   50  90 208   46 159 240   46 159 240   46 159 240   46 159 240   42 229  16   42 229  16   42 229  16   42 229  16   39  42  48   39  42  48   39  42  48   39  42  48   35 111  80   35 111  80   35 111  80   35 111  80   31 180 112   31 180 112   31 180 112   31 180 112   27 249 144   27 249 144   27 249 144   27 249 144   24  62 176   24  62 176   24  62 176   24  62 176   20 131 208   20 131 208   20 131 208   20 131 208   16 200 240   16 200 240   16 200 240   16 200 240   13  14  16   13  14  16   13  14  16   13  14  16    9  83  48    9  83  48    9  83  48    9  83  48    5 152  80    5 152  80    5 152  80    5 152  80    1 221 112    1 221 112    1 221 112    1 221 112
    0 238 184    0 238 184    0 238 184    0 238 184  113 195 176  113 195 176  113 195 176  113 195 176  110   8 208  110   8 208  110   8 208  110   8 208  106  77 240  106  77 240  106  77 240  106  77 240  102 147  16  102 147  16  102 147  16  102 147  16   98 216  48   98 216  48   98 216  48   98 216  48   95  29  80   95  29  80   95  29  80   95  29  80   91  98 112   91  98 112   91  98 112   91  98 112   87 167 144   87 167 144   87 167 144   87 167 144   83 236 176   83 236 176   83 236 176   83 236 176   80  49 208   80  49 208   80  49 208   80  49 208   76 118 240   76 118 240   76 118 240   76 118 240   72 188  16   72 188  16   72 188  16   72 188  16   69   1  48   69   1  48   69   1  48   69   1  48   65  70  80   65  70  80   65  70  80   65  70  80   61 139 112   61 139 112   61 139 112   61 139 112   57 208 144   57 208 144   57 208 144   57 208 144   54  21 176   54  21 176   54  21 176   54  21 176   50  90 208   50  90 208   50  90 208   50  90 208   46 159 240   46 159 240   46 159 240   46 159 240   42 229  16   42 229  16   42 229  16   42 229  16   39  42  48   39  42  48   39  42  48   39  42  48   35 111  80   35 111  80   35 111  80   35 111  80   31 180 112   31 180 112   31 180 112   31 180 112   27 249 144   27 249 144   27 249 144   27 249 144   24  62 176   24  62 176   24  62 176   24  62 176   20 131 208   20 131 208   20 131 208   20 131 208   16 200 240   16 200 240   16 200 240   16 200 240   13  14  16   13  14  16   13  14  16   13  14  16    9  83  48    9  83  48    9  83  48    9  83  48    5 152  80    5 152  80    5 152  80    5 152  80    1 221 112    1 221 112    1 221 112    1 221 112
    1  12 143    1  12 143    1  12 143    1  12 143  113 225 135  113 225 135  113 225 135  113 225 135  110  38 167  110  38 167  110  38 167  110  38 167  106 107 199  106 107 199  106 107 199  106 107 199  102 176 231  102 176 231  102 176 231  102 176 231   98 246   7   98 246   7   98 246   7   98 246   7   95  59  39   95  59  39   95  59  39   95  59  39   91 128  71   91 128  71   91 128  71   91 128  71   87 197 103   87 197 103   87 197 103   87 197 103   84  10 135   84  10 135   84  10 135   84  10 135   80  79 167   80  79 167   80  79 167   80  79 167   76 148 199   76 148 199   76 148 199   76 148 199   72 217 231   72 217 231   72 217 231   72 217 231   69  31   7   69  31   7   69  31   7   69  31   7   65 100  39   65 100  39   65 100  39   65 100  39   61 169  71   61 169  71   61 169  71   61 169  71   57 238 103   57 238 103   57 238 103   57 238 103   54  51 135   54  51 135   54  51 135   54  51 135   50 120 167   50 120 167   50 120 167   50 120 167   46 189 199   46 189 199   46 189 199   46 189 199   43   2 231   43   2 231   43   2 231   43   2 231   39  72   7   39  72   7   39  72   7   39  72   7   35 141  39   35 141  39   35 141  39   35 141  39   31 210  71   31 210  71   31 210  71   31 210  71   28  23 103   28  23 103   28  23 103   28  23 103   24  92 135   24  92 135   24  92 135   24  92 135   20 161 167   20 161 167   20 161 167   20 161 167   16 230 199   16 230 199   16 230 199   16 230 199   13  43 231   13  43 231   13  43 231   13  43 231    9 113   7    9 113   7    9 113   7    9 113   7    5 182  39    5 182  39    5 182  39    5 182  39    1 251  71    1 251  71    1 251  71    1 251  71
    1  12 143    1  12 143    1  12 143    1  12 143  113 225 135  113 225 135  113 225 135  113 225 135  110  38 167  110  38 167  110  38 167  110  38 167  106 107 199  106 107 199  106 107 199  106 107 199  102 176 231  102 176 231  102 176 231  102 176 231   98 246   7   98 246   7   98 246   7   98 246   7   95  59  39   95  59  39   95  59  39   95  59  39   91 128  71   91 128  71   91 128  71   91 128  71   87 197 103   87 197 103   87 197 103   87 197 103   84  10 135   84  10 135   84  10 135   84  10 135   80  79 167   80  79 167   80  79 167   80  79 167   76 148 199   76 148 199   76 148 199   76 148 199   72 217 231   72 217 231   72 217 231   72 217 231   69  31   7   69  31   7   69  31   7   69  31   7   65 100  39   65 100  39   65 100  39   65 100  39   61 169  71   61 169  71   61 169  71   61 169  71   57 238 103   57 238 103   57 238 103   57 238 103   54  51 135   54  51 135   54  51 135   54  51 135   50 120 167   50 120 167   50 120 167   50 120 167   46 189 199   46 189 199   46 189 199   46 189 199   43   2 231   43   2 231   43   2 231   43   2 231   39  72   7   39  72   7   39  72   7   39  72   7   35 141  39   35 141  39   35 141  39   35 141  39   31 210  71   31 210  71   31 210  71   31 210  71   28  23 103   28  23 103   28  23 103   28  23 103   24  92 135   24  92 135   24  92 135   24  92 135   20 161 167   20 161 167   20 161 167   20 161 167   16 230 199   16 230 199   16 230 199   16 230 199   13  43 231   13  43 231   13  43 231   13  43 231    9 113   7    9 113   7    9 113   7    9 113   7    5 182  39    5 182  39    5 182  39    5 182  39    1 251  71    1 251  71    1 251  71    1 251  71
    1  12 143    1  12 143    1  12 143    1  12 143  113 225 135  113 225 135  113 225 135  113 225 135  110  38 167  110  38 167  110  38 167  110  38 167  106 107 199  106 107 199  106 107 199  106 107 199  102 176 231  102 176 231  102 176 231  102 176 231   98 246   7   98 246   7   98 246   7   98 246   7   95  59  39   95  59  39   95  59  39   95  59  39   91 128  71   91 128  71   91 128  71   91 128  71   87 197 103   87 197 103   87 197 103   87 197 103   84  10 135   84  10 135   84  10 135   84  10 135   80  79 167   80  79 167   80  79 167   80  79 167   76 148 199   76 148 199   76 148 199   76 148 199   72 217 231   72 217 231   72 217 231   72 217 231   69  31   7   69  31   7   69  31   7   69  31   7   65 100  39   65 100  39   65 100  39   65 100  39   61 169  71   61 169  71   61 169  71   61 169  71   57 238 103   57 238 103   57 238 103   57 238 103   54  51 135   54  51 135   54  51 135   54  51 135   50 120 167   50 120 167   50 120 167   50 120 167   46 189 199   46 189 199   46 189 199   46 189 199   43   2 231   43   2 231   43   2 231   43   2 231   39  72   7   39  72   7   39  72   7   39  72   7   35 141  39   35 141  39   35 141  39   35 141  39   31 210  71   31 210  71   31 210  71   31 210  71   28  23 103   28  23 103   28  23 103   28  23 103   24  92 135   24  92 135   24  92 135   24  92 135   20 161 167   20 161 167   20 161 167   20 161 167   16 230 199   16 230 199   16 230 199   16 230 199   13  43 231   13  43 231   13  43 231   13  43 231    9 113   7    9 113   7    9 113   7    9 113   7    5 182  39    5 182  39    5 182  39    5 182  39    1 251  71    1 251  71    1 251  71    1 251  71
    1  12 143    1  12 143    1  12 143    1  12 143  113 225 135  113 225 135  113 225 135  113 225 135  110  38 167  110  38 167  110  38 167  110  38 167  106 107 199  106 107 199  106 107 199  106 107 199  102 176 231  102 176 231  102 176 231  102 176 231   98 246   7   98 246   7   98 246   7   98 246   7   95  59  39   95  59  39   95  59  39   95  59  39   91 128  71   91 128  71   91 128  71   91 128  71   87 197 103   87 197 103   87 197 103   87 197 103   84  10 135   84  10 135   84  10 135   84  10 135   80  79 167   80  79 167   80  79 167   80  79 167   76 148 199   76 148 199   76 148 199   76 148 199   72 217 231   72 217 231   72 217 231   72 217 231   69  31   7   69  31   7   69  31   7   69  31   7   65 100  39   65 100  39   65 100  39   65 100  39   61 169  71   61 169  71   61 169  71   61 169  71   57 238 103   57 238 103   57 238 103   57 238 103   54  51 135   54  51 135   54  51 135   54  51 135   50 120 167   50 120 167   50 120 167   50 120 167   46 189 199   46 189 199   46 189 199   46 189 199   43   2 231   43   2 231   43   2 231   43   2 231   39  72   7   39  72   7   39  72   7   39  72   7   35 141  39   35 141  39   35 141  39   35 141  39   31 210  71   31 210  71   31 210  71   31 210  71   28  23 103   28  23 103   28  23 103   28  23 103   24  92 135   24  92 135   24  92 135   24  92 135   20 161 167   20 161 167   20 161 167   20 161 167   16 230 199   16 230 199   16 230 199   16 230 199   13  43 231   13  43 231   13  43 231   13  43 231    9 113   7    9 113   7    9 113   7    9 113   7    5 182  39    5 182  39    5 182  39    5 182  39    1 251  71    1 251  71    1 251  71    1 251  71
    1  42 102    1  42 102    1  42 102    1  42 102  113 255  94  113 255  94  113 255  94  113 255  94  110  68 126  110  68 126  110  68 126  110  68 126  106 137 158  106 137 158  106 137 158  106 137 158  102 206 190  102 206 190  102 206 190  102 206 190   99  19 222   99  19 222   99  19 222   99  19 222   95  88 254   95  88 254   95  88 254   95  88 254   91 158  30   91 158  30   91 158  30   91 158  30   87 227  62   87 227  62   87 227  62   87 227  62   84  40  94   84  40  94   84  40  94   84  40  94   80 109 126   80 109 126   80 109 126   80 109 126   76 178 158   76 178 158   76 178 158   76 178 158   72 247 190   72 247 190   72 247 190   72 247 190   69  60 222   69  60 222   69  60 222   69  60 222   65 129 254   65 129 254   65 129 254   65 129 254   61 199  30   61 199  30   61 199  30   61 199  30   58  12  62   58  12  62   58  12  62   58  12  62   54  81  94   54  81  94   54  81  94   54  81  94   50 150 126   50 150 126   50 150 126   50 150 126   46 219 158   46 219 158   46 219 158   46 219 158   43  32 190   43  32 190   43  32 190   43  32 190   39 101 222   39 101 222   39 101 222   39 101 222   35 170 254   35 170 254   35 170 254   35 170 254   31 240  30   31 240  30   31 240  30   31 240  30   28  53  62   28  53  62   28  53  62   28  53  62   24 122  94   24 122  94   24 122  94   24 122  94   20 191 126   20 191 126   20 191 126   20 191 126   17   4 158   17   4 158   17   4 158   17   4 158   13  73 190   13  73 190   13  73 190   13  73 190    9 142 222    9 142 222    9 142 222    9 142 222    5 211 254    5 211 254    5 211 254    5 211 254    2  25  30    2  25  30    2  25  30    2  25  30
    1  42 102    1  42 102    1  42 102    1  42 102  113 255  94  113 255  94  113 255  94  113 255  94  110  68 126  110  68 126  110  68 126  110  68 126  106 137 158  106 137 158  106 137 158  106 137 158  102 206 190  102 206 190  102 206 190  102 206 190   99  19 222   99  19 222   99  19 222   99  19 222   95  88 254   95  88 254   95  88 254   95  88 254   91 158  30   91 158  30   91 158  30   91 158  30   87 227  62   87 227  62   87 227  62   87 227  62   84  40  94   84  40  94   84  40  94   84  40  94   80 109 126   80 109 126   80 109 126   80 109 126   76 178 158   76 178 158   76 178 158   76 178 158   72 247 190   72 247 190   72 247 190   72 247 190   69  60 222   69  60 222   69  60 222   69  60 222   65 129 254   65 129 254   65 129 254   65 129 254   61 199  30   61 199  30   61 199  30   61 199  30   58  12  62   58  12  62   58  12  62   58  12  62   54  81  94   54  81  94   54  81  94   54  81  94   50 150 126   50 150 126   50 150 126   50 150 126   46 219 158   46 219 158   46 219 158   46 219 158   43  32 190   43  32 190   43  32 190   43  32 190   39 101 222   39 101 222   39 101 222   39 101 222   35 170 254   35 170 254   35 170 254   35 170 254   31 240  30   31 240  30   31 240  30   31 240  30   28  53  62   28  53  62   28  53  62   28  53  62   24 122  94   24 122  94   24 122  94   24 122  94   20 191 126   20 191 126   20 191 126   20 191 126   17   4 158   17   4 158   17   4 158   17   4 158   13  73 190   13  73 190   13  73 190   13  73 190    9 142 222    9 142 222    9 142 222    9 142 222    5 211 254    5 211 254    5 211 254    5 211 254    2  25  30    2  25  30    2  25  30    2  25  30
    1  42 102    1  42 102    1  42 102    1  42 102  113 255  94  113 255  94  113 255  94  113 255  94  110  68 126  110  68 126  110  68 126  110  68 126  106 137 158  106 137 158  106 137 158  106 137 158  102 206 190  102 206 190  102 206 190  102 206 190   99  19 222   99  19 222   99  19 222   99  19 222   95  88 254   95  88 254   95  88 254   95  88 254   91 158  30   91 158  30   91 158  30   91 158  30   87 227  62   87 227  62   87 227  62   87 227  62   84  40  94   84  40  94   84  40  94   84  40  94   80 109 126   80 109 126   80 109 126   80 109 126   76 178 158   76 178 158   76 178 158   76 178 158   72 247 190   72 247 190   72 247 190   72 247 190   69  60 222   69  60 222   69  60 222   69  60 222   65 129 254   65 129 254   65 129 254   65 129 254   61 199  30   61 199  30   61 199  30   61 199  30   58  12  62   58  12  62   58  12  62   58  12  62   54  81  94   54  81  94   54  81  94   54  81  94   50 150 126   50 150 126   50 150 126   50 150 126   46 219 158   46 219 158   46 219 158   46 219 158   43  32 190   43  32 190   43  32 190   43  32 190   39 101 222   39 101 222   39 101 222   39 101 222   35 170 254   35 170 254   35 170 254   35 170 254   31 240  30   31 240  30   31 240  30   31 240  30   28  53  62   28  53  62   28  53  62   28  53  62   24 122  94   24 122  94   24 122  94   24 122  94   20 191 126   20 191 126   20 191 126   20 191 126   17   4 158   17   4 158   17   4 158   17   4 158   13  73 190   13  73 190   13  73 190   13  73 190    9 142 222    9 142 222    9 142 222    9 142 222    5 211 254    5 211 254    5 211 254    5 211 254    2  25  30    2  25  30    2  25  30    2  25  30
    1  42 102    1  42 102    1  42 102    1  42 102  113 255  94  113 255  94  113 255  94  113 255  94  110  68 126  110  68 126  110  68 126  110  68 126  106 137 158  106 137 158  106 137 158  106 137 158  102 206 190  102 206 190  102 206 190  102 206 190   99  19 222   99  19 222   99  19 222   99  19 222   95  88 254   95  88 254   95  88 254   95  88 254   91 158  30   91 158  30   91 158  30   91 158  30   87 227  62   87 227  62   87 227  62   87 227  62   84  40  94   84  40  94   84  40  94   84  40  94   80 109 126   80 109 126   80 109 126   80 109 126   76 178 158   76 178 158   76 178 158   76 178 158   72 247 190   72 247 190   72 247 190   72 247 190   69  60 222   69  60 222   69  60 222   69  60 222   65 129 254   65 129 254   65 129 254   65 129 254   61 199  30   61 199  30   61 199  30   61 199  30   58  12  62   58  12  62   58  12  62   58  12  62   54  81  94   54  81  94   54  81  94   54  81  94   50 150 126   50 150 126   50 150 126   50 150 126   46 219 158   46 219 158   46 219 158   46 219 158   43  32 190   43  32 190   43  32 190   43  32 190   39 101 222   39 101 222   39 101 222   39 101 222   35 170 254   35 170 254   35 170 254   35 170 254   31 240  30   31 240  30   31 240  30   31 240  30   28  53  62   28  53  62   28  53  62   28  53  62   24 122  94   24 122  94   24 122  94   24 122  94   20 191 126   20 191 126   20 191 126   20 191 126   17   4 158   17   4 158   17   4 158   17   4 158   13  73 190   13  73 190   13  73 190   13  73 190    9 142 222    9 142 222    9 142 222    9 142 222    5 211 254    5 211 254    5 211 254    5 211 254    2  25  30    2  25  30    2  25  30    2  25  30
    1  72  61    1  72  61    1  72  61    1  72  61  114  29  53  114  29  53  114  29  53  114  29  53  110  98  85  110  98  85  110  98  85  110  98  85  106 167 117  106 167 117  106 167 117  106 167 117  102 236 149  102 236 149  102 236 149  102 236 149   99  49 181   99  49 181   99  49 181   99  49 181   95 118 213   95 118 213   95 118 213   95 118 213   91 187 245   91 187 245   91 187 245   91 187 245   88   1  21   88   1  21   88   1  21   88   1  21   84  70  53   84  70  53   84  70  53   84  70  53   80 139  85   80 139  85   80 139  85   80 139  85   76 208 117   76 208 117   76 208 117   76 208 117   73  21 149   73  21 149   73  21 149   73  21 149   69  90 181   69  90 181   69  90 181   69  90 181   65 159 213   65 159 213   65 159 213   65 159 213   61 228 245   61 228 245   61 228 245   61 228 245   58  42  21   58  42  21   58  42  21   58  42  21   54 111  53   54 111  53   54 111  53   54 111  53   50 180  85   50 180  85   50 180  85   50 180  85   46 249 117   46 249 117   46 249 117   46 249 117   43  62 149   43  62 149   43  62 149   43  62 149   39 131 181   39 131 181   39 131 181   39 131 181   35 200 213   35 200 213   35 200 213   35 200 213   32  13 245   32  13 245   32  13 245   32  13 245   28  83  21   28  83  21   28  83  21   28  83  21   24 152  53   24 152  53   24 152  53   24 152  53   20 221  85   20 221  85   20 221  85   20 221  85   17  34 117   17  34 117   17  34 117   17  34 117   13 103 149   13 103 149   13 103 149   13 103 149    9 172 181    9 172 181    9 172 181    9 172 181    5 241 213    5 241 213    5 241 213    5 241 213    2  54 245    2  54 245    2  54 245    2  54 245
    1  72  61    1  72  61    1  72  61    1  72  61  114  29  53  114  29  53  114  29  53  114  29  53  110  98  85  110  98  85  110  98  85  110  98  85  106 167 117  106 167 117  106 167 117  106 167 117  102 236 149  102 236 149  102 236 149  102 236 149   99  49 181   99  49 181   99  49 181   99  49 181   95 118 213   95 118 213   95 118 213   95 118 213   91 187 245   91 187 245   91 187 245   91 187 245   88   1  21   88   1  21   88   1  21   88   1  21   84  70  53   84  70  53   84  70  53   84  70  53   80 139  85   80 139  85   80 139  85   80 139  85   76 208 117   76 208 117   76 208 117   76 208 117   73  21 149   73  21 149   73  21 149   73  21 149   69  90 181   69  90 181   69  90 181   69  90 181   65 159 213   65 159 213   65 159 213   65 159 213   61 228 245   61 228 245   61 228 245   61 228 245   58  42  21   58  42  21   58  42  21   58  42  21   54 111  53   54 111  53   54 111  53   54 111  53   50 180  85   50 180  85   50 180  85   50 180  85   46 249 117   46 249 117   46 249 117   46 249 117   43  62 149   43  62 149   43  62 149   43  62 149   39 131 181   39 131 181   39 131 181   39 131 181   35 200 213   35 200 213   35 200 213   35 200 213   32  13 245   32  13 245   32  13 245   32  13 245   28  83  21   28  83  21   28  83  21   28  83  21   24 152  53   24 152  53   24 152  53   24 152  53   20 221  85   20 221  85   20 221  85   20 221  85   17  34 117   17  34 117   17  34 117   17  34 117   13 103 149   13 103 149   13 103 149   13 103 149    9 172 181    9 172 181    9 172 181    9 172 181    5 241 213    5 241 213    5 241 213    5 241 213    2  54 245    2  54 245    2  54 245    2  54 245
    1  72  61    1  72  61    1  72  61    1  72  61  114  29  53  114  29  53  114  29  53  114  29  53  110  98  85  110  98  85  110  98  85  110  98  85  106 167 117  106 167 117  106 167 117  106 167 117  102 236 149  102 236 149  102 236 149  102 236 149   99  49 181   99  49 181   99  49 181   99  49 181   95 118 213   95 118 213   95 118 213   95 118 213   91 187 245   91 187 245   91 187 245   91 187 245   88   1  21   88   1  21   88   1  21   88   1  21   84  70  53   84  70  53   84  70  53   84  70  53   80 139  85   80 139  85   80 139  85   80 139  85   76 208 117   76 208 117   76 208 117   76 208 117   73  21 149   73  21 149   73  21 149   73  21 149   69  90 181   69  90 181   69  90 181   69  90 181   65 159 213   65 159 213   65 159 213   65 159 213   61 228 245   61 228 245   61 228 245   61 228 245   58  42  21   58  42  21   58  42  21   58  42  21   54 111  53   54 111  53   54 111  53   54 111  53   50 180  85   50 180  85   50 180  85   50 180  85   46 249 117   46 249 117   46 249 117   46 249 117   43  62 149   43  62 149   43  62 149   43  62 149   39 131 181   39 131 181   39 131 181   39 131 181   35 200 213   35 200 213   35 200 213   35 200 213   32  13 245   32  13 245   32  13 245   32  13 245   28  83  21   28  83  21   28  83  21   28  83  21   24 152  53   24 152  53   24 152  53   24 152  53   20 221  85   20 221  85   20 221  85   20 221  85   17  34 117   17  34 117   17  34 117   17  34 117   13 103 149   13 103 149   13 103 149   13 103 149    9 172 181    9 172 181    9 172 181    9 172 181    5 241 213    5 241 213    5 241 213    5 241 213    2  54 245    2  54 245    2  54 245    2  54 245
    1  72  61    1  72  61    1  72  61    1  72  61  114  29  53  114  29  53  114  29  53  114  29  53  110  98  85  110  98  85  110  98  85  110  98  85  106 167 117  106 167 117  106 167 117  106 167 117  102 236 149  102 236 149  102 236 149  102 236 149   99  49 181   99  49 181   99  49 181   99  49 181   95 118 213   95 118 213   95 118 213   95 118 213   91 187 245   91 187 245   91 187 245   91 187 245   88   1  21   88   1  21   88   1  21   88   1  21   84  70  53   84  70  53   84  70  53   84  70  53   80 139  85   80 139  85   80 139  85   80 139  85   76 208 117   76 208 117   76 208 117   76 208 117   73  21 149   73  21 149   73  21 149   73  21 149   69  90 181   69  90 181   69  90 181   69  90 181   65 159 213   65 159 213   65 159 213   65 159 213   61 228 245   61 228 245   61 228 245   61 228 245   58  42  21   58  42  21   58  42  21   58  42  21   54 111  53   54 111  53   54 111  53   54 111  53   50 180  85   50 180  85   50 180  85   50 180  85   46 249 117   46 249 117   46 249 117   46 249 117   43  62 149   43  62 149   43  62 149   43  62 149   39 131 181   39 131 181   39 131 181   39 131 181   35 200 213   35 200 213   35 200 213   35 200 213   32  13 245   32  13 245   32  13 245   32  13 245   28  83  21   28  83  21   28  83  21   28  83  21   24 152  53   24 152  53   24 152  53   24 152  53   20 221  85   20 221  85   20 221  85   20 221  85   17  34 117   17  34 117   17  34 117   17  34 117   13 103 149   13 103 149   13 103 149   13 103 149    9 172 181    9 172 181    9 172 181    9 172 181    5 241 213    5 241 213    5 241 213    5 241 213    2  54 245    2  54 245    2  54 245    2  54 245
    1 102  20    1 102  20    1 102  20    1 102  20  114  59  12  114  59  12  114  59  12  114  59  12  110 128  44  110 128  44  110 128  44  110 128  44  106 197  76  106 197  76  106 197  76  106 197  76  103  10 108  103  10 108  103  10 108  103  10 108   99  79 140   99  79 140   99  79 140   99  79 140   95 148 172   95 148 172   95 148 172   95 148 172   91 217 204   91 217 204   91 217 204   91 217 204   88  30 236   88  30 236   88  30 236   88  30 236   84 100  12   84 100  12   84 100  12   84 100  12   80 169  44   80 169  44   80 169  44   80 169  44   76 238  76   76 238  76   76 238  76   76 238  76   73  51 108   73  51 108   73  51 108   73  51 108   69 120 140   69 120 140   69 120 140   69 120 140   65 189 172   65 189 172   65 189 172   65 189 172   62   2 204   62   2 204   62   2 204   62   2 204   58  71 236   58  71 236   58  71 236   58  71 236   54 141  12   54 141  12   54 141  12   54 141  12   50 210  44   50 210  44   50 210  44   50 210  44   47  23  76   47  23  76   47  23  76   47  23  76   43  92 108   43  92 108   43  92 108   43  92 108   39 161 140   39 161 140   39 161 140   39 161 140   35 230 172   35 230 172   35 230 172   35 230 172   32  43 204   32  43 204   32  43 204   32  43 204   28 112 236   28 112 236   28 112 236   28 112 236   24 182  12   24 182  12   24 182  12   24 182  12   20 251  44   20 251  44   20 251  44   20 251  44   17  64  76   17  64  76   17  64  76   17  64  76   13 133 108   13 133 108   13 133 108   13 133 108    9 202 140    9 202 140    9 202 140    9 202 140    6  15 172    6  15 172    6  15 172    6  15 172    2  84 204    2  84 204    2  84 204    2  84 204
    1 102  20    1 102  20    1 102  20    1 102  20  114  59  12  114  59  12  114  59  12  114  59  12  110 128  44  110 128  44  110 128  44  110 128  44  106 197  76  106 197  76  106 197  76  106 197  76  103  10 108  103  10 108  103  10 108  103  10 108   99  79 140   99  79 140   99  79 140   99  79 140   95 148 172   95 148 172   95 148 172   95 148 172   91 217 204   91 217 204   91 217 204   91 217 204   88  30 236   88  30 236   88  30 236   88  30 236   84 100  12   84 100  12   84 100  12   84 100  12   80 169  44   80 169  44   80 169  44   80 169  44   76 238  76   76 238  76   76 238  76   76 238  76   73  51 108   73  51 108   73  51 108   73  51 108   69 120 140   69 120 140   69 120 140   69 120 140   65 189 172   65 189 172   65 189 172   65 189 172   62   2 204   62   2 204   62   2 204   62   2 204   58  71 236   58  71 236   58  71 236   58  71 236   54 141  12   54 141  12   54 141  12   54 141  12   50 210  44   50 210  44   50 210  44   50 210  44   47  23  76   47  23  76   47  23  76   47  23  76   43  92 108   43  92 108   43  92 108   43  92 108   39 161 140   39 161 140   39 161 140   39 161 140   35 230 172   35 230 172   35 230 172   35 230 172   32  43 204   32  43 204   32  43 204   32  43 204   28 112 236   28 112 236   28 112 236   28 112 236   24 182  12   24 182  12   24 182  12   24 182  12   20 251  44   20 251  44   20 251  44   20 251  44   17  64  76   17  64  76   17  64  76   17  64  76   13 133 108   13 133 108   13 133 108   13 133 108    9 202 140    9 202 140    9 202 140    9 202 140    6  15 172    6  15 172    6  15 172    6  15 172    2  84 204    2  84 204    2  84 204    2  84 204
    1 102  20    1 102  20    1 102  20    1 102  20  114  59  12  114  59  12  114  59  12  114  59  12  110 128  44  110 128  44  110 128  44  110 128  44  106 197  76  106 197  76  106 197  76  106 197  76  103  10 108  103  10 108  103  10 108  103  10 108   99  79 140   99  79 140   99  79 140   99  79 140   95 148 172   95 148 172   95 148 172   95 148 172   91 217 204   91 217 204   91 217 204   91 217 204   88  30 236   88  30 236   88  30 236   88  30 236   84 100  12   84 100  12   84 100  12   84 100  12   80 169  44   80 169  44   80 169  44   80 169  44   76 238  76   76 238  76   76 238  76   76 238  76   73  51 108   73  51 108   73  51 108   73  51 108   69 120 140   69 120 140   69 120 140   69 120 140   65 189 172   65 189 172   65 189 172   65 189 172   62   2 204   62   2 204   62   2 204   62   2 204   58  71 236   58  71 236   58  71 236   58  71 236   54 141  12   54 141  12   54 141  12   54 141  12   50 210  44   50 210  44   50 210  44   50 210  44   47  23  76   47  23  76   47  23  76   47  23  76   43  92 108   43  92 108   43  92 108   43  92 108   39 161 140   39 161 140   39 161 140   39 161 140   35 230 172   35 230 172   35 230 172   35 230 172   32  43 204   32  43 204   32  43 204   32  43 204   28 112 236   28 112 236   28 112 236   28 112 236   24 182  12   24 182  12   24 182  12   24 182  12   20 251  44   20 251  44   20 251  44   20 251  44   17  64  76   17  64  76   17  64  76   17  64  76   13 133 108   13 133 108   13 133 108   13 133 108    9 202 140    9 202 140    9 202 140    9 202 140    6  15 172    6  15 172    6  15 172    6  15 172    2  84 204    2  84 204    2  84 204    2  84 204
    1 102  20    1 102  20    1 102  20    1 102  20  114  59  12  114  59  12  114  59  12  114  59  12  110 128  44  110 128  44  110 128  44  110 128  44  106 197  76  106 197  76  106 197  76  106 197  76  103  10 108  103  10 108  103  10 108  103  10 108   99  79 140   99  79 140   99  79 140   99  79 140   95 148 172   95 148 172   95 148 172   95 148 172   91 217 204   91 217 204   91 217 204   91 217 204   88  30 236   88  30 236   88  30 236   88  30 236   84 100  12   84 100  12   84 100  12   84 100  12   80 169  44   80 169  44   80 169  44   80 169  44   76 238  76   76 238  76   76 238  76   76 238  76   73  51 108   73  51 108   73  51 108   73  51 108   69 120 140   69 120 140   69 120 140   69 120 140   65 189 172   65 189 172   65 189 172   65 189 172   62   2 204   62   2 204   62   2 204   62   2 204   58  71 236   58  71 236   58  71 236   58  71 236   54 141  12   54 141  12   54 141  12   54 141  12   50 210  44   50 210  44   50 210  44   50 210  44   47  23  76   47  23  76   47  23  76   47  23  76   43  92 108   43  92 108   43  92 108   43  92 108   39 161 140   39 161 140   39 161 140   39 161 140   35 230 172   35 230 172   35 230 172   35 230 172   32  43 204   32  43 204   32  43 204   32  43 204   28 112 236   28 112 236   28 112 236   28 112 236   24 182  12   24 182  12   24 182  12   24 182  12   20 251  44   20 251  44   20 251  44   20 251  44   17  64  76   17  64  76   17  64  76   17  64  76   13 133 108   13 133 108   13 133 108   13 133 108    9 202 140    9 202 140    9 202 140    9 202 140    6  15 172    6  15 172    6  15 172    6  15 172    2  84 204    2  84 204    2  84 204    2  84 204
    1 131 235    1 131 235    1 131 235    1 131 235  114  88 227  114  88 227  114  88 227  114  88 227  110 158   3  110 158   3  110 158   3  110 158   3  106 227  35  106 227  35  106 227  35  106 227  35  103  40  67  103  40  67  103  40  67  103  40  67   99 109  99   99 109  99   99 109  99   99 109  99   95 178 131   95 178 131   95 178 131   95 178 131   91 247 163   91 247 163   91 247 163   91 247 163   88  60 195   88  60 195   88  60 195   88  60 195   84 129 227   84 129 227   84 129 227   84 129 227   80 199   3   80 199   3   80 199   3   80 199   3   77  12  35   77  12  35   77  12  35   77  12  35   73  81  67   73  81  67   73  81  67   73  81  67   69 150  99   69 150  99   69 150  99   69 150  99   65 219 131   65 219 131   65 219 131   65 219 131   62  32 163   62  32 163   62  32 163   62  32 163   58 101 195   58 101 195   58 101 195   58 101 195   54 170 227   54 170 227   54 170 227   54 170 227   50 240   3   50 240   3   50 240   3   50 240   3   47  53  35   47  53  35   47  53  35   47  53  35   43 122  67   43 122  67   43 122  67   43 122  67   39 191  99   39 191  99   39 191  99   39 191  99   36   4 131   36   4 131   36   4 131   36   4 131   32  73 163   32  73 163   32  73 163   32  73 163   28 142 195   28 142 195   28 142 195   28 142 195   24 211 227   24 211 227   24 211 227   24 211 227   21  25   3   21  25   3   21  25   3   21  25   3   17  94  35   17  94  35   17  94  35   17  94  35   13 163  67   13 163  67   13 163  67   13 163  67    9 232  99    9 232  99    9 232  99    9 232  99    6  45 131    6  45 131    6  45 131    6  45 131    2 114 163    2 114 163    2 114 163    2 114 163
    1 131 235    1 131 235    1 131 235    1 131 235  114  88 227  114  88 227  114  88 227  114  88 227  110 158   3  110 158   3  110 158   3  110 158   3  106 227  35  106 227  35  106 227  35  106 227  35  103  40  67  103  40  67  103  40  67  103  40  67   99 109  99   99 109  99   99 109  99   99 109  99   95 178 131   95 178 131   95 178 131   95 178 131   91 247 163   91 247 163   91 247 163   91 247 163   88  60 195   88  60 195   88  60 195   88  60 195   84 129 227   84 129 227   84 129 227   84 129 227   80 199   3   80 199   3   80 199   3   80 199   3   77  12  35   77  12  35   77  12  35   77  12  35   73  81  67   73  81  67   73  81  67   73  81  67   69 150  99   69 150  99   69 150  99   69 150  99   65 219 131   65 219 131   65 219 131   65 219 131   62  32 163   62  32 163   62  32 163   62  32 163   58 101 195   58 101 195   58 101 195   58 101 195   54 170 227   54 170 227   54 170 227   54 170 227   50 240   3   50 240   3   50 240   3   50 240   3   47  53  35   47  53  35   47  53  35   47  53  35   43 122  67   43 122  67   43 122  67   43 122  67   39 191  99   39 191  99   39 191  99   39 191  99   36   4 131   36   4 131   36   4 131   36   4 131   32  73 163   32  73 163   32  73 163   32  73 163   28 142 195   28 142 195   28 142 195   28 142 195   24 211 227   24 211 227   24 211 227   24 211 227   21  25   3   21  25   3   21  25   3   21  25   3   17  94  35   17  94  35   17  94  35   17  94  35   13 163  67   13 163  67   13 163  67   13 163  67    9 232  99    9 232  99    9 232  99    9 232  99    6  45 131    6  45 131    6  45 131    6  45 131    2 114 163    2 114 163    2 114 163    2 114 163
    1 131 235    1 131 235    1 131 235    1 131 235  114  88 227  114  88 227  114  88 227  114  88 227  110 158   3  110 158   3  110 158   3  110 158   3  106 227  35  106 227  35  106 227  35  106 227  35  103  40  67  103  40  67  103  40  67  103  40  67   99 109  99   99 109  99   99 109  99   99 109  99   95 178 131   95 178 131   95 178 131   95 178 131   91 247 163   91 247 163   91 247 163   91 247 163   88  60 195   88  60 195   88  60 195   88  60 195   84 129 227   84 129 227   84 129 227   84 129 227   80 199   3   80 199   3   80 199   3   80 199   3   77  12  35   77  12  35   77  12  35   77  12  35   73  81  67   73  81  67   73  81  67   73  81  67   69 150  99   69 150  99   69 150  99   69 150  99   65 219 131   65 219 131   65 219 131   65 219 131   62  32 163   62  32 163   62  32 163   62  32 163   58 101 195   58 101 195   58 101 195   58 101 195   54 170 227   54 170 227   54 170 227   54 170 227   50 240   3   50 240   3   50 240   3   50 240   3   47  53  35   47  53  35   47  53  35   47  53  35   43 122  67   43 122  67   43 122  67   43 122  67   39 191  99   39 191  99   39 191  99   39 191  99   36   4 131   36   4 131   36   4 131   36   4 131   32  73 163   32  73 163   32  73 163   32  73 163   28 142 195   28 142 195   28 142 195   28 142 195   24 211 227   24 211 227   24 211 227   24 211 227   21  25   3   21  25   3   21  25   3   21  25   3   17  94  35   17  94  35   17  94  35   17  94  35   13 163  67   13 163  67   13 163  67   13 163  67    9 232  99    9 232  99    9 232  99    9 232  99    6  45 131    6  45 131    6  45 131    6  45 131    2 114 163    2 114 163    2 114 163    2 114 163
    1 131 235    1 131 235    1 131 235    1 131 235  114  88 227  114  88 227  114  88 227  114  88 227  110 158   3  110 158   3  110 158   3  110 158   3  106 227  35  106 227  35  106 227  35  106 227  35  103  40  67  103  40  67  103  40  67  103  40  67   99 109  99   99 109  99   99 109  99   99 109  99   95 178 131   95 178 131   95 178 131   95 178 131   91 247 163   91 247 163   91 247 163   91 247 163   88  60 195   88  60 195   88  60 195   88  60 195   84 129 227   84 129 227   84 129 227   84 129 227   80 199   3   80 199   3   80 199   3   80 199   3   77  12  35   77  12  35   77  12  35   77  12  35   73  81  67   73  81  67   73  81  67   73  81  67   69 150  99   69 150  99   69 150  99   69 150  99   65 219 131   65 219 131   65 219 131   65 219 131   62  32 163   62  32 163   62  32 163   62  32 163   58 101 195   58 101 195   58 101 195   58 101 195   54 170 227   54 170 227   54 170 227   54 170 227   50 240   3   50 240   3   50 240   3   50 240   3   47  53  35   47  53  35   47  53  35   47  53  35   43 122  67   43 122  67   43 122  67   43 122  67   39 191  99   39 191  99   39 191  99   39 191  99   36   4 131   36   4 131   36   4 131   36   4 131   32  73 163   32  73 163   32  73 163   32  73 163   28 142 195   28 142 195   28 142 195   28 142 195   24 211 227   24 211 227   24 211 227   24 211 227   21  25   3   21  25   3   21  25   3   21  25   3   17  94  35   17  94  35   17  94  35   17  94  35   13 163  67   13 163  67   13 163  67   13 163  67    9 232  99    9 232  99    9 232  99    9 232  99    6  45 131    6  45 131    6  45 131    6  45 131    2 114 163    2 114 163    2 114 163    2 114 163
    1 161 194    1 161 194    1 161 194    1 161 194  114 118 186  114 118 186  114 118 186  114 118 186  110 187 218  110 187 218  110 187 218  110 187 218  107   0 250  107   0 250  107   0 250  107   0 250  103  70  26  103  70  26  103  70  26  103  70  26   99 139  58   99 139  58   99 139  58   99 139  58   95 208  90   95 208  90   95 208  90   95 208  90   92  21 122   92  21 122   92  21 122   92  21 122   88  90 154   88  90 154   88  90 154   88  90 154   84 159 186   84 159 186   84 159 186   84 159 186   80 228 218   80 228 218   80 228 218   80 228 218   77  41 250   77  41 250   77  41 250   77  41 250   73 111  26   73 111  26   73 111  26   73 111  26   69 180  58   69 180  58   69 180  58   69 180  58   65 249  90   65 249  90   65 249  90   65 249  90   62  62 122   62  62 122   62  62 122   62  62 122   58 131 154   58 131 154   58 131 154   58 131 154   54 200 186   54 200 186   54 200 186   54 200 186   51  13 218   51  13 218   51  13 218   51  13 218   47  82 250   47  82 250   47  82 250   47  82 250   43 152  26   43 152  26   43 152  26   43 152  26   39 221  58   39 221  58   39 221  58   39 221  58   36  34  90   36  34  90   36  34  90   36  34  90   32 103 122   32 103 122   32 103 122   32 103 122   28 172 154   28 172 154   28 172 154   28 172 154   24 241 186   24 241 186   24 241 186   24 241 186   21  54 218   21  54 218   21  54 218   21  54 218   17 123 250   17 123 250   17 123 250   17 123 250   13 193  26   13 193  26   13 193  26   13 193  26   10   6  58   10   6  58   10   6  58   10   6  58    6  75  90    6  75  90    6  75  90    6  75  90    2 144 122    2 144 122    2 144 122    2 144 122
    1 161 194    1 161 194    1 161 194    1 161 194  114 118 186  114 118 186  114 118 186  114 118 186  110 187 218  110 187 218  110 187 218  110 187 218  107   0 250  107   0 250  107   0 250  107   0 250  103  70  26  103  70  26  103  70  26  103  70  26   99 139  58   99 139  58   99 139  58   99 139  58   95 208  90   95 208  90   95 208  90   95 208  90   92  21 122   92  21 122   92  21 122   92  21 122   88  90 154   88  90 154   88  90 154   88  90 154   84 159 186   84 159 186   84 159 186   84 159 186   80 228 218   80 228 218   80 228 218   80 228 218   77  41 250   77  41 250   77  41 250   77  41 250   73 111  26   73 111  26   73 111  26   73 111  26   69 180  58   69 180  58   69 180  58   69 180  58   65 249  90   65 249  90   65 249  90   65 249  90   62  62 122   62  62 122   62  62 122   62  62 122   58 131 154   58 131 154   58 131 154   58 131 154   54 200 186   54 200 186   54 200 186   54 200 186   51  13 218   51  13 218   51  13 218   51  13 218   47  82 250   47  82 250   47  82 250   47  82 250   43 152  26   43 152  26   43 152  26   43 152  26   39 221  58   39 221  58   39 221  58   39 221  58   36  34  90   36  34  90   36  34  90   36  34  90   32 103 122   32 103 122   32 103 122   32 103 122   28 172 154   28 172 154   28 172 154   28 172 154   24 241 186   24 241 186   24 241 186   24 241 186   21  54 218   21  54 218   21  54 218   21  54 218   17 123 250   17 123 250   17 123 250   17 123 250   13 193  26   13 193  26   13 193  26   13 193  26   10   6  58   10   6  58   10   6  58   10   6  58    6  75  90    6  75  90    6  75  90    6  75  90    2 144 122    2 144 122    2 144 122    2 144 122
    1 161 194    1 161 194    1 161 194    1 161 194  114 118 186  114 118 186  114 118 186  114 118 186  110 187 218  110 187 218  110 187 218  110 187 218  107   0 250  107   0 250  107   0 250  107   0 250  103  70  26  103  70  26  103  70  26  103  70  26   99 139  58   99 139  58   99 139  58   99 139  58   95 208  90   95 208  90   95 208  90   95 208  90   92  21 122   92  21 122   92  21 122   92  21 122   88  90 154   88  90 154   88  90 154   88  90 154   84 159 186   84 159 186   84 159 186   84 159 186   80 228 218   80 228 218   80 228 218   80 228 218   77  41 250   77  41 250   77  41 250   77  41 250   73 111  26   73 111  26   73 111  26   73 111  26   69 180  58   69 180  58   69 180  58   69 180  58   65 249  90   65 249  90   65 249  90   65 249  90   62  62 122   62  62 122   62  62 122   62  62 122   58 131 154   58 131 154   58 131 154   58 131 154   54 200 186   54 200 186   54 200 186   54 200 186   51  13 218   51  13 218   51  13 218   51  13 218   47  82 250   47  82 250   47  82 250   47  82 250   43 152  26   43 152  26   43 152  26   43 152  26   39 221  58   39 221  58   39 221  58   39 221  58   36  34  90   36  34  90   36  34  90   36  34  90   32 103 122   32 103 122   32 103 122   32 103 122   28 172 154   28 172 154   28 172 154   28 172 154   24 241 186   24 241 186   24 241 186   24 241 186   21  54 218   21  54 218   21  54 218   21  54 218   17 123 250   17 123 250   17 123 250   17 123 250   13 193  26   13 193  26   13 193  26   13 193  26   10   6  58   10   6  58   10   6  58   10   6  58    6  75  90    6  75  90    6  75  90    6  75  90    2 144 122    2 144 122    2 144 122    2 144 122
    1 161 194    1 161 194    1 161 194    1 161 194  114 118 186  114 118 186  114 118 186  114 118 186  110 187 218  110 187 218  110 187 218  110 187 218  107   0 250  107   0 250  107   0 250  107   0 250  103  70  26  103  70  26  103  70  26  103  70  26   99 139  58   99 139  58   99 139  58   99 139  58   95 208  90   95 208  90   95 208  90   95 208  90   92  21 122   92  21 122   92  21 122   92  21 122   88  90 154   88  90 154   88  90 154   88  90 154   84 159 186   84 159 186   84 159 186   84 159 186   80 228 218   80 228 218   80 228 218   80 228 218   77  41 250   77  41 250   77  41 250   77  41 250   73 111  26   73 111  26   73 111  26   73 111  26   69 180  58   69 180  58   69 180  58   69 180  58   65 249  90   65 249  90   65 249  90   65 249  90   62  62 122   62  62 122   62  62 122   62  62 122   58 131 154   58 131 154   58 131 154   58 131 154   54 200 186   54 200 186   54 200 186   54 200 186   51  13 218   51  13 218   51  13 218   51  13 218   47  82 250   47  82 250   47  82 250   47  82 250   43 152  26   43 152  26   43 152  26   43 152  26   39 221  58   39 221  58   39 221  58   39 221  58   36  34  90   36  34  90   36  34  90   36  34  90   32 103 122   32 103 122   32 103 122   32 103 122   28 172 154   28 172 154   28 172 154   28 172 154   24 241 186   24 241 186   24 241 186   24 241 186   21  54 218   21  54 218   21  54 218   21  54 218   17 123 250   17 123 250   17 123 250   17 123 250   13 193  26   13 193  26   13 193  26   13 193  26   10   6  58   10   6  58   10   6  58   10   6  58    6  75  90    6  75  90    6  75  90    6  75  90    2 144 122    2 144 122    2 144 122    2 144 122
    1 191 153    1 191 153    1 191 153    1 191 153  114 148 145  114 148 145  114 148 145  114 148 145  110 217 177  110 217 177  110 217 177  110 217 177  107  30 209  107  30 209  107  30 209  107  30 209  103  99 241  103  99 241  103  99 241  103  99 241   99 169  17   99 169  17   99 169  17   99 169  17   95 238  49   95 238  49   95 238  49   95 238  49   92  51  81   92  51  81   92  51  81   92  51  81   88 120 113   88 120 113   88 120 113   88 120 113   84 189 145   84 189 145   84 189 145   84 189 145   81   2 177   81   2 177   81   2 177   81   2 177   77  71 209   77  71 209   77  71 209   77  71 209   73 140 241   73 140 241   73 140 241   73 140 241   69 210  17   69 210  17   69 210  17   69 210  17   66  23  49   66  23  49   66  23  49   66  23  49   62  92  81   62  92  81   62  92  81   62  92  81   58 161 113   58 161 113   58 161 113   58 161 113   54 230 145   54 230 145   54 230 145   54 230 145   51  43 177   51  43 177   51  43 177   51  43 177   47 112 209   47 112 209   47 112 209   47 112 209   43 181 241   43 181 241   43 181 241   43 181 241   39 251  17   39 251  17   39 251  17   39 251  17   36  64  49   36  64  49   36  64  49   36  64  49   32 133  81   32 133  81   32 133  81   32 133  81   28 202 113   28 202 113   28 202 113   28 202 113   25  15 145   25  15 145   25  15 145   25  15 145   21  84 177   21  84 177   21  84 177   21  84 177   17 153 209   17 153 209   17 153 209   17 153 209   13 222 241   13 222 241   13 222 241   13 222 241   10  36  17   10  36  17   10  36  17   10  36  17    6 105  49    6 105  49    6 105  49    6 105  49    2 174  81    2 174  81    2 174  81    2 174  81
    1 191 153    1 191 153    1 191 153    1 191 153  114 148 145  114 148 145  114 148 145  114 148 145  110 217 177  110 217 177  110 217 177  110 217 177  107  30 209  107  30 209  107  30 209  107  30 209  103  99 241  103  99 241  103  99 241  103  99 241   99 169  17   99 169  17   99 169  17   99 169  17   95 238  49   95 238  49   95 238  49   95 238  49   92  51  81   92  51  81   92  51  81   92  51  81   88 120 113   88 120 113   88 120 113   88 120 113   84 189 145   84 189 145   84 189 145   84 189 145   81   2 177   81   2 177   81   2 177   81   2 177   77  71 209   77  71 209   77  71 209   77  71 209   73 140 241   73 140 241   73 140 241   73 140 241   69 210  17   69 210  17   69 210  17   69 210  17   66  23  49   66  23  49   66  23  49   66  23  49   62  92  81   62  92  81   62  92  81   62  92  81   58 161 113   58 161 113   58 161 113   58 161 113   54 230 145   54 230 145   54 230 145   54 230 145   51  43 177   51  43 177   51  43 177   51  43 177   47 112 209   47 112 209   47 112 209   47 112 209   43 181 241   43 181 241   43 181 241   43 181 241   39 251  17   39 251  17   39 251  17   39 251  17   36  64  49   36  64  49   36  64  49   36  64  49   32 133  81   32 133  81   32 133  81   32 133  81   28 202 113   28 202 113   28 202 113   28 202 113   25  15 145   25  15 145   25  15 145   25  15 145   21  84 177   21  84 177   21  84 177   21  84 177   17 153 209   17 153 209   17 153 209   17 153 209   13 222 241   13 222 241   13 222 241   13 222 241   10  36  17   10  36  17   10  36  17   10  36  17    6 105  49    6 105  49    6 105  49    6 105  49    2 174  81    2 174  81    2 174  81    2 174  81
    1 191 153    1 191 153    1 191 153    1 191 153  114 148 145  114 148 145  114 148 145  114 148 145  110 217 177  110 217 177  110 217 177  110 217 177  107  30 209  107  30 209  107  30 209  107  30 209  103  99 241  103  99 241  103  99 241  103  99 241   99 169  17   99 169  17   99 169  17   99 169  17   95 238  49   95 238  49   95 238  49   95 238  49   92  51  81   92  51  81   92  51  81   92  51  81   88 120 113   88 120 113   88 120 113   88 120 113   84 189 145   84 189 145   84 189 145   84 189 145   81   2 177   81   2 177   81   2 177   81   2 177   77  71 209   77  71 209   77  71 209   77  71 209   73 140 241   73 140 241   73 140 241   73 140 241   69 210  17   69 210  17   69 210  17   69 210  17   66  23  49   66  23  49   66  23  49   66  23  49   62  92  81   62  92  81   62  92  81   62  92  81   58 161 113   58 161 113   58 161 113   58 161 113   54 230 145   54 230 145   54 230 145   54 230 145   51  43 177   51  43 177   51  43 177   51  43 177   47 112 209   47 112 209   47 112 209   47 112 209   43 181 241   43 181 241   43 181 241   43 181 241   39 251  17   39 251  17   39 251  17   39 251  17   36  64  49   36  64  49   36  64  49   36  64  49   32 133  81   32 133  81   32 133  81   32 133  81   28 202 113   28 202 113   28 202 113   28 202 113   25  15 145   25  15 145   25  15 145   25  15 145   21  84 177   21  84 177   21  84 177   21  84 177   17 153 209   17 153 209   17 153 209   17 153 209   13 222 241   13 222 241   13 222 241   13 222 241   10  36  17   10  36  17   10  36  17   10  36  17    6 105  49    6 105  49    6 105  49    6 105  49    2 174  81    2 174  81    2 174  81    2 174  81
    1 191 153    1 191 153    1 191 153    1 191 153  114 148 145  114 148 145  114 148 145  114 148 145  110 217 177  110 217 177  110 217 177  110 217 177  107  30 209  107  30 209  107  30 209  107  30 209  103  99 241  103  99 241  103  99 241  103  99 241   99 169  17   99 169  17   99 169  17   99 169  17   95 238  49   95 238  49   95 238  49   95 238  49   92  51  81   92  51  81   92  51  81   92  51  81   88 120 113   88 120 113   88 120 113   88 120 113   84 189 145   84 189 145   84 189 145   84 189 145   81   2 177   81   2 177   81   2 177   81   2 177   77  71 209   77  71 209   77  71 209   77  71 209   73 140 241   73 140 241   73 140 241   73 140 241   69 210  17   69 210  17   69 210  17   69 210  17   66  23  49   66  23  49   66  23  49   66  23  49   62  92  81   62  92  81   62  92  81   62  92  81   58 161 113   58 161 113   58 161 113   58 161 113   54 230 145   54 230 145   54 230 145   54 230 145   51  43 177   51  43 177   51  43 177   51  43 177   47 112 209   47 112 209   47 112 209   47 112 209   43 181 241   43 181 241   43 181 241   43 181 241   39 251  17   39 251  17   39 251  17   39 251  17   36  64  49   36  64  49   36  64  49   36  64  49   32 133  81   32 133  81   32 133  81   32 133  81   28 202 113   28 202 113   28 202 113   28 202 113   25  15 145   25  15 145   25  15 145   25  15 145   21  84 177   21  84 177   21  84 177   21  84 177   17 153 209   17 153 209   17 153 209   17 153 209   13 222 241   13 222 241   13 222 241   13 222 241   10  36  17   10  36  17   10  36  17   10  36  17    6 105  49    6 105  49    6 105  49    6 105  49    2 174  81    2 174  81    2 174  81    2 174  81
    1 221 112    1 221 112    1 221 112    1 221 112  114 178 104  114 178 104  114 178 104  114 178 104  110 247 136  110 247 136  110 247 136  110 247 136  107  60 168  107  60 168  107  60 168  107  60 168  103 129 200  103 129 200  103 129 200  103 129 200   99 198 232   99 198 232   99 198 232   99 198 232   96  12   8   96  12   8   96  12   8   96  12   8   92  81  40   92  81  40   92  81  40   92  81  40   88 150  72   88 150  72   88 150  72   88 150  72   84 219 104   84 219 104   84 219 104   84 219 104   81  32 136   81  32 136   81  32 136   81  32 136   77 101 168   77 101 168   77 101 168   77 101 168   73 170 200   73 170 200   73 170 200   73 170 200   69 239 232   69 239 232   69 239 232   69 239 232   66  53   8   66  53   8   66  53   8   66  53   8   62 122  40   62 122  40   62 122  40   62 122  40   58 191  72   58 191  72   58 191  72   58 191  72   55   4 104   55   4 104   55   4 104   55   4 104   51  73 136   51  73 136   51  73 136   51  73 136   47 142 168   47 142 168   47 142 168   47 142 168   43 211 200   43 211 200   43 211 200   43 211 200   40  24 232   40  24 232   40  24 232   40  24 232   36  94   8   36  94   8   36  94   8   36  94   8   32 163  40   32 163  40   32 163  40   32 163  40   28 232  72   28 232  72   28 232  72   28 232  72   25  45 104   25  45 104   25  45 104   25  45 104   21 114 136   21 114 136   21 114 136   21 114 136   17 183 168   17 183 168   17 183 168   17 183 168   13 252 200   13 252 200   13 252 200   13 252 200   10  65 232   10  65 232   10  65 232   10  65 232    6 135   8    6 135   8    6 135   8    6 135   8    2 204  40    2 204  40    2 204  40    2 204  40
    1 221 112    1 221 112    1 221 112    1 221 112  114 178 104  114 178 104  114 178 104  114 178 104  110 247 136  110 247 136  110 247 136  110 247 136  107  60 168  107  60 168  107  60 168  107  60 168  103 129 200  103 129 200  103 129 200  103 129 200   99 198 232   99 198 232   99 198 232   99 198 232   96  12   8   96  12   8   96  12   8   96  12   8   92  81  40   92  81  40   92  81  40   92  81  40   88 150  72   88 150  72   88 150  72   88 150  72   84 219 104   84 219 104   84 219 104   84 219 104   81  32 136   81  32 136   81  32 136   81  32 136   77 101 168   77 101 168   77 101 168   77 101 168   73 170 200   73 170 200   73 170 200   73 170 200   69 239 232   69 239 232   69 239 232   69 239 232   66  53   8   66  53   8   66  53   8   66  53   8   62 122  40   62 122  40   62 122  40   62 122  40   58 191  72   58 191  72   58 191  72   58 191  72   55   4 104   55   4 104   55   4 104   55   4 104   51  73 136   51  73 136   51  73 136   51  73 136   47 142 168   47 142 168   47 142 168   47 142 168   43 211 200   43 211 200   43 211 200   43 211 200   40  24 232   40  24 232   40  24 232   40  24 232   36  94   8   36  94   8   36  94   8   36  94   8   32 163  40   32 163  40   32 163  40   32 163  40   28 232  72   28 232  72   28 232  72   28 232  72   25  45 104   25  45 104   25  45 104   25  45 104   21 114 136   21 114 136   21 114 136   21 114 136   17 183 168   17 183 168   17 183 168   17 183 168   13 252 200   13 252 200   13 252 200   13 252 200   10  65 232   10  65 232   10  65 232   10  65 232    6 135   8    6 135   8    6 135   8    6 135   8    2 204  40    2 204  40    2 204  40    2 204  40
    1 221 112    1 221 112    1 221 112    1 221 112  114 178 104  114 178 104  114 178 104  114 178 104  110 247 136  110 247 136  110 247 136  110 247 136  107  60 168  107  60 168  107  60 168  107  60 168  103 129 200  103 129 200  103 129 200  103 129 200   99 198 232   99 198 232   99 198 232   99 198 232   96  12   8   96  12   8   96  12   8   96  12   8   92  81  40   92  81  40   92  81  40   92  81  40   88 150  72   88 150  72   88 150  72   88 150  72   84 219 104   84 219 104   84 219 104   84 219 104   81  32 136   81  32 136   81  32 136   81  32 136   77 101 168   77 101 168   77 101 168   77 101 168   73 170 200   73 170 200   73 170 200   73 170 200   69 239 232   69 239 232   69 239 232   69 239 232   66  53   8   66  53   8   66  53   8   66  53   8   62 122  40   62 122  40   62 122  40   62 122  40   58 191  72   58 191  72   58 191  72   58 191  72   55   4 104   55   4 104   55   4 104   55   4 104   51  73 136   51  73 136   51  73 136   51  73 136   47 142 168   47 142 168   47 142 168   47 142 168   43 211 200   43 211 200   43 211 200   43 211 200   40  24 232   40  24 232   40  24 232   40  24 232   36  94   8   36  94   8   36  94   8   36  94   8   32 163  40   32 163  40   32 163  40   32 163  40   28 232  72   28 232  72   28 232  72   28 232  72   25  45 104   25  45 104   25  45 104   25  45 104   21 114 136   21 114 136   21 114 136   21 114 136   17 183 168   17 183 168   17 183 168   17 183 168   13 252 200   13 252 200   13 252 200   13 252 200   10  65 232   10  65 232   10  65 232   10  65 232    6 135   8    6 135   8    6 135   8    6 135   8    2 204  40    2 204  40    2 204  40    2 204  40
    1 221 112    1 221 112    1 221 112    1 221 112  114 178 104  114 178 104  114 178 104  114 178 104  110 247 136  110 247 136  110 247 136  110 247 136  107  60 168  107  60 168  107  60 168  107  60 168  103 129 200  103 129 200  103 129 200  103 129 200   99 198 232   99 198 232   99 198 232   99 198 232   96  12   8   96  12   8   96  12   8   96  12   8   92  81  40   92  81  40   92  81  40   92  81  40   88 150  72   88 150  72   88 150  72   88 150  72   84 219 104   84 219 104   84 219 104   84 219 104   81  32 136   81  32 136   81  32 136   81  32 136   77 101 168   77 101 168   77 101 168   77 101 168   73 170 200   73 170 200   73 170 200   73 170 200   69 239 232   69 239 232   69 239 232   69 239 232   66  53   8   66  53   8   66  53   8   66  53   8   62 122  40   62 122  40   62 122  40   62 122  40   58 191  72   58 191  72   58 191  72   58 191  72   55   4 104   55   4 104   55   4 104   55   4 104   51  73 136   51  73 136   51  73 136   51  73 136   47 142 168   47 142 168   47 142 168   47 142 168   43 211 200   43 211 200   43 211 200   43 211 200   40  24 232   40  24 232   40  24 232   40  24 232   36  94   8   36  94   8   36  94   8   36  94   8   32 163  40   32 163  40   32 163  40   32 163  40   28 232  72   28 232  72   28 232  72   28 232  72   25  45 104   25  45 104   25  45 104   25  45 104   21 114 136   21 114 136   21 114 136   21 114 136   17 183 168   17 183 168   17 183 168   17 183 168   13 252 200   13 252 200   13 252 200   13 252 200   10  65 232   10  65 232   10  65 232   10  65 232    6 135   8    6 135   8    6 135   8    6 135   8    2 204  40    2 204  40    2 204  40    2 204  40
    1 251  71    1 251  71    1 251  71    1 251  71  114 208  63  114 208  63  114 208  63  114 208  63  111  21  95  111  21  95  111  21  95  111  21  95  107  90 127  107  90 127  107  90 127  107  90 127  103 159 159  103 159 159  103 159 159  103 159 159   99 228 191   99 228 191   99 228 191   99 228 191   96  41 223   96  41 223   96  41 223   96  41 223   92 110 255   92 110 255   92 110 255   92 110 255   88 180  31   88 180  31   88 180  31   88 180  31   84 249  63   84 249  63   84 249  63   84 249  63   81  62  95   81  62  95   81  62  95   81  62  95   77 131 127   77 131 127   77 131 127   77 131 127   73 200 159   73 200 159   73 200 159   73 200 159   70  13 191   70  13 191   70  13 191   70  13 191   66  82 223   66  82 223   66  82 223   66  82 223   62 151 255   62 151 255   62 151 255   62 151 255   58 221  31   58 221  31   58 221  31   58 221  31   55  34  63   55  34  63   55  34  63   55  34  63   51 103  95   51 103  95   51 103  95   51 103  95   47 172 127   47 172 127   47 172 127   47 172 127   43 241 159   43 241 159   43 241 159   43 241 159   40  54 191   40  54 191   40  54 191   40  54 191   36 123 223   36 123 223   36 123 223   36 123 223   32 192 255   32 192 255   32 192 255   32 192 255   29   6  31   29   6  31   29   6  31   29   6  31   25  75  63   25  75  63   25  75  63   25  75  63   21 144  95   21 144  95   21 144  95   21 144  95   17 213 127   17 213 127   17 213 127   17 213 127   14  26 159   14  26 159   14  26 159   14  26 159   10  95 191   10  95 191   10  95 191   10  95 191    6 164 223    6 164 223    6 164 223    6 164 223    2 233 255    2 233 255    2 233 255    2 233 255
    1 251  71    1 251  71    1 251  71    1 251  71  114 208  63  114 208  63  114 208  63  114 208  63  111  21  95  111  21  95  111  21  95  111  21  95  107  90 127  107  90 127  107  90 127  107  90 127  103 159 159  103 159 159  103 159 159  103 159 159   99 228 191   99 228 191   99 228 191   99 228 191   96  41 223   96  41 223   96  41 223   96  41 223   92 110 255   92 110 255   92 110 255   92 110 255   88 180  31   88 180  31   88 180  31   88 180  31   84 249  63   84 249  63   84 249  63   84 249  63   81  62  95   81  62  95   81  62  95   81  62  95   77 131 127   77 131 127   77 131 127   77 131 127   73 200 159   73 200 159   73 200 159   73 200 159   70  13 191   70  13 191   70  13 191   70  13 191   66  82 223   66  82 223   66  82 223   66  82 223   62 151 255   62 151 255   62 151 255   62 151 255   58 221  31   58 221  31   58 221  31   58 221  31   55  34  63   55  34  63   55  34  63   55  34  63   51 103  95   51 103  95   51 103  95   51 103  95   47 172 127   47 172 127   47 172 127   47 172 127   43 241 159   43 241 159   43 241 159   43 241 159   40  54 191   40  54 191   40  54 191   40  54 191   36 123 223   36 123 223   36 123 223   36 123 223   32 192 255   32 192 255   32 192 255   32 192 255   29   6  31   29   6  31   29   6  31   29   6  31   25  75  63   25  75  63   25  75  63   25  75  63   21 144  95   21 144  95   21 144  95   21 144  95   17 213 127   17 213 127   17 213 127   17 213 127   14  26 159   14  26 159   14  26 159   14  26 159   10  95 191   10  95 191   10  95 191   10  95 191    6 164 223    6 164 223    6 164 223    6 164 223    2 233 255    2 233 255    2 233 255    2 233 255
    1 251  71    1 251  71    1 251  71    1 251  71  114 208  63  114 208  63  114 208  63  114 208  63  111  21  95  111  21  95  111  21  95  111  21  95  107  90 127  107  90 127  107  90 127  107  90 127  103 159 159  103 159 159  103 159 159  103 159 159   99 228 191   99 228 191   99 228 191   99 228 191   96  41 223   96  41 223   96  41 223   96  41 223   92 110 255   92 110 255   92 110 255   92 110 255   88 180  31   88 180  31   88 180  31   88 180  31   84 249  63   84 249  63   84 249  63   84 249  63   81  62  95   81  62  95   81  62  95   81  62  95   77 131 127   77 131 127   77 131 127   77 131 127   73 200 159   73 200 159   73 200 159   73 200 159   70  13 191   70  13 191   70  13 191   70  13 191   66  82 223   66  82 223   66  82 223   66  82 223   62 151 255   62 151 255   62 151 255   62 151 255   58 221  31   58 221  31   58 221  31   58 221  31   55  34  63   55  34  63   55  34  63   55  34  63   51 103  95   51 103  95   51 103  95   51 103  95   47 172 127   47 172 127   47 172 127   47 172 127   43 241 159   43 241 159   43 241 159   43 241 159   40  54 191   40  54 191   40  54 191   40  54 191   36 123 223   36 123 223   36 123 223   36 123 223   32 192 255   32 192 255   32 192 255   32 192 255   29   6  31   29   6  31   29   6  31   29   6  31   25  75  63   25  75  63   25  75  63   25  75  63   21 144  95   21 144  95   21 144  95   21 144  95   17 213 127   17 213 127   17 213 127   17 213 127   14  26 159   14  26 159   14  26 159   14  26 159   10  95 191   10  95 191   10  95 191   10  95 191    6 164 223    6 164 223    6 164 223    6 164 223    2 233 255    2 233 255    2 233 255    2 233 255
    1 251  71    1 251  71    1 251  71    1 251  71  114 208  63  114 208  63  114 208  63  114 208  63  111  21  95  111  21  95  111  21  95  111  21  95  107  90 127  107  90 127  107  90 127  107  90 127  103 159 159  103 159 159  103 159 159  103 159 159   99 228 191   99 228 191   99 228 191   99 228 191   96  41 223   96  41 223   96  41 223   96  41 223   92 110 255   92 110 255   92 110 255   92 110 255   88 180  31   88 180  31   88 180  31   88 180  31   84 249  63   84 249  63   84 249  63   84 249  63   81  62  95   81  62  95   81  62  95   81  62  95   77 131 127   77 131 127   77 131 127   77 131 127   73 200 159   73 200 159   73 200 159   73 200 159   70  13 191   70  13 191   70  13 191   70  13 191   66  82 223   66  82 223   66  82 223   66  82 223   62 151 255   62 151 255   62 151 255   62 151 255   58 221  31   58 221  31   58 221  31   58 221  31   55  34  63   55  34  63   55  34  63   55  34  63   51 103  95   51 103  95   51 103  95   51 103  95   47 172 127   47 172 127   47 172 127   47 172 127   43 241 159   43 241 159   43 241 159   43 241 159   40  54 191   40  54 191   40  54 191   40  54 191   36 123 223   36 123 223   36 123 223   36 123 223   32 192 255   32 192 255   32 192 255   32 192 255   29   6  31   29   6  31   29   6  31   29   6  31   25  75  63   25  75  63   25  75  63   25  75  63   21 144  95   21 144  95   21 144  95   21 144  95   17 213 127   17 213 127   17 213 127   17 213 127   14  26 159   14  26 159   14  26 159   14  26 159   10  95 191   10  95 191   10  95 191   10  95 191    6 164 223    6 164 223    6 164 223    6 164 223    2 233 255    2 233 255    2 233 255    2 233 255
    2  25  30    2  25  30    2  25  30    2  25  30  114 238  22  114 238  22  114 238  22  114 238  22  111  51  54  111  51  54  111  51  54  111  51  54  107 120  86  107 120  86  107 120  86  107 120  86  103 189 118  103 189 118  103 189 118  103 189 118  100   2 150  100   2 150  100   2 150  100   2 150   96  71 182   96  71 182   96  71 182   96  71 182   92 140 214   92 140 214   92 140 214   92 140 214   88 209 246   88 209 246   88 209 246   88 209 246   85  23  22   85  23  22   85  23  22   85  23  22   81  92  54   81  92  54   81  92  54   81  92  54   77 161  86   77 161  86   77 161  86   77 161  86   73 230 118   73 230 118   73 230 118   73 230 118   70  43 150   70  43 150   70  43 150   70  43 150   66 112 182   66 112 182   66 112 182   66 112 182   62 181 214   62 181 214   62 181 214   62 181 214   58 250 246   58 250 246   58 250 246   58 250 246   55  64  22   55  64  22   55  64  22   55  64  22   51 133  54   51 133  54   51 133  54   51 133  54   47 202  86   47 202  86   47 202  86   47 202  86   44  15 118   44  15 118   44  15 118   44  15 118   40  84 150   40  84 150   40  84 150   40  84 150   36 153 182   36 153 182   36 153 182   36 153 182   32 222 214   32 222 214   32 222 214   32 222 214   29  35 246   29  35 246   29  35 246   29  35 246   25 105  22   25 105  22   25 105  22   25 105  22   21 174  54   21 174  54   21 174  54   21 174  54   17 243  86   17 243  86   17 243  86   17 243  86   14  56 118   14  56 118   14  56 118   14  56 118   10 125 150   10 125 150   10 125 150   10 125 150    6 194 182    6 194 182    6 194 182    6 194 182    3   7 214    3   7 214    3   7 214    3   7 214
    2  25  30    2  25  30    2  25  30    2  25  30  114 238  22  114 238  22  114 238  22  114 238  22  111  51  54  111  51  54  111  51  54  111  51  54  107 120  86  107 120  86  107 120  86  107 120  86  103 189 118  103 189 118  103 189 118  103 189 118  100   2 150  100   2 150  100   2 150  100   2 150   96  71 182   96  71 182   96  71 182   96  71 182   92 140 214   92 140 214   92 140 214   92 140 214   88 209 246   88 209 246   88 209 246   88 209 246   85  23  22   85  23  22   85  23  22   85  23  22   81  92  54   81  92  54   81  92  54   81  92  54   77 161  86   77 161  86   77 161  86   77 161  86   73 230 118   73 230 118   73 230 118   73 230 118   70  43 150   70  43 150   70  43 150   70  43 150   66 112 182   66 112 182   66 112 182   66 112 182   62 181 214   62 181 214   62 181 214   62 181 214   58 250 246   58 250 246   58 250 246   58 250 246   55  64  22   55  64  22   55  64  22   55  64  22   51 133  54   51 133  54   51 133  54   51 133  54   47 202  86   47 202  86   47 202  86   47 202  86   44  15 118   44  15 118   44  15 118   44  15 118   40  84 150   40  84 150   40  84 150   40  84 150   36 153 182   36 153 182   36 153 182   36 153 182   32 222 214   32 222 214   32 222 214   32 222 214   29  35 246   29  35 246   29  35 246   29  35 246   25 105  22   25 105  22   25 105  22   25 105  22   21 174  54   21 174  54   21 174  54   21 174  54   17 243  86   17 243  86   17 243  86   17 243  86   14  56 118   14  56 118   14  56 118   14  56 118   10 125 150   10 125 150   10 125 150   10 125 150    6 194 182    6 194 182    6 194 182    6 194 182    3   7 214    3   7 214    3   7 214    3   7 214
    2  25  30    2  25  30    2  25  30    2  25  30  114 238  22  114 238  22  114 238  22  114 238  22  111  51  54  111  51  54  111  51  54  111  51  54  107 120  86  107 120  86  107 120  86  107 120  86  103 189 118  103 189 118  103 189 118  103 189 118  100   2 150  100   2 150  100   2 150  100   2 150   96  71 182   96  71 182   96  71 182   96  71 182   92 140 214   92 140 214   92 140 214   92 140 214   88 209 246   88 209 246   88 209 246   88 209 246   85  23  22   85  23  22   85  23  22   85  23  22   81  92  54   81  92  54   81  92  54   81  92  54   77 161  86   77 161  86   77 161  86   77 161  86   73 230 118   73 230 118   73 230 118   73 230 118   70  43 150   70  43 150   70  43 150   70  43 150   66 112 182   66 112 182   66 112 182   66 112 182   62 181 214   62 181 214   62 181 214   62 181 214   58 250 246   58 250 246   58 250 246   58 250 246   55  64  22   55  64  22   55  64  22   55  64  22   51 133  54   51 133  54   51 133  54   51 133  54   47 202  86   47 202  86   47 202  86   47 202  86   44  15 118   44  15 118   44  15 118   44  15 118   40  84 150   40  84 150   40  84 150   40  84 150   36 153 182   36 153 182   36 153 182   36 153 182   32 222 214   32 222 214   32 222 214   32 222 214   29  35 246   29  35 246   29  35 246   29  35 246   25 105  22   25 105  22   25 105  22   25 105  22   21 174  54   21 174  54   21 174  54   21 174  54   17 243  86   17 243  86   17 243  86   17 243  86   14  56 118   14  56 118   14  56 118   14  56 118   10 125 150   10 125 150   10 125 150   10 125 150    6 194 182    6 194 182    6 194 182    6 194 182    3   7 214    3   7 214    3   7 214    3   7 214
    2  25  30    2  25  30    2  25  30    2  25  30  114 238  22  114 238  22  114 238  22  114 238  22  111  51  54  111  51  54  111  51  54  111  51  54  107 120  86  107 120  86  107 120  86  107 120  86  103 189 118  103 189 118  103 189 118  103 189 118  100   2 150  100   2 150  100   2 150  100   2 150   96  71 182   96  71 182   96  71 182   96  71 182   92 140 214   92 140 214   92 140 214   92 140 214   88 209 246   88 209 246   88 209 246   88 209 246   85  23  22   85  23  22   85  23  22   85  23  22   81  92  54   81  92  54   81  92  54   81  92  54   77 161  86   77 161  86   77 161  86   77 161  86   73 230 118   73 230 118   73 230 118   73 230 118   70  43 150   70  43 150   70  43 150   70  43 150   66 112 182   66 112 182   66 112 182   66 112 182   62 181 214   62 181 214   62 181 214   62 181 214   58 250 246   58 250 246   58 250 246   58 250 246   55  64  22   55  64  22   55  64  22   55  64  22   51 133  54   51 133  54   51 133  54   51 133  54   47 202  86   47 202  86   47 202  86   47 202  86   44  15 118   44  15 118   44  15 118   44  15 118   40  84 150   40  84 150   40  84 150   40  84 150   36 153 182   36 153 182   36 153 182   36 153 182   32 222 214   32 222 214   32 222 214   32 222 214   29  35 246   29  35 246   29  35 246   29  35 246   25 105  22   25 105  22   25 105  22   25 105  22   21 174  54   21 174  54   21 174  54   21 174  54   17 243  86   17 243  86   17 243  86   17 243  86   14  56 118   14  56 118   14  56 118   14  56 118   10 125 150   10 125 150   10 125 150   10 125 150    6 194 182    6 194 182    6 194 182    6 194 182    3   7 214    3   7 214    3   7 214    3   7 214
    2  54 245    2  54 245    2  54 245    2  54 245  115  11 237  115  11 237  115  11 237  115  11 237  111  81  13  111  81  13  111  81  13  111  81  13  107 150  45  107 150  45  107 150  45  107 150  45  103 219  77  103 219  77  103 219  77  103 219  77  100  32 109  100  32 109  100  32 109  100  32 109   96 101 141   96 101 141   96 101 141   96 101 141   92 170 173   92 170 173   92 170 173   92 170 173   88 239 205   88 239 205   88 239 205   88 239 205   85  52 237   85  52 237   85  52 237   85  52 237   81 122  13   81 122  13   81 122  13   81 122  13   77 191  45   77 191  45   77 191  45   77 191  45   74   4  77   74   4  77   74   4  77   74   4  77   70  73 109   70  73 109   70  73 109   70  73 109   66 142 141   66 142 141   66 142 141   66 142 141   62 211 173   62 211 173   62 211 173   62 211 173   59  24 205   59  24 205   59  24 205   59  24 205   55  93 237   55  93 237   55  93 237   55  93 237   51 163  13   51 163  13   51 163  13   51 163  13   47 232  45   47 232  45   47 232  45   47 232  45   44  45  77   44  45  77   44  45  77   44  45  77   40 114 109   40 114 109   40 114 109   40 114 109   36 183 141   36 183 141   36 183 141   36 183 141   32 252 173   32 252 173   32 252 173   32 252 173   29  65 205   29  65 205   29  65 205   29  65 205   25 134 237   25 134 237   25 134 237   25 134 237   21 204  13   21 204  13   21 204  13   21 204  13   18  17  45   18  17  45   18  17  45   18  17  45   14  86  77   14  86  77   14  86  77   14  86  77   10 155 109   10 155 109   10 155 109   10 155 109    6 224 141    6 224 141    6 224 141    6 224 141    3  37 173    3  37 173    3  37 173    3  37 173
    2  54 245    2  54 245    2  54 245    2  54 245  115  11 237  115  11 237  115  11 237  115  11 237  111  81  13  111  81  13  111  81  13  111  81  13  107 150  45  107 150  45  107 150  45  107 150  45  103 219  77  103 219  77  103 219  77  103 219  77  100  32 109  100  32 109  100  32 109  100  32 109   96 101 141   96 101 141   96 101 141   96 101 141   92 170 173   92 170 173   92 170 173   92 170 173   88 239 205   88 239 205   88 239 205   88 239 205   85  52 237   85  52 237   85  52 237   85  52 237   81 122  13   81 122  13   81 122  13   81 122  13   77 191  45   77 191  45   77 191  45   77 191  45   74   4  77   74   4  77   74   4  77   74   4  77   70  73 109   70  73 109   70  73 109   70  73 109   66 142 141   66 142 141   66 142 141   66 142 141   62 211 173   62 211 173   62 211 173   62 211 173   59  24 205   59  24 205   59  24 205   59  24 205   55  93 237   55  93 237   55  93 237   55  93 237   51 163  13   51 163  13   51 163  13   51 163  13   47 232  45   47 232  45   47 232  45   47 232  45   44  45  77   44  45  77   44  45  77   44  45  77   40 114 109   40 114 109   40 114 109   40 114 109   36 183 141   36 183 141   36 183 141   36 183 141   32 252 173   32 252 173   32 252 173   32 252 173   29  65 205   29  65 205   29  65 205   29  65 205   25 134 237   25 134 237   25 134 237   25 134 237   21 204  13   21 204  13   21 204  13   21 204  13   18  17  45   18  17  45   18  17  45   18  17  45   14  86  77   14  86  77   14  86  77   14  86  77   10 155 109   10 155 109   10 155 109   10 155 109    6 224 141    6 224 141    6 224 141    6 224 141    3  37 173    3  37 173    3  37 173    3  37 173
    2  54 245    2  54 245    2  54 245    2  54 245  115  11 237  115  11 237  115  11 237  115  11 237  111  81  13  111  81  13  111  81  13  111  81  13  107 150  45  107 150  45  107 150  45  107 150  45  103 219  77  103 219  77  103 219  77  103 219  77  100  32 109  100  32 109  100  32 109  100  32 109   96 101 141   96 101 141   96 101 141   96 101 141   92 170 173   92 170 173   92 170 173   92 170 173   88 239 205   88 239 205   88 239 205   88 239 205   85  52 237   85  52 237   85  52 237   85  52 237   81 122  13   81 122  13   81 122  13   81 122  13   77 191  45   77 191  45   77 191  45   77 191  45   74   4  77   74   4  77   74   4  77   74   4  77   70  73 109   70  73 109   70  73 109   70  73 109   66 142 141   66 142 141   66 142 141   66 142 141   62 211 173   62 211 173   62 211 173   62 211 173   59  24 205   59  24 205   59  24 205   59  24 205   55  93 237   55  93 237   55  93 237   55  93 237   51 163  13   51 163  13   51 163  13   51 163  13   47 232  45   47 232  45   47 232  45   47 232  45   44  45  77   44  45  77   44  45  77   44  45  77   40 114 109   40 114 109   40 114 109   40 114 109   36 183 141   36 183 141   36 183 141   36 183 141   32 252 173   32 252 173   32 252 173   32 252 173   29  65 205   29  65 205   29  65 205   29  65 205   25 134 237   25 134 237   25 134 237   25 134 237   21 204  13   21 204  13   21 204  13   21 204  13   18  17  45   18  17  45   18  17  45   18  17  45   14  86  77   14  86  77   14  86  77   14  86  77   10 155 109   10 155 109   10 155 109   10 155 109    6 224 141    6 224 141    6 224 141    6 224 141    3  37 173    3  37 173    3  37 173    3  37 173
    2  54 245    2  54 245    2  54 245    2  54 245  115  11 237  115  11 237  115  11 237  115  11 237  111  81  13  111  81  13  111  81  13  111  81  13  107 150  45  107 150  45  107 150  45  107 150  45  103 219  77  103 219  77  103 219  77  103 219  77  100  32 109  100  32 109  100  32 109  100  32 109   96 101 141   96 101 141   96 101 141   96 101 141   92 170 173   92 170 173   92 170 173   92 170 173   88 239 205   88 239 205   88 239 205   88 239 205   85  52 237   85  52 237   85  52 237   85  52 237   81 122  13   81 122  13   81 122  13   81 122  13   77 191  45   77 191  45   77 191  45   77 191  45   74   4  77   74   4  77   74   4  77   74   4  77   70  73 109   70  73 109   70  73 109   70  73 109   66 142 141   66 142 141   66 142 141   66 142 141   62 211 173   62 211 173   62 211 173   62 211 173   59  24 205   59  24 205   59  24 205   59  24 205   55  93 237   55  93 237   55  93 237   55  93 237   51 163  13   51 163  13   51 163  13   51 163  13   47 232  45   47 232  45   47 232  45   47 232  45   44  45  77   44  45  77   44  45  77   44  45  77   40 114 109   40 114 109   40 114 109   40 114 109   36 183 141   36 183 141   36 183 141   36 183 141   32 252 173   32 252 173   32 252 173   32 252 173   29  65 205   29  65 205   29  65 205   29  65 205   25 134 237   25 134 237   25 134 237   25 134 237   21 204  13   21 204  13   21 204  13   21 204  13   18  17  45   18  17  45   18  17  45   18  17  45   14  86  77   14  86  77   14  86  77   14  86  77   10 155 109   10 155 109   10 155 109   10 155 109    6 224 141    6 224 141    6 224 141    6 224 141    3  37 173    3  37 173    3  37 173    3  37 173
    2  84 204    2  84 204    2  84 204    2  84 204  115  41 196  115  41 196  115  41 196  115  41 196  111 110 228  111 110 228  111 110 228  111 110 228  107 180   4  107 180   4  107 180   4  107 180   4  103 249  36  103 249  36  103 249  36  103 249  36  100  62  68  100  62  68  100  62  68  100  62  68   96 131 100   96 131 100   96 131 100   96 131 100   92 200 132   92 200 132   92 200 132   92 200 132   89  13 164   89  13 164   89  13 164   89  13 164   85  82 196   85  82 196   85  82 196   85  82 196   81 151 228   81 151 228   81 151 228   81 151 228   77 221   4   77 221   4   77 221   4   77 221   4   74  34  36   74  34  36   74  34  36   74  34  36   70 103  68   70 103  68   70 103  68   70 103  68   66 172 100   66 172 100   66 172 100   66 172 100   62 241 132   62 241 132   62 241 132   62 241 132   59  54 164   59  54 164   59  54 164   59  54 164   55 123 196   55 123 196   55 123 196   55 123 196   51 192 228   51 192 228   51 192 228   51 192 228   48   6   4   48   6   4   48   6   4   48   6   4   44  75  36   44  75  36   44  75  36   44  75  36   40 144  68   40 144  68   40 144  68   40 144  68   36 213 100   36 213 100   36 213 100   36 213 100   33  26 132   33  26 132   33  26 132   33  26 132   29  95 164   29  95 164   29  95 164   29  95 164   25 164 196   25 164 196   25 164 196   25 164 196   21 233 228   21 233 228   21 233 228   21 233 228   18  47   4   18  47   4   18  47   4   18  47   4   14 116  36   14 116  36   14 116  36   14 116  36   10 185  68   10 185  68   10 185  68   10 185  68    6 254 100    6 254 100    6 254 100    6 254 100    3  67 132    3  67 132    3  67 132    3  67 132
    2  84 204    2  84 204    2  84 204    2  84 204  115  41 196  115  41 196  115  41 196  115  41 196  111 110 228  111 110 228  111 110 228  111 110 228  107 180   4  107 180   4  107 180   4  107 180   4  103 249  36  103 249  36  103 249  36  103 249  36  100  62  68  100  62  68  100  62  68  100  62  68   96 131 100   96 131 100   96 131 100   96 131 100   92 200 132   92 200 132   92 200 132   92 200 132   89  13 164   89  13 164   89  13 164   89  13 164   85  82 196   85  82 196   85  82 196   85  82 196   81 151 228   81 151 228   81 151 228   81 151 228   77 221   4   77 221   4   77 221   4   77 221   4   74  34  36   74  34  36   74  34  36   74  34  36   70 103  68   70 103  68   70 103  68   70 103  68   66 172 100   66 172 100   66 172 100   66 172 100   62 241 132   62 241 132   62 241 132   62 241 132   59  54 164   59  54 164   59  54 164   59  54 164   55 123 196   55 123 196   55 123 196   55 123 196   51 192 228   51 192 228   51 192 228   51 192 228   48   6   4   48   6   4   48   6   4   48   6   4   44  75  36   44  75  36   44  75  36   44  75  36   40 144  68   40 144  68   40 144  68   40 144  68   36 213 100   36 213 100   36 213 100   36 213 100   33  26 132   33  26 132   33  26 132   33  26 132   29  95 164   29  95 164   29  95 164   29  95 164   25 164 196   25 164 196   25 164 196   25 164 196   21 233 228   21 233 228   21 233 228   21 233 228   18  47   4   18  47   4   18  47   4   18  47   4   14 116  36   14 116  36   14 116  36   14 116  36   10 185  68   10 185  68   10 185  68   10 185  68    6 254 100    6 254 100    6 254 100    6 254 100    3  67 132    3  67 132    3  67 132    3  67 132
    2  84 204    2  84 204    2  84 204    2  84 204  115  41 196  115  41 196  115  41 196  115  41 196  111 110 228  111 110 228  111 110 228  111 110 228  107 180   4  107 180   4  107 180   4  107 180   4  103 249  36  103 249  36  103 249  36  103 249  36  100  62  68  100  62  68  100  62  68  100  62  68   96 131 100   96 131 100   96 131 100   96 131 100   92 200 132   92 200 132   92 200 132   92 200 132   89  13 164   89  13 164   89  13 164   89  13 164   85  82 196   85  82 196   85  82 196   85  82 196   81 151 228   81 151 228   81 151 228   81 151 228   77 221   4   77 221   4   77 221   4   77 221   4   74  34  36   74  34  36   74  34  36   74  34  36   70 103  68   70 103  68   70 103  68   70 103  68   66 172 100   66 172 100   66 172 100   66 172 100   62 241 132   62 241 132   62 241 132   62 241 132   59  54 164   59  54 164   59  54 164   59  54 164   55 123 196   55 123 196   55 123 196   55 123 196   51 192 228   51 192 228   51 192 228   51 192 228   48   6   4   48   6   4   48   6   4   48   6   4   44  75  36   44  75  36   44  75  36   44  75  36   40 144  68   40 144  68   40 144  68   40 144  68   36 213 100   36 213 100   36 213 100   36 213 100   33  26 132   33  26 132   33  26 132   33  26 132   29  95 164   29  95 164   29  95 164   29  95 164   25 164 196   25 164 196   25 164 196   25 164 196   21 233 228   21 233 228   21 233 228   21 233 228   18  47   4   18  47   4   18  47   4   18  47   4   14 116  36   14 116  36   14 116  36   14 116  36   10 185  68   10 185  68   10 185  68   10 185  68    6 254 100    6 254 100    6 254 100    6 254 100    3  67 132    3  67 132    3  67 132    3  67 132
    2  84 204    2  84 204    2  84 204    2  84 204  115  41 196  115  41 196  115  41 196  115  41 196  111 110 228  111 110 228  111 110 228  111 110 228  107 180   4  107 180   4  107 180   4  107 180   4  103 249  36  103 249  36  103 249  36  103 249  36  100  62  68  100  62  68  100  62  68  100  62  68   96 131 100   96 131 100   96 131 100   96 131 100   92 200 132   92 200 132   92 200 132   92 200 132   89  13 164   89  13 164   89  13 164   89  13 164   85  82 196   85  82 196   85  82 196   85  82 196   81 151 228   81 151 228   81 151 228   81 151 228   77 221   4   77 221   4   77 221   4   77 221   4   74  34  36   74  34  36   74  34  36   74  34  36   70 103  68   70 103  68   70 103  68   70 103  68   66 172 100   66 172 100   66 172 100   66 172 100   62 241 132   62 241 132   62 241 132   62 241 132   59  54 164   59  54 164   59  54 164   59  54 164   55 123 196   55 123 196   55 123 196   55 123 196   51 192 228   51 192 228   51 192 228   51 192 228   48   6   4   48   6   4   48   6   4   48   6   4   44  75  36   44  75  36   44  75  36   44  75  36   40 144  68   40 144  68   40 144  68   40 144  68   36 213 100   36 213 100   36 213 100   36 213 100   33  26 132   33  26 132   33  26 132   33  26 132   29  95 164   29  95 164   29  95 164   29  95 164   25 164 196   25 164 196   25 164 196   25 164 196   21 233 228   21 233 228   21 233 228   21 233 228   18  47   4   18  47   4   18  47   4   18  47   4   14 116  36   14 116  36   14 116  36   14 116  36   10 185  68   10 185  68   10 185  68   10 185  68    6 254 100    6 254 100    6 254 100    6 254 100    3  67 132    3  67 132    3  67 132    3  67 132
    2 114 163    2 114 163    2 114 163    2 114 163  115  71 155  115  71 155  115  71 155  115  71 155  111 140 187  111 140 187  111 140 187  111 140 187  107 209 219  107 209 219  107 209 219  107 209 219  104  22 251  104  22 251  104  22 251  104  22 251  100  92  27  100  92  27  100  92  27  100  92  27   96 161  59   96 161  59   96 161  59   96 161  59   92 230  91   92 230  91   92 230  91   92 230  91   89  43 123   89  43 123   89  43 123   89  43 123   85 112 155   85 112 155   85 112 155   85 112 155   81 181 187   81 181 187   81 181 187   81 181 187   77 250 219   77 250 219   77 250 219   77 250 219   74  63 251   74  63 251   74  63 251   74  63 251   70 133  27   70 133  27   70 133  27   70 133  27   66 202  59   66 202  59   66 202  59   66 202  59   63  15  91   63  15  91   63  15  91   63  15  91   59  84 123   59  84 123   59  84 123   59  84 123   55 153 155   55 153 155   55 153 155   55 153 155   51 222 187   51 222 187   51 222 187   51 222 187   48  35 219   48  35 219   48  35 219   48  35 219   44 104 251   44 104 251   44 104 251   44 104 251   40 174  27   40 174  27   40 174  27   40 174  27   36 243  59   36 243  59   36 243  59   36 243  59   33  56  91   33  56  91   33  56  91   33  56  91   29 125 123   29 125 123   29 125 123   29 125 123   25 194 155   25 194 155   25 194 155   25 194 155   22   7 187   22   7 187   22   7 187   22   7 187   18  76 219   18  76 219   18  76 219   18  76 219   14 145 251   14 145 251   14 145 251   14 145 251   10 215  27   10 215  27   10 215  27   10 215  27    7  28  59    7  28  59    7  28  59    7  28  59    3  97  91    3  97  91    3  97  91    3  97  91
    2 114 163    2 114 163    2 114 163    2 114 163  115  71 155  115  71 155  115  71 155  115  71 155  111 140 187  111 140 187  111 140 187  111 140 187  107 209 219  107 209 219  107 209 219  107 209 219  104  22 251  104  22 251  104  22 251  104  22 251  100  92  27  100  92  27  100  92  27  100  92  27   96 161  59   96 161  59   96 161  59   96 161  59   92 230  91   92 230  91   92 230  91   92 230  91   89  43 123   89  43 123   89  43 123   89  43 123   85 112 155   85 112 155   85 112 155   85 112 155   81 181 187   81 181 187   81 181 187   81 181 187   77 250 219   77 250 219   77 250 219   77 250 219   74  63 251   74  63 251   74  63 251   74  63 251   70 133  27   70 133  27   70 133  27   70 133  27   66 202  59   66 202  59   66 202  59   66 202  59   63  15  91   63  15  91   63  15  91   63  15  91   59  84 123   59  84 123   59  84 123   59  84 123   55 153 155   55 153 155   55 153 155   55 153 155   51 222 187   51 222 187   51 222 187   51 222 187   48  35 219   48  35 219   48  35 219   48  35 219   44 104 251   44 104 251   44 104 251   44 104 251   40 174  27   40 174  27   40 174  27   40 174  27   36 243  59   36 243  59   36 243  59   36 243  59   33  56  91   33  56  91   33  56  91   33  56  91   29 125 123   29 125 123   29 125 123   29 125 123   25 194 155   25 194 155   25 194 155   25 194 155   22   7 187   22   7 187   22   7 187   22   7 187   18  76 219   18  76 219   18  76 219   18  76 219   14 145 251   14 145 251   14 145 251   14 145 251   10 215  27   10 215  27   10 215  27   10 215  27    7  28  59    7  28  59    7  28  59    7  28  59    3  97  91    3  97  91    3  97  91    3  97  91
    2 114 163    2 114 163    2 114 163    2 114 163  115  71 155  115  71 155  115  71 155  115  71 155  111 140 187  111 140 187  111 140 187  111 140 187  107 209 219  107 209 219  107 209 219  107 209 219  104  22 251  104  22 251  104  22 251  104  22 251  100  92  27  100  92  27  100  92  27  100  92  27   96 161  59   96 161  59   96 161  59   96 161  59   92 230  91   92 230  91   92 230  91   92 230  91   89  43 123   89  43 123   89  43 123   89  43 123   85 112 155   85 112 155   85 112 155   85 112 155   81 181 187   81 181 187   81 181 187   81 181 187   77 250 219   77 250 219   77 250 219   77 250 219   74  63 251   74  63 251   74  63 251   74  63 251   70 133  27   70 133  27   70 133  27   70 133  27   66 202  59   66 202  59   66 202  59   66 202  59   63  15  91   63  15  91   63  15  91   63  15  91   59  84 123   59  84 123   59  84 123   59  84 123   55 153 155   55 153 155   55 153 155   55 153 155   51 222 187   51 222 187   51 222 187   51 222 187   48  35 219   48  35 219   48  35 219   48  35 219   44 104 251   44 104 251   44 104 251   44 104 251   40 174  27   40 174  27   40 174  27   40 174  27   36 243  59   36 243  59   36 243  59   36 243  59   33  56  91   33  56  91   33  56  91   33  56  91   29 125 123   29 125 123   29 125 123   29 125 123   25 194 155   25 194 155   25 194 155   25 194 155   22   7 187   22   7 187   22   7 187   22   7 187   18  76 219   18  76 219   18  76 219   18  76 219   14 145 251   14 145 251   14 145 251   14 145 251   10 215  27   10 215  27   10 215  27   10 215  27    7  28  59    7  28  59    7  28  59    7  28  59    3  97  91    3  97  91    3  97  91    3  97  91
    2 114 163    2 114 163    2 114 163    2 114 163  115  71 155  115  71 155  115  71 155  115  71 155  111 140 187  111 140 187  111 140 187  111 140 187  107 209 219  107 209 219  107 209 219  107 209 219  104  22 251  104  22 251  104  22 251  104  22 251  100  92  27  100  92  27  100  92  27  100  92  27   96 161  59   96 161  59   96 161  59   96 161  59   92 230  91   92 230  91   92 230  91   92 230  91   89  43 123   89  43 123   89  43 123   89  43 123   85 112 155   85 112 155   85 112 155   85 112 155   81 181 187   81 181 187   81 181 187   81 181 187   77 250 219   77 250 219   77 250 219   77 250 219   74  63 251   74  63 251   74  63 251   74  63 251   70 133  27   70 133  27   70 133  27   70 133  27   66 202  59   66 202  59   66 202  59   66 202  59   63  15  91   63  15  91   63  15  91   63  15  91   59  84 123   59  84 123   59  84 123   59  84 123   55 153 155   55 153 155   55 153 155   55 153 155   51 222 187   51 222 187   51 222 187   51 222 187   48  35 219   48  35 219   48  35 219   48  35 219   44 104 251   44 104 251   44 104 251   44 104 251   40 174  27   40 174  27   40 174  27   40 174  27   36 243  59   36 243  59   36 243  59   36 243  59   33  56  91   33  56  91   33  56  91   33  56  91   29 125 123   29 125 123   29 125 123   29 125 123   25 194 155   25 194 155   25 194 155   25 194 155   22   7 187   22   7 187   22   7 187   22   7 187   18  76 219   18  76 219   18  76 219   18  76 219   14 145 251   14 145 251   14 145 251   14 145 251   10 215  27   10 215  27   10 215  27   10 215  27    7  28  59    7  28  59    7  28  59    7  28  59    3  97  91    3  97  91    3  97  91    3  97  91
    2 144 122    2 144 122    2 144 122    2 144 122  115 101 114  115 101 114  115 101 114  115 101 114  111 170 146  111 170 146  111 170 146  111 170 146  107 239 178  107 239 178  107 239 178  107 239 178  104  52 210  104  52 210  104  52 210  104  52 210  100 121 242  100 121 242  100 121 242  100 121 242   96 191  18   96 191  18   96 191  18   96 191  18   93   4  50   93   4  50   93   4  50   93   4  50   89  73  82   89  73  82   89  73  82   89  73  82   85 142 114   85 142 114   85 142 114   85 142 114   81 211 146   81 211 146   81 211 146   81 211 146   78  24 178   78  24 178   78  24 178   78  24 178   74  93 210   74  93 210   74  93 210   74  93 210   70 162 242   70 162 242   70 162 242   70 162 242   66 232  18   66 232  18   66 232  18   66 232  18   63  45  50   63  45  50   63  45  50   63  45  50   59 114  82   59 114  82   59 114  82   59 114  82   55 183 114   55 183 114   55 183 114   55 183 114   51 252 146   51 252 146   51 252 146   51 252 146   48  65 178   48  65 178   48  65 178   48  65 178   44 134 210   44 134 210   44 134 210   44 134 210   40 203 242   40 203 242   40 203 242   40 203 242   37  17  18   37  17  18   37  17  18   37  17  18   33  86  50   33  86  50   33  86  50   33  86  50   29 155  82   29 155  82   29 155  82   29 155  82   25 224 114   25 224 114   25 224 114   25 224 114   22  37 146   22  37 146   22  37 146   22  37 146   18 106 178   18 106 178   18 106 178   18 106 178   14 175 210   14 175 210   14 175 210   14 175 210   10 244 242   10 244 242   10 244 242   10 244 242    7  58  18    7  58  18    7  58  18    7  58  18    3 127  50    3 127  50    3 127  50    3 127  50
    2 144 122    2 144 122    2 144 122    2 144 122  115 101 114  115 101 114  115 101 114  115 101 114  111 170 146  111 170 146  111 170 146  111 170 146  107 239 178  107 239 178  107 239 178  107 239 178  104  52 210  104  52 210  104  52 210  104  52 210  100 121 242  100 121 242  100 121 242  100 121 242   96 191  18   96 191  18   96 191  18   96 191  18   93   4  50   93   4  50   93   4  50   93   4  50   89  73  82   89  73  82   89  73  82   89  73  82   85 142 114   85 142 114   85 142 114   85 142 114   81 211 146   81 211 146   81 211 146   81 211 146   78  24 178   78  24 178   78  24 178   78  24 178   74  93 210   74  93 210   74  93 210   74  93 210   70 162 242   70 162 242   70 162 242   70 162 242   66 232  18   66 232  18   66 232  18   66 232  18   63  45  50   63  45  50   63  45  50   63  45  50   59 114  82   59 114  82   59 114  82   59 114  82   55 183 114   55 183 114   55 183 114   55 183 114   51 252 146   51 252 146   51 252 146   51 252 146   48  65 178   48  65 178   48  65 178   48  65 178   44 134 210   44 134 210   44 134 210   44 134 210   40 203 242   40 203 242   40 203 242   40 203 242   37  17  18   37  17  18   37  17  18   37  17  18   33  86  50   33  86  50   33  86  50   33  86  50   29 155  82   29 155  82   29 155  82   29 155  82   25 224 114   25 224 114   25 224 114   25 224 114   22  37 146   22  37 146   22  37 146   22  37 146   18 106 178   18 106 178   18 106 178   18 106 178   14 175 210   14 175 210   14 175 210   14 175 210   10 244 242   10 244 242   10 244 242   10 244 242    7  58  18    7  58  18    7  58  18    7  58  18    3 127  50    3 127  50    3 127  50    3 127  50
    2 144 122    2 144 122    2 144 122    2 144 122  115 101 114  115 101 114  115 101 114  115 101 114  111 170 146  111 170 146  111 170 146  111 170 146  107 239 178  107 239 178  107 239 178  107 239 178  104  52 210  104  52 210  104  52 210  104  52 210  100 121 242  100 121 242  100 121 242  100 121 242   96 191  18   96 191  18   96 191  18   96 191  18   93   4  50   93   4  50   93   4  50   93   4  50   89  73  82   89  73  82   89  73  82   89  73  82   85 142 114   85 142 114   85 142 114   85 142 114   81 211 146   81 211 146   81 211 146   81 211 146   78  24 178   78  24 178   78  24 178   78  24 178   74  93 210   74  93 210   74  93 210   74  93 210   70 162 242   70 162 242   70 162 242   70 162 242   66 232  18   66 232  18   66 232  18   66 232  18   63  45  50   63  45  50   63  45  50   63  45  50   59 114  82   59 114  82   59 114  82   59 114  82   55 183 114   55 183 114   55 183 114   55 183 114   51 252 146   51 252 146   51 252 146   51 252 146   48  65 178   48  65 178   48  65 178   48  65 178   44 134 210   44 134 210   44 134 210   44 134 210   40 203 242   40 203 242   40 203 242   40 203 242   37  17  18   37  17  18   37  17  18   37  17  18   33  86  50   33  86  50   33  86  50   33  86  50   29 155  82   29 155  82   29 155  82   29 155  82   25 224 114   25 224 114   25 224 114   25 224 114   22  37 146   22  37 146   22  37 146   22  37 146   18 106 178   18 106 178   18 106 178   18 106 178   14 175 210   14 175 210   14 175 210   14 175 210   10 244 242   10 244 242   10 244 242   10 244 242    7  58  18    7  58  18    7  58  18    7  58  18    3 127  50    3 127  50    3 127  50    3 127  50
    2 144 122    2 144 122    2 144 122    2 144 122  115 101 114  115 101 114  115 101 114  115 101 114  111 170 146  111 170 146  111 170 146  111 170 146  107 239 178  107 239 178  107 239 178  107 239 178  104  52 210  104  52 210  104  52 210  104  52 210  100 121 242  100 121 242  100 121 242  100 121 242   96 191  18   96 191  18   96 191  18   96 191  18   93   4  50   93   4  50   93   4  50   93   4  50   89  73  82   89  73  82   89  73  82   89  73  82   85 142 114   85 142 114   85 142 114   85 142 114   81 211 146   81 211 146   81 211 146   81 211 146   78  24 178   78  24 178   78  24 178   78  24 178   74  93 210   74  93 210   74  93 210   74  93 210   70 162 242   70 162 242   70 162 242   70 162 242   66 232  18   66 232  18   66 232  18   66 232  18   63  45  50   63  45  50   63  45  50   63  45  50   59 114  82   59 114  82   59 114  82   59 114  82   55 183 114   55 183 114   55 183 114   55 183 114   51 252 146   51 252 146   51 252 146   51 252 146   48  65 178   48  65 178   48  65 178   48  65 178   44 134 210   44 134 210   44 134 210   44 134 210   40 203 242   40 203 242   40 203 242   40 203 242   37  17  18   37  17  18   37  17  18   37  17  18   33  86  50   33  86  50   33  86  50   33  86  50   29 155  82   29 155  82   29 155  82   29 155  82   25 224 114   25 224 114   25 224 114   25 224 114   22  37 146   22  37 146   22  37 146   22  37 146   18 106 178   18 106 178   18 106 178   18 106 178   14 175 210   14 175 210   14 175 210   14 175 210   10 244 242   10 244 242   10 244 242   10 244 242    7  58  18    7  58  18    7  58  18    7  58  18    3 127  50    3 127  50    3 127  50    3 127  50
